P3
400 225
255
174 197 0
173 196 0
174 198 0
174 197 0
174 198 0
171 195 0
174 198 0
173 197 0
174 198 0
173 196 0
174 198 0
175 198 0
172 196 0
173 196 0
174 197 0
176 199 0
173 197 0
176 199 0
172 195 0
174 198 0
172 197 0
174 197 0
174 197 0
174 197 0
173 196 0
173 196 0
175 198 0
173 197 0
174 198 0
174 198 0
174 197 0
173 196 0
172 196 0
175 198 0
174 198 0
173 196 0
173 197 0
172 196 0
174 197 0
173 197 0
174 197 0
175 198 0
177 199 0
174 198 0
175 198 0
174 198 0
172 196 0
176 198 0
172 196 0
175 198 0
173 197 0
174 198 0
175 198 0
174 197 0
173 196 0
174 198 0
173 197 0
174 198 0
173 196 0
174 197 0
174 198 0
173 197 0
173 197 0
174 198 0
173 196 0
174 198 0
173 197 0
173 196 0
174 197 0
174 197 0
172 197 0
173 197 0
174 197 0
174 197 0
173 196 0
172 196 0
173 196 0
174 197 0
174 197 0
175 197 0
174 197 0
173 197 0
173 197 0
173 197 0
174 197 0
173 197 0
172 195 0
172 196 0
174 197 0
174 197 0
173 196 0
174 197 0
173 196 0
174 197 0
173 197 0
174 198 0
174 197 0
171 196 0
174 197 0
175 198 0
174 197 0
173 197 0
174 197 0
174 197 0
173 197 0
172 196 0
174 197 0
171 195 0
172 196 0
172 196 0
174 197 0
174 197 0
174 197 0
175 198 0
173 197 0
173 196 0
173 196 0
173 197 0
174 197 0
170 194 0
173 196 0
175 198 0
173 196 0
174 197 0
172 196 0
175 197 0
173 196 0
173 196 0
171 195 0
173 197 0
174 198 0
171 195 0
171 195 0
174 197 0
172 196 0
175 197 0
174 197 0
174 197 0
173 197 0
173 196 0
175 198 0
174 197 0
173 197 0
172 195 0
173 197 0
176 198 0
173 197 0
175 198 0
173 196 0
173 196 0
174 198 0
171 195 0
173 197 0
173 197 0
172 196 0
173 196 0
170 193 0
173 197 0
173 196 0
172 195 0
172 195 0
172 195 0
173 196 0
172 196 0
172 195 0
171 195 0
171 194 0
174 197 0
174 198 0
173 197 0
174 197 0
172 196 0
173 196 0
172 196 0
172 196 0
172 196 0
171 195 0
172 195 0
173 197 0
172 195 0
173 196 0
173 196 0
172 196 0
173 197 0
175 198 0
172 195 0
174 197 0
172 195 0
172 196 0
172 196 0
173 197 0
175 198 0
176 198 0
173 197 0
170 193 0
174 197 0
172 195 0
173 196 0
174 198 0
174 197 0
172 195 0
173 196 0
174 197 0
174 198 0
173 196 0
173 196 0
173 197 0
173 196 0
175 197 0
172 196 0
175 196 0
172 194 0
174 197 0
173 196 0
173 197 0
172 196 0
174 198 0
173 196 0
174 197 0
173 197 0
173 195 0
173 196 0
173 196 0
174 196 0
172 196 0
172 195 0
173 195 0
174 197 0
173 196 0
174 197 0
172 196 0
173 197 0
172 196 0
172 195 0
172 195 0
173 196 0
170 194 0
174 197 0
174 197 0
172 195 0
172 195 0
172 196 0
173 196 0
171 195 0
168 189 22
161 180 36
164 183 25
159 173 41
156 164 57
155 161 62
153 159 65
143 146 64
141 141 68
142 141 75
137 134 70
152 146 85
143 138 82
156 150 89
150 144 87
149 143 86
143 138 82
149 144 88
150 145 91
153 147 92
150 146 91
148 144 91
149 145 92
150 146 89
149 145 91
151 148 94
157 152 97
153 147 96
160 155 100
152 147 95
161 156 101
157 153 101
155 151 97
161 157 103
160 156 101
159 156 103
164 160 105
158 153 100
156 153 100
162 157 103
159 155 102
169 166 110
156 154 103
161 158 103
159 156 104
161 159 105
160 156 103
165 161 107
161 159 106
170 165 109
165 162 108
159 155 103
166 163 109
163 160 107
160 158 106
155 153 103
159 157 104
165 162 108
161 159 106
163 160 106
160 158 106
158 155 103
162 160 108
162 160 108
161 158 106
165 163 109
160 156 104
167 164 109
165 163 109
165 163 109
164 163 109
162 160 107
163 161 108
162 160 106
167 165 110
164 162 108
167 165 110
162 161 108
163 160 107
161 160 107
163 161 108
165 163 109
163 160 107
161 159 106
164 162 108
159 158 106
167 163 108
166 163 109
163 160 106
160 157 104
161 159 106
164 160 106
173 170 113
164 161 107
164 161 107
160 157 104
164 160 106
158 155 103
165 163 108
165 161 107
168 165 109
161 158 104
163 159 104
162 159 105
165 160 104
165 162 106
167 163 108
163 159 104
169 165 107
161 157 103
155 151 98
159 155 101
163 159 104
163 159 104
156 152 97
159 155 99
159 154 98
149 145 92
150 143 90
161 156 99
148 144 92
161 155 99
148 143 87
149 144 92
147 142 86
155 148 94
147 141 87
146 140 83
146 139 85
142 137 84
150 143 86
147 144 80
156 156 74
147 152 56
158 166 62
148 159 49
157 172 37
160 176 42
164 185 19
173 196 0
175 198 0
173 196 0
173 196 0
174 197 0
172 195 0
175 198 0
174 197 0
176 199 0
173 197 0
175 198 0
173 197 0
175 198 0
174 197 0
175 198 0
173 197 0
175 198 0
175 198 0
174 197 0
173 197 0
175 197 0
173 197 0
173 197 0
174 197 0
173 196 0
174 197 0
174 197 0
173 196 0
174 198 0
174 197 0
173 196 0
173 197 0
174 197 0
174 197 0
173 197 0
174 198 0
173 196 0
175 198 0
173 197 0
174 197 0
173 197 0
174 198 0
173 197 0
175 198 0
175 198 0
174 197 0
174 197 0
173 197 0
175 198 0
176 199 0
174 197 0
172 196 0
173 196 0
174 197 0
176 199 0
172 196 0
171 194 0
174 198 0
172 196 0
175 198 0
173 197 0
173 197 0
174 197 0
174 198 0
175 198 0
172 196 0
174 197 0
173 197 0
176 198 0
174 198 0
174 197 0
174 197 0
172 196 0
175 198 0
173 197 0
171 195 0
174 197 0
174 198 0
173 196 0
174 197 0
173 196 0
171 195 0
173 197 0
174 197 0
173 196 0
174 197 0
172 197 0
174 197 0
175 198 0
172 195 0
173 196 0
174 197 0
174 197 0
174 198 0
173 196 0
171 194 0
173 197 0
172 196 0
171 195 0
172 195 0
173 197 0
173 197 0
174 197 0
172 195 0
174 197 0
173 197 0
173 197 0
174 197 0
172 196 0
174 197 0
174 197 0
171 196 0
175 198 0
173 196 0
173 197 0
171 195 0
175 198 0
171 195 0
171 194 0
174 197 0
170 194 0
173 197 0
173 196 0
174 198 0
174 197 0
173 197 0
173 196 0
172 195 0
171 195 0
173 197 0
173 196 0
173 196 0
174 197 0
172 195 0
174 198 0
174 198 0
175 198 0
173 196 0
171 194 0
176 199 0
173 197 0
174 198 0
172 195 0
171 195 0
174 197 0
171 194 0
169 192 0
171 195 0
172 195 0
174 197 0
170 194 0
173 197 0
172 197 0
174 197 0
173 197 0
175 198 0
174 197 0
173 197 0
173 197 0
172 196 0
175 197 0
172 195 0
172 196 0
174 197 0
174 197 0
174 197 0
171 195 0
176 198 0
175 198 0
174 197 0
174 197 0
171 195 0
172 195 0
171 195 0
171 194 0
174 197 0
173 197 0
174 197 0
170 193 0
173 197 0
172 195 0
173 195 0
174 197 0
173 195 0
174 197 0
170 194 0
170 193 0
172 196 0
172 196 0
173 197 0
175 198 0
173 196 0
175 197 0
172 195 0
172 196 0
172 196 0
173 196 0
174 196 0
173 197 0
172 195 0
173 195 0
172 196 0
174 197 0
173 196 0
173 196 0
172 195 0
172 195 0
176 198 0
173 196 0
173 197 0
172 195 0
172 195 0
174 198 0
173 196 0
174 197 0
176 198 0
173 197 0
173 196 0
173 196 0
170 192 0
171 196 0
173 197 0
172 196 0
170 193 0
173 196 0
174 198 0
172 195 0
173 196 0
173 196 0
173 196 0
172 195 0
173 197 0
173 197 0
173 196 0
171 195 0
173 197 0
172 195 0
172 195 0
172 195 0
173 197 0
173 196 0
172 196 0
174 197 0
175 197 0
172 196 0
172 196 0
173 195 0
175 198 0
173 197 0
174 198 0
173 195 0
171 195 0
172 194 0
173 197 0
172 196 0
173 196 0
172 195 0
173 196 0
173 196 0
175 198 0
171 194 11
164 180 37
168 185 37
155 169 30
153 166 41
153 164 45
142 147 57
153 157 61
143 142 73
144 144 71
151 145 83
139 133 78
148 142 85
159 152 93
151 146 91
149 143 91
145 140 85
150 144 90
150 145 90
153 148 92
148 144 90
148 144 93
151 147 94
147 143 92
155 152 94
160 156 101
156 152 100
155 150 97
159 155 101
166 162 106
162 157 100
158 154 101
159 155 101
155 151 99
158 154 99
161 158 104
158 155 102
156 152 100
163 159 105
166 162 108
157 155 103
160 156 103
165 161 107
156 153 102
163 159 106
158 155 103
161 157 104
168 164 109
166 163 109
164 161 106
167 164 110
164 160 106
161 159 106
163 160 107
162 159 105
160 158 106
162 160 108
172 168 111
162 159 106
161 158 106
165 163 109
164 163 110
166 164 109
166 164 109
164 161 108
166 162 108
165 163 109
168 166 111
163 160 106
163 161 108
164 162 108
166 163 109
165 162 108
164 161 108
164 162 108
169 168 112
169 167 112
162 160 107
167 165 110
163 161 108
156 154 103
162 159 106
171 168 112
164 161 108
166 163 108
165 163 109
166 163 109
164 161 108
163 160 107
159 155 103
158 155 103
165 163 108
160 158 106
163 160 106
164 161 107
160 157 104
161 157 103
168 163 108
168 164 108
161 158 104
159 156 103
161 158 105
166 163 108
163 158 104
166 162 107
165 162 106
164 160 106
159 155 102
156 153 101
160 155 100
161 157 102
160 156 99
163 158 103
160 155 100
161 157 101
156 152 97
156 151 97
155 150 97
153 149 95
159 153 97
161 157 103
154 148 91
158 152 98
150 146 93
141 137 86
153 148 95
146 141 83
149 143 87
140 135 83
131 126 73
144 138 80
141 136 80
137 133 79
149 145 79
137 139 64
153 155 71
149 157 53
160 171 51
160 175 37
162 182 25
171 193 19
172 195 0
174 197 0
173 195 0
174 197 0
173 196 0
176 198 0
172 196 0
176 198 0
173 196 0
173 197 0
175 198 0
175 198 0
174 197 0
175 198 0
174 198 0
173 197 0
175 198 0
175 197 0
172 196 0
175 198 0
175 198 0
175 198 0
174 198 0
173 197 0
174 197 0
174 197 0
170 194 0
175 198 0
174 197 0
172 196 0
174 197 0
172 196 0
173 197 0
175 198 0
174 197 0
175 198 0
173 197 0
174 197 0
174 198 0
172 196 0
173 196 0
174 197 0
174 197 0
173 197 0
173 197 0
173 197 0
172 195 0
173 197 0
172 195 0
173 197 0
174 198 0
172 196 0
175 198 0
173 197 0
174 197 0
175 198 0
173 197 0
174 197 0
173 196 0
173 196 0
173 197 0
174 197 0
173 196 0
173 197 0
173 197 0
173 197 0
173 197 0
174 198 0
174 198 0
175 198 0
174 197 0
173 196 0
173 197 0
174 197 0
172 195 0
173 197 0
175 198 0
173 197 0
173 197 0
170 194 0
175 198 0
174 197 0
174 197 0
174 197 0
174 197 0
172 196 0
174 197 0
173 197 0
171 195 0
172 196 0
173 196 0
173 197 0
174 198 0
172 196 0
173 197 0
171 195 0
173 197 0
173 196 0
173 196 0
174 197 0
173 197 0
173 197 0
172 196 0
175 197 0
175 198 0
174 198 0
174 198 0
174 198 0
174 197 0
175 198 0
172 196 0
173 197 0
174 197 0
175 197 0
173 196 0
173 197 0
173 196 0
173 196 0
174 198 0
173 197 0
174 198 0
173 196 0
172 196 0
171 195 0
174 196 0
171 196 0
172 196 0
174 198 0
173 196 0
172 196 0
175 198 0
173 197 0
170 193 0
175 198 0
172 196 0
174 198 0
173 196 0
175 197 0
172 195 0
172 196 0
174 197 0
173 196 0
174 197 0
173 196 0
174 197 0
174 197 0
174 197 0
172 196 0
172 195 0
174 197 0
172 195 0
174 197 0
173 197 0
173 196 0
172 195 0
172 195 0
175 198 0
174 197 0
173 196 0
172 196 0
173 196 0
174 198 0
175 197 0
174 197 0
174 197 0
173 196 0
175 198 0
173 196 0
175 198 0
174 197 0
173 197 0
173 197 0
174 197 0
173 196 0
174 197 0
176 198 0
173 197 0
171 194 0
173 197 0
173 195 0
175 198 0
172 195 0
175 198 0
171 194 0
174 196 0
172 195 0
172 196 0
172 195 0
173 196 0
174 197 0
174 197 0
172 196 0
174 198 0
174 197 0
174 197 0
173 196 0
174 197 0
173 197 0
173 196 0
174 198 0
171 195 0
172 196 0
173 197 0
175 197 0
172 195 0
169 192 0
174 197 0
172 196 0
170 194 0
173 197 0
173 196 0
175 197 0
171 194 0
174 197 0
174 197 0
173 196 0
173 196 0
172 195 0
173 196 0
173 196 0
173 196 0
173 197 0
173 197 0
173 197 0
173 196 0
174 197 0
172 196 0
173 196 0
172 195 0
171 194 0
173 196 0
172 195 0
171 195 0
173 197 0
175 198 0
172 194 0
173 196 0
174 196 0
173 196 0
174 197 0
173 196 0
173 196 0
174 197 0
171 195 0
173 196 0
173 197 0
172 195 0
174 198 0
170 194 0
175 198 0
174 197 0
173 196 0
173 196 0
174 196 0
174 197 0
171 194 0
172 196 0
175 198 0
172 195 11
169 190 22
164 183 25
162 178 39
159 170 45
152 161 52
151 157 62
142 145 62
151 151 71
139 139 66
144 139 78
155 149 88
146 140 82
140 135 81
151 145 87
147 142 87
153 147 89
156 150 94
152 148 92
148 142 90
148 144 90
147 142 89
152 148 93
153 148 96
151 147 94
163 158 100
153 149 97
157 152 98
153 148 96
146 142 91
157 152 98
157 154 100
155 152 100
159 155 103
155 151 100
163 159 104
159 155 101
163 159 104
163 159 103
163 159 103
156 153 101
152 148 98
155 153 101
163 159 105
160 157 104
164 160 106
164 161 108
165 161 107
168 165 108
159 157 104
163 160 105
163 161 108
153 150 101
165 162 107
163 161 108
164 162 108
160 158 106
164 162 108
161 160 107
164 162 108
164 161 108
167 165 110
163 160 107
167 165 110
165 163 108
168 165 110
168 165 110
164 162 108
165 163 109
169 166 110
168 166 111
167 164 109
169 167 111
165 162 108
164 162 109
160 158 106
164 162 109
168 165 110
161 158 106
165 162 108
162 160 107
166 163 109
162 159 106
167 164 109
163 161 108
163 161 108
160 158 106
156 154 103
170 168 112
165 162 108
164 162 108
160 158 106
157 155 104
164 162 108
161 158 104
167 164 109
161 158 105
165 162 108
165 161 107
161 157 104
164 160 106
162 159 105
155 152 100
161 158 104
167 163 108
164 161 106
156 153 100
167 163 107
165 161 105
162 158 103
157 153 101
162 158 104
159 156 103
163 158 101
164 159 103
155 151 96
158 152 98
161 156 97
160 156 102
143 140 88
148 144 92
150 145 94
157 151 93
157 150 95
159 153 99
151 146 93
159 154 98
150 145 89
155 150 93
150 144 89
152 147 90
152 144 90
151 145 86
144 138 77
152 146 85
137 134 69
138 140 62
150 153 68
151 158 58
151 164 44
165 180 39
168 188 30
169 191 11
175 198 0
175 197 0
175 198 0
177 199 0
174 197 0
173 196 0
175 198 0
175 197 0
175 198 0
174 197 0
174 197 0
173 197 0
174 198 0
172 195 0
173 196 0
174 197 0
175 198 0
174 198 0
175 198 0
173 197 0
174 198 0
174 198 0
174 197 0
171 195 0
174 197 0
173 197 0
172 196 0
174 198 0
174 197 0
173 197 0
172 196 0
176 199 0
173 197 0
175 198 0
175 198 0
173 196 0
173 196 0
174 198 0
173 197 0
174 198 0
174 197 0
176 199 0
173 196 0
173 197 0
175 198 0
173 197 0
175 198 0
173 196 0
175 198 0
175 198 0
172 194 0
175 198 0
172 195 0
174 197 0
174 197 0
173 196 0
174 197 0
174 197 0
174 197 0
174 197 0
176 198 0
175 198 0
173 196 0
176 199 0
172 196 0
173 197 0
173 197 0
173 196 0
174 197 0
174 197 0
174 197 0
173 196 0
173 196 0
175 198 0
174 197 0
173 196 0
174 197 0
174 197 0
172 196 0
175 198 0
174 198 0
173 197 0
173 197 0
171 194 0
173 196 0
175 198 0
174 197 0
174 198 0
174 197 0
173 196 0
173 196 0
175 198 0
173 196 0
172 195 0
174 197 0
174 198 0
173 197 0
174 198 0
171 195 0
173 196 0
171 195 0
173 196 0
174 197 0
172 196 0
174 198 0
175 198 0
174 198 0
172 196 0
173 196 0
173 196 0
173 196 0
173 197 0
172 195 0
175 198 0
173 196 0
175 198 0
171 196 0
174 198 0
172 196 0
171 195 0
174 197 0
172 195 0
173 197 0
172 195 0
175 197 0
173 197 0
173 196 0
173 197 0
176 198 0
170 194 0
173 197 0
176 199 0
169 193 0
174 197 0
173 196 0
172 196 0
174 197 0
173 196 0
175 198 0
175 198 0
174 197 0
174 198 0
173 196 0
173 197 0
173 196 0
173 197 0
172 195 0
175 198 0
171 194 0
173 197 0
176 199 0
172 196 0
173 197 0
171 194 0
174 197 0
174 198 0
171 195 0
172 196 0
173 196 0
173 196 0
172 195 0
173 196 0
170 194 0
174 197 0
174 197 0
175 198 0
172 195 0
172 196 0
173 196 0
173 197 0
175 198 0
175 198 0
173 196 0
170 193 0
171 195 0
172 195 0
174 197 0
172 195 0
174 197 0
172 195 0
173 197 0
171 195 0
170 194 0
175 198 0
171 196 0
173 196 0
172 195 0
173 196 0
171 194 0
171 195 0
174 197 0
173 197 0
174 197 0
174 197 0
173 197 0
172 196 0
172 196 0
172 196 0
173 196 0
173 197 0
171 195 0
174 197 0
174 197 0
174 197 0
173 196 0
173 196 0
172 196 0
173 196 0
173 195 0
173 196 0
173 196 0
175 197 0
172 195 0
172 195 0
172 196 0
173 196 0
174 197 0
175 198 0
172 195 0
174 197 0
175 198 0
174 197 0
171 195 0
171 195 0
172 194 0
172 196 0
173 196 0
172 196 0
173 196 0
172 195 0
173 197 0
173 197 0
172 196 0
172 196 0
171 195 0
170 194 0
174 197 0
173 196 0
171 194 0
171 195 0
173 196 0
172 196 0
170 193 0
173 196 0
173 197 0
173 197 0
171 195 0
171 194 0
172 195 0
172 196 0
173 197 0
174 197 0
173 196 0
172 196 0
172 194 0
172 195 0
173 196 0
168 188 16
163 181 32
164 182 32
161 176 37
151 163 39
158 165 58
144 150 56
147 150 66
148 147 72
139 136 75
147 142 80
153 147 91
144 139 82
141 136 83
149 143 89
149 143 86
153 147 93
144 139 85
160 154 94
148 143 87
149 144 92
155 151 94
150 146 91
157 152 95
152 148 95
158 153 98
146 142 91
155 151 98
154 151 98
159 154 98
157 153 100
159 155 100
152 148 98
165 161 107
162 158 103
157 154 101
166 160 105
156 154 102
161 157 103
155 151 99
162 159 105
159 155 102
159 156 104
162 159 106
158 155 103
165 161 106
167 164 108
160 157 104
163 161 108
167 163 107
160 157 103
160 158 106
167 164 109
162 159 107
154 152 102
166 164 109
163 160 107
165 163 110
166 163 109
165 163 109
167 164 109
163 161 107
166 163 108
165 163 109
169 167 111
167 165 110
169 166 111
168 166 111
166 163 109
166 163 109
172 169 112
166 164 109
166 163 109
164 162 108
167 166 111
167 164 109
169 166 110
157 155 104
167 164 109
163 160 106
166 164 109
168 166 110
167 164 109
174 170 113
163 160 107
171 168 112
161 160 107
161 158 105
162 159 106
166 163 109
160 156 104
166 163 108
159 157 105
164 162 108
164 161 107
164 161 107
166 163 108
163 160 106
167 164 109
165 162 107
155 152 101
163 160 106
168 163 108
163 159 105
163 159 104
160 157 104
166 162 107
168 163 107
164 159 104
166 161 106
162 158 103
163 158 102
160 155 99
163 159 102
164 159 102
159 155 100
158 153 99
157 153 99
164 159 101
162 157 100
151 146 93
152 147 93
158 153 98
158 152 95
155 150 96
159 154 97
157 151 95
163 157 95
156 150 94
148 143 89
150 144 89
148 141 87
150 144 86
139 135 84
142 136 80
140 138 74
152 149 84
155 157 69
155 159 67
155 164 53
148 162 30
161 178 39
167 189 22
172 194 16
173 196 0
175 197 0
173 197 0
173 196 0
174 197 0
176 198 0
176 198 0
172 196 0
174 197 0
174 197 0
175 198 0
174 198 0
171 195 0
174 198 0
174 197 0
175 198 0
174 197 0
173 197 0
174 198 0
174 198 0
174 198 0
173 197 0
173 197 0
174 197 0
171 196 0
172 196 0
173 197 0
174 197 0
173 197 0
175 198 0
171 195 0
174 197 0
173 197 0
174 197 0
172 196 0
175 198 0
174 198 0
173 197 0
176 199 0
173 197 0
174 197 0
174 197 0
176 199 0
175 198 0
174 198 0
173 197 0
173 197 0
172 196 0
172 196 0
174 198 0
174 198 0
173 197 0
174 198 0
173 197 0
174 197 0
175 197 0
175 198 0
174 197 0
173 197 0
174 198 0
173 196 0
172 195 0
175 198 0
171 195 0
173 197 0
176 198 0
173 196 0
174 197 0
171 195 0
175 198 0
173 197 0
175 198 0
174 198 0
172 195 0
175 198 0
173 196 0
173 196 0
172 197 0
174 197 0
173 197 0
174 197 0
174 197 0
173 197 0
174 197 0
174 198 0
173 197 0
175 198 0
173 196 0
173 197 0
175 198 0
173 197 0
171 195 0
175 198 0
175 198 0
176 198 0
173 197 0
174 197 0
172 196 0
174 197 0
174 198 0
173 196 0
174 197 0
175 198 0
174 198 0
174 197 0
171 195 0
172 196 0
173 196 0
174 197 0
175 198 0
173 197 0
171 195 0
175 198 0
174 197 0
173 196 0
174 197 0
175 198 0
174 198 0
174 197 0
172 196 0
174 196 0
174 197 0
173 197 0
174 197 0
172 196 0
175 198 0
172 196 0
175 198 0
176 198 0
173 196 0
172 197 0
173 196 0
174 197 0
174 197 0
172 195 0
173 196 0
174 197 0
175 198 0
173 197 0
171 195 0
172 195 0
174 197 0
174 197 0
173 197 0
173 196 0
171 195 0
172 196 0
173 196 0
172 196 0
173 196 0
172 196 0
174 197 0
175 197 0
175 198 0
174 197 0
175 198 0
172 196 0
172 195 0
174 197 0
173 197 0
175 197 0
173 196 0
172 196 0
175 198 0
173 196 0
172 194 0
171 195 0
173 196 0
174 197 0
173 196 0
173 196 0
175 198 0
172 196 0
172 196 0
173 196 0
173 196 0
175 198 0
173 197 0
174 197 0
173 197 0
172 195 0
173 196 0
173 196 0
173 197 0
171 195 0
172 194 0
174 197 0
174 197 0
173 196 0
173 196 0
173 195 0
174 198 0
173 196 0
174 197 0
173 196 0
173 196 0
173 197 0
174 197 0
173 195 0
175 197 0
173 196 0
174 197 0
171 193 0
174 197 0
174 197 0
174 198 0
172 196 0
171 194 0
172 196 0
174 197 0
173 197 0
172 196 0
175 198 0
172 196 0
174 197 0
172 196 0
173 196 0
172 196 0
173 195 0
173 196 0
171 194 0
172 195 0
174 198 0
175 197 0
173 196 0
175 198 0
174 197 0
173 196 0
173 197 0
169 193 0
174 197 0
174 197 0
172 195 0
174 197 0
175 197 0
174 197 0
172 196 0
174 197 0
170 194 0
173 197 0
174 197 0
175 198 0
173 197 0
171 194 0
174 196 0
171 195 0
173 196 0
173 196 0
173 196 0
174 196 0
171 194 0
174 197 0
172 197 0
174 197 0
174 197 0
172 195 0
164 182 25
165 180 42
159 173 41
155 168 51
148 156 58
146 152 57
143 146 69
146 146 67
146 144 73
139 135 69
143 138 84
151 146 86
149 142 87
155 148 87
154 148 92
134 130 79
144 139 84
147 142 90
150 146 90
147 142 89
162 156 96
150 145 91
156 151 95
158 152 98
152 147 95
151 147 93
151 147 95
166 160 101
167 161 105
150 147 98
153 149 97
159 155 101
163 159 103
158 154 101
165 161 105
158 155 101
163 158 102
158 154 102
157 154 102
160 156 103
161 158 104
164 161 107
166 163 108
151 149 99
157 155 104
159 156 105
165 162 108
161 158 105
162 159 106
167 163 108
161 158 105
165 163 109
163 160 107
166 162 108
169 166 111
168 166 111
162 160 107
169 167 111
166 163 109
163 161 108
169 165 110
170 167 112
172 168 112
170 167 111
167 163 109
164 162 109
163 161 108
168 165 110
169 166 110
165 163 109
171 168 112
170 168 112
164 162 108
160 158 106
163 161 108
168 165 110
161 159 106
165 163 109
162 160 106
163 161 107
167 164 109
168 165 110
163 160 106
167 165 110
165 162 108
166 163 108
163 161 107
158 156 104
168 165 110
168 164 109
155 153 102
165 163 108
166 163 109
171 167 110
164 161 108
165 162 107
164 161 106
166 163 108
163 160 105
162 158 104
160 157 103
164 161 106
159 157 104
160 156 103
163 160 107
165 161 106
165 161 106
160 157 102
165 162 104
160 157 103
157 153 99
157 152 99
160 157 103
162 158 101
162 157 103
162 158 104
154 149 97
154 149 95
153 149 96
156 151 97
161 156 99
155 151 97
166 160 101
152 147 90
155 151 97
150 144 88
152 146 92
155 149 90
144 139 85
159 154 97
150 144 87
151 146 88
148 141 86
150 143 87
153 147 82
146 140 82
151 147 80
146 142 80
145 149 60
155 159 64
158 169 49
159 172 44
167 187 19
173 195 16
174 197 0
174 197 0
172 196 0
173 196 0
174 197 0
174 197 0
172 195 0
173 196 0
172 196 0
173 196 0
175 198 0
174 198 0
173 196 0
173 197 0
174 197 0
174 196 0
173 197 0
173 196 0
174 198 0
174 197 0
175 198 0
174 197 0
174 198 0
174 197 0
175 198 0
174 197 0
176 198 0
171 195 0
173 196 0
175 198 0
173 196 0
173 197 0
174 197 0
174 197 0
173 197 0
172 196 0
173 196 0
175 198 0
176 199 0
174 197 0
174 197 0
175 198 0
173 197 0
175 198 0
174 198 0
172 196 0
175 198 0
173 197 0
172 196 0
174 197 0
174 197 0
171 196 0
172 196 0
174 197 0
172 197 0
171 195 0
174 197 0
174 197 0
172 196 0
174 197 0
175 198 0
173 197 0
172 196 0
175 198 0
174 197 0
172 195 0
173 196 0
175 198 0
175 198 0
172 195 0
174 197 0
172 197 0
174 197 0
174 198 0
174 198 0
170 194 0
175 198 0
174 198 0
173 197 0
173 197 0
172 195 0
173 196 0
172 196 0
174 198 0
173 197 0
175 198 0
175 198 0
173 196 0
174 198 0
174 198 0
173 196 0
175 198 0
175 198 0
172 195 0
173 197 0
175 198 0
173 197 0
175 198 0
171 195 0
172 196 0
172 195 0
174 197 0
173 197 0
174 197 0
174 196 0
173 196 0
174 198 0
173 197 0
172 195 0
172 196 0
173 197 0
175 198 0
174 197 0
175 198 0
175 197 0
175 197 0
174 197 0
172 196 0
172 195 0
173 196 0
175 198 0
173 196 0
172 196 0
171 194 0
173 196 0
173 196 0
172 196 0
173 197 0
173 196 0
172 196 0
176 198 0
172 195 0
174 198 0
170 194 0
175 198 0
173 197 0
173 196 0
171 195 0
175 198 0
172 196 0
171 195 0
173 196 0
173 196 0
174 198 0
174 197 0
174 197 0
171 194 0
174 198 0
171 195 0
173 197 0
172 196 0
174 197 0
174 197 0
174 197 0
175 198 0
174 197 0
172 196 0
172 195 0
172 196 0
174 198 0
172 195 0
171 196 0
174 197 0
173 196 0
174 197 0
173 196 0
172 195 0
174 196 0
172 195 0
174 197 0
172 196 0
171 195 0
174 197 0
174 198 0
174 197 0
174 197 0
173 195 0
175 198 0
174 197 0
171 194 0
171 194 0
172 196 0
174 197 0
172 196 0
174 198 0
175 198 0
171 195 0
172 196 18
172 196 0
172 195 18
169 193 0
172 196 0
171 194 0
174 197 0
172 196 0
173 195 0
172 195 0
171 194 0
172 196 0
173 197 0
174 197 0
173 196 0
174 197 0
170 193 0
173 196 0
173 197 0
172 196 0
172 195 0
175 197 0
171 195 0
171 194 0
172 196 0
172 195 0
174 197 0
171 194 0
174 197 0
173 196 0
172 196 0
173 197 0
174 197 0
175 197 0
172 196 0
174 196 0
172 195 0
172 194 0
174 198 0
172 195 0
171 193 0
169 192 0
170 194 0
172 196 0
174 197 0
171 194 0
173 196 0
173 197 0
173 196 0
172 195 0
172 196 0
174 198 0
173 197 0
173 197 0
175 198 0
172 195 0
172 195 0
173 196 0
172 195 0
172 196 0
172 195 0
173 197 0
172 196 0
174 197 0
174 197 0
172 195 0
175 197 0
173 196 0
164 185 16
163 184 22
162 177 39
158 173 39
152 162 49
148 155 54
147 151 62
148 149 71
134 130 70
143 139 79
147 142 85
148 142 86
149 143 84
152 146 84
152 147 92
142 137 80
147 143 88
150 145 91
147 142 90
152 147 92
152 146 92
162 156 99
155 150 93
154 149 94
151 147 96
154 149 92
160 155 100
155 152 98
155 150 97
159 154 101
157 152 99
157 153 98
161 156 102
156 153 102
150 148 97
163 159 104
158 154 99
161 157 104
159 156 104
151 148 97
157 153 102
165 160 106
158 155 102
163 159 105
159 155 103
162 159 105
161 158 106
163 160 107
162 160 106
157 155 103
166 162 108
167 163 108
161 159 106
161 159 107
162 159 107
162 159 106
165 162 108
161 159 106
167 164 110
167 164 110
163 160 107
164 162 108
165 162 108
167 164 110
168 165 110
164 162 109
168 166 111
166 164 109
159 157 105
164 161 108
162 160 107
165 163 109
165 163 109
164 162 108
169 168 112
165 163 109
168 166 111
166 164 109
168 166 111
168 165 110
168 166 110
166 163 109
168 165 110
169 166 110
163 161 107
166 164 109
166 163 109
167 164 109
164 161 108
166 163 109
160 157 105
167 164 109
168 165 110
163 160 106
168 164 109
170 167 111
161 159 106
160 158 105
165 161 106
167 164 109
166 163 108
170 167 110
165 163 108
166 162 108
160 157 103
158 154 102
162 159 104
157 153 101
154 151 101
158 154 101
168 163 106
167 162 106
160 157 103
159 154 100
164 159 104
164 159 104
162 158 102
163 158 103
162 157 99
152 148 97
164 158 102
157 152 95
156 152 97
167 161 102
156 151 95
159 154 98
162 156 95
151 146 94
158 152 97
153 146 91
148 142 86
152 146 88
147 141 82
151 146 89
145 139 84
150 144 84
141 134 76
151 144 86
144 139 77
142 140 75
144 148 62
155 164 56
161 176 44
170 188 37
173 194 28
173 196 11
175 198 0
174 196 0
173 197 0
174 198 0
174 197 0
175 198 0
173 196 0
173 197 0
173 197 0
174 197 0
172 196 0
173 197 0
175 197 0
172 196 0
175 197 0
174 198 0
175 198 0
171 194 0
174 198 0
173 197 0
175 198 0
172 196 0
173 196 0
174 197 0
175 198 0
174 197 0
174 197 0
175 197 0
175 198 0
175 198 0
173 197 0
175 198 0
170 194 0
174 197 0
174 197 0
173 196 0
175 198 0
174 197 0
174 198 0
174 197 0
174 198 0
173 197 0
174 197 0
174 197 0
173 197 0
173 197 0
173 197 0
172 196 0
175 198 0
172 195 0
172 196 0
175 198 0
173 197 0
174 198 0
174 197 0
171 194 0
175 197 0
174 197 0
174 197 0
175 198 0
176 199 0
173 197 0
172 196 0
175 198 0
172 196 0
173 196 0
175 198 0
172 196 0
174 198 0
172 196 0
172 196 0
175 198 0
172 195 0
173 197 0
172 196 0
174 198 0
171 195 0
173 196 0
173 196 0
170 194 0
173 196 0
172 196 0
174 198 0
175 198 0
174 198 0
174 197 0
173 196 0
175 197 0
171 195 0
172 195 0
174 197 0
174 197 0
175 198 0
172 196 0
173 197 0
175 197 0
172 196 0
172 196 0
173 197 0
174 197 0
174 197 0
172 195 0
174 197 0
172 196 0
173 197 0
173 197 0
174 197 0
173 197 0
174 197 0
173 196 0
171 195 0
174 197 0
176 199 0
172 195 0
175 198 0
171 196 0
175 198 0
173 196 0
176 198 0
174 197 0
172 196 0
174 197 0
171 194 0
174 197 0
174 198 0
173 197 0
173 197 0
171 195 0
172 196 0
170 194 0
175 197 0
170 194 0
172 195 0
172 196 0
174 196 0
174 198 0
172 196 0
172 196 0
173 196 0
172 195 0
173 196 0
173 197 0
173 197 0
171 195 0
172 195 0
174 197 0
173 196 0
174 197 0
173 197 0
172 195 0
172 195 0
173 196 0
173 196 0
175 198 0
172 196 0
172 194 0
171 194 0
171 195 0
171 195 0
173 196 0
174 197 0
172 196 0
173 196 0
173 196 0
173 196 0
173 196 0
173 196 0
174 197 0
173 197 0
173 196 0
174 197 0
172 195 0
174 197 0
172 196 0
174 197 0
173 196 18
174 197 18
166 190 47
171 194 25
168 191 44
164 187 54
166 189 57
166 189 51
164 188 60
165 189 60
159 183 78
163 187 67
166 189 51
158 181 72
162 186 65
167 191 51
168 191 47
163 187 65
169 193 36
167 191 51
171 194 25
169 192 40
169 192 31
168 192 36
173 197 0
174 197 18
169 192 0
170 193 0
170 193 0
172 195 0
173 196 0
170 193 0
172 196 0
172 197 0
174 197 0
171 194 0
173 196 0
172 194 0
170 194 0
175 197 0
173 197 0
171 194 0
173 197 0
172 196 0
173 197 0
174 198 0
175 198 0
173 197 0
172 196 0
171 194 0
172 195 0
172 195 0
172 194 0
172 195 0
174 197 0
174 197 0
176 198 0
173 196 0
173 196 0
171 193 0
172 194 0
172 194 0
174 197 0
172 195 0
174 198 0
172 196 0
169 193 0
171 195 0
174 197 0
171 194 0
169 192 0
172 196 0
173 196 0
172 195 0
174 196 0
170 194 0
175 197 0
172 195 0
172 194 11
169 191 16
159 177 32
157 172 40
148 160 41
149 158 60
135 139 58
149 150 74
144 144 71
136 132 78
139 133 76
152 146 81
139 134 77
144 138 85
144 138 83
142 138 85
146 140 86
148 143 87
152 147 88
155 150 95
148 143 89
147 142 90
147 143 89
151 147 93
157 152 98
150 146 94
152 148 95
152 149 95
143 140 92
152 147 94
158 154 100
159 156 104
157 154 102
158 154 102
162 159 106
160 155 100
162 158 104
161 156 101
156 154 102
160 157 104
165 161 108
164 161 106
167 164 108
165 162 108
158 155 103
165 161 107
160 158 105
161 158 105
165 162 108
166 164 110
161 159 105
165 163 108
164 162 108
160 157 105
161 158 107
170 166 111
169 166 111
168 166 110
162 159 107
166 164 110
164 162 108
165 163 109
161 160 107
161 159 106
158 156 104
160 158 106
163 160 107
169 166 110
169 165 110
166 163 108
171 168 112
167 166 111
166 163 109
167 164 109
170 167 112
165 162 108
168 166 111
165 163 109
166 164 109
167 164 109
166 163 109
167 164 109
169 167 111
168 165 110
168 164 109
167 165 110
165 163 109
168 166 110
167 164 109
169 166 110
162 160 107
168 164 109
165 163 109
165 161 107
170 167 111
165 162 108
165 162 108
170 166 110
167 163 107
167 164 109
167 164 109
166 163 108
170 166 110
164 160 104
163 159 104
166 163 108
167 163 108
161 157 103
158 155 101
166 163 108
165 161 106
160 156 102
161 158 102
161 157 101
165 160 104
163 158 102
164 159 103
163 159 102
163 157 101
162 156 99
159 155 99
156 151 95
155 150 95
157 152 96
160 154 97
162 156 101
158 154 97
153 149 93
160 155 99
160 155 94
144 139 86
157 151 94
147 142 87
157 150 92
141 137 82
154 149 93
132 127 80
142 136 83
153 146 85
145 137 77
137 131 73
145 148 65
146 149 62
153 165 44
166 181 42
169 189 25
172 194 16
173 197 0
174 197 0
173 197 0
173 197 0
174 197 0
174 198 0
172 196 0
175 198 0
175 197 0
176 198 0
174 198 0
173 197 0
174 197 0
174 198 0
172 196 0
171 195 0
172 196 0
172 196 0
174 197 0
172 196 0
170 194 0
174 197 0
174 198 0
174 198 0
174 198 0
174 197 0
172 196 0
174 198 0
174 197 0
175 198 0
173 196 0
174 198 0
173 197 0
173 196 0
175 198 0
171 195 0
173 197 0
173 196 0
172 196 0
173 197 0
174 198 0
176 198 0
173 197 0
173 197 0
172 196 0
173 197 0
172 197 0
175 198 0
173 196 0
172 196 0
173 197 0
172 196 0
175 198 0
173 196 0
173 197 0
174 197 0
172 196 0
174 197 0
171 194 0
175 198 0
172 196 0
174 197 0
172 196 0
172 196 0
176 198 0
173 197 0
175 198 0
172 195 0
173 197 0
173 197 0
173 197 0
174 197 0
174 197 0
174 197 0
172 195 0
173 196 0
174 197 0
173 197 0
175 198 0
174 197 0
174 198 0
173 197 0
175 197 0
174 198 0
173 196 0
172 196 0
175 198 0
174 197 0
174 198 0
171 194 0
175 197 0
172 196 0
174 197 0
174 197 0
174 197 0
172 197 0
172 196 0
173 197 0
175 198 0
173 196 0
174 198 0
174 197 0
174 197 0
176 198 0
173 197 0
170 194 0
171 196 0
174 197 0
172 195 0
173 197 0
173 196 0
173 196 0
175 198 0
174 197 0
171 194 0
175 198 0
173 197 0
171 195 0
171 194 0
175 198 0
172 196 0
172 196 0
174 196 0
172 196 0
173 196 0
173 196 0
174 198 0
173 195 0
172 195 0
172 195 0
173 196 0
175 198 0
174 197 0
173 196 0
172 196 0
172 196 0
173 197 0
174 197 0
173 196 0
174 197 0
170 193 0
173 197 0
175 198 0
173 195 0
174 197 0
173 196 0
172 195 0
172 196 0
174 197 0
172 195 0
171 195 0
173 197 0
174 197 0
173 197 0
174 197 0
171 195 0
173 196 0
174 197 0
172 196 0
174 197 0
171 195 0
172 196 0
172 195 0
172 195 0
173 197 0
174 196 0
173 196 0
172 196 0
173 196 0
170 194 18
170 194 36
171 194 31
167 191 47
163 186 60
165 188 65
157 181 82
158 182 80
152 176 90
148 172 99
142 167 111
148 171 99
139 164 111
137 161 118
143 168 108
137 163 115
141 166 113
138 163 118
134 160 122
135 160 120
146 170 107
121 147 137
136 161 118
145 170 105
153 177 87
146 171 102
147 172 97
143 167 110
151 175 94
159 182 82
163 187 62
161 184 70
163 187 62
168 191 44
166 189 47
172 196 25
170 195 18
172 196 0
171 195 0
172 195 0
175 198 0
172 195 0
172 195 0
172 195 0
174 196 0
174 197 0
172 194 0
173 196 0
173 197 0
173 195 0
172 195 0
175 198 0
173 196 0
173 197 0
172 195 0
170 193 0
176 198 0
174 197 0
172 194 0
175 197 0
169 193 0
169 193 0
171 194 0
169 193 0
173 195 0
171 194 0
173 196 0
174 198 0
172 194 0
172 195 0
170 193 0
173 196 0
172 195 0
173 197 0
173 197 0
174 195 0
173 197 0
171 194 0
171 193 0
172 196 0
173 196 0
171 194 0
172 195 0
170 193 0
173 195 19
163 182 32
158 175 37
155 167 48
151 161 49
155 160 60
150 154 63
144 143 71
135 133 68
146 139 82
134 129 78
141 135 78
150 143 87
142 139 84
144 139 82
150 144 87
148 144 85
159 153 92
156 151 94
147 143 89
148 143 91
157 151 93
145 141 90
155 151 94
157 153 94
148 144 92
155 150 96
160 155 101
157 153 98
156 152 99
149 146 94
153 150 99
152 149 99
146 144 95
159 156 104
162 159 106
159 155 103
166 162 106
158 155 103
156 153 102
162 158 105
153 150 98
156 155 104
164 160 106
161 158 105
160 156 104
165 162 108
158 155 103
166 162 108
165 162 108
167 163 108
166 163 108
169 165 110
163 161 108
165 161 107
163 161 108
163 160 107
166 163 109
167 164 109
167 164 110
164 161 108
162 159 107
167 164 110
166 164 110
169 166 110
168 166 110
163 161 108
164 162 108
166 163 109
169 166 111
166 163 109
164 162 109
161 159 106
162 159 106
165 163 109
166 164 110
170 167 112
164 162 109
168 165 110
171 168 112
163 161 107
167 164 109
165 162 108
164 163 109
163 161 108
164 162 108
167 164 109
167 164 109
168 165 110
168 165 110
167 164 109
162 159 106
162 160 106
165 162 107
166 164 109
167 164 109
169 166 109
170 166 110
165 161 106
161 158 103
170 165 108
160 157 104
165 162 107
162 159 106
168 165 109
168 163 107
165 161 105
166 162 107
165 161 103
163 158 101
161 157 101
159 156 103
165 161 105
168 162 106
161 156 101
168 163 104
164 160 106
160 156 101
154 150 98
161 157 102
161 158 101
161 155 99
161 155 99
157 153 99
159 153 97
160 154 99
159 154 98
156 149 95
142 138 87
152 146 92
148 142 89
157 151 93
153 148 88
148 143 87
146 141 86
153 146 84
155 148 90
145 139 82
147 142 80
138 132 79
153 148 83
154 151 78
150 154 63
144 150 61
160 171 51
164 181 32
168 186 36
173 196 11
174 197 0
173 196 0
174 197 0
173 196 0
173 197 0
175 198 0
173 196 0
172 196 0
173 196 0
174 197 0
173 196 0
173 197 0
174 197 0
172 196 0
173 196 0
175 198 0
174 198 0
174 197 0
174 198 0
173 197 0
172 196 0
172 196 0
173 197 0
173 197 0
175 198 0
174 198 0
173 197 0
174 197 0
172 196 0
174 198 0
175 198 0
171 195 0
174 197 0
174 197 0
173 197 0
172 196 0
173 196 0
173 197 0
173 197 0
174 197 0
173 197 0
173 196 0
172 196 0
173 197 0
173 196 0
173 196 0
174 198 0
174 197 0
175 198 0
174 198 0
174 197 0
173 196 0
173 197 0
175 198 0
175 198 0
173 197 0
171 194 0
173 197 0
171 195 0
172 196 0
172 196 0
173 197 0
173 196 0
172 196 0
174 197 0
174 198 0
175 198 0
172 195 0
173 197 0
175 198 0
174 198 0
175 198 0
175 198 0
172 196 0
175 198 0
174 197 0
173 196 0
174 197 0
175 197 0
173 196 0
171 194 0
173 197 0
174 197 0
173 197 0
173 197 0
173 196 0
175 198 0
174 197 0
173 196 0
175 198 0
174 197 0
173 196 0
172 195 0
174 196 0
172 196 0
173 196 0
173 196 0
170 194 0
173 196 0
176 198 0
171 195 0
174 197 0
172 195 0
172 195 0
175 198 0
172 196 0
173 197 0
173 196 0
172 196 0
175 198 0
174 198 0
172 196 0
174 197 0
174 198 0
173 197 0
174 197 0
173 197 0
174 198 0
173 197 0
174 197 0
172 195 0
174 197 0
173 195 0
171 195 0
172 195 0
173 196 0
175 198 0
173 197 0
173 197 0
175 198 0
174 196 0
175 198 0
173 196 0
174 197 0
173 196 0
176 199 0
171 195 0
170 195 0
169 193 0
170 193 0
174 197 0
173 197 0
173 196 0
173 197 0
174 197 0
172 195 0
173 196 0
168 191 0
173 196 0
174 197 0
175 198 0
173 197 0
173 196 0
174 196 0
173 197 0
173 196 0
174 197 0
171 195 0
175 197 0
172 195 0
173 197 0
173 196 0
173 197 0
169 193 18
168 192 25
168 192 40
167 190 44
159 182 72
155 179 86
150 173 95
141 166 113
144 168 107
140 165 111
131 158 125
127 153 131
115 143 141
121 147 140
118 145 141
106 135 150
93 124 162
92 123 163
93 123 160
75 108 172
82 114 169
80 112 169
86 118 167
88 119 166
97 126 160
80 113 169
97 127 159
97 126 161
82 114 168
97 126 159
111 137 149
105 132 154
114 141 146
112 140 147
127 152 130
134 159 122
131 156 126
141 166 113
146 170 102
157 180 84
159 184 72
159 183 76
161 185 62
167 191 47
173 196 25
168 190 25
174 196 0
170 194 0
170 194 0
175 198 0
173 196 0
172 195 0
173 196 0
173 197 0
174 197 0
173 196 0
172 196 0
173 195 0
173 196 0
174 197 0
172 196 0
174 197 0
172 195 0
173 196 0
170 194 0
173 196 0
174 198 0
171 194 0
174 196 0
172 195 0
173 197 0
173 197 0
172 196 0
173 196 0
173 196 0
173 196 0
173 197 0
170 193 0
173 195 0
173 196 0
173 195 0
174 196 0
172 196 0
173 196 0
171 193 0
170 193 0
174 198 0
172 195 0
173 196 0
165 184 19
167 185 28
164 177 45
153 166 49
160 167 62
148 150 67
141 142 64
147 143 76
142 136 77
140 134 78
142 136 77
144 138 83
143 138 81
142 137 83
143 138 83
149 144 85
142 138 85
158 152 93
144 140 87
150 145 94
151 146 89
146 142 89
158 153 95
151 148 92
160 155 98
155 151 99
157 152 97
150 147 97
149 144 95
152 148 95
156 151 97
150 147 97
153 151 100
150 147 96
164 160 105
156 152 98
155 152 99
157 154 102
162 159 106
159 157 104
162 157 104
158 155 102
160 157 102
164 161 106
158 155 103
166 162 107
160 157 105
162 159 105
166 163 109
165 161 108
164 162 109
163 160 107
164 162 109
160 158 106
160 158 105
164 162 109
163 161 108
162 160 107
163 160 107
168 165 110
162 160 106
166 163 109
166 163 110
170 167 112
165 163 109
164 162 108
171 168 112
169 165 110
167 164 110
165 162 108
164 161 108
167 164 109
165 163 109
171 168 112
171 168 112
167 165 110
165 163 109
167 165 110
165 163 109
165 162 108
166 163 109
168 166 111
167 165 110
172 169 112
171 168 112
166 163 108
163 162 109
168 164 109
162 159 106
169 166 110
167 163 108
168 166 110
170 167 111
165 162 108
171 167 111
165 162 107
168 164 109
163 160 106
160 157 104
164 161 107
169 166 110
168 165 108
163 161 106
171 167 110
168 164 108
162 159 103
164 161 106
169 164 108
160 156 103
155 151 101
166 163 108
169 164 108
163 159 104
162 158 103
169 164 105
159 154 100
156 154 101
158 154 100
161 156 100
162 158 99
162 159 101
157 152 96
156 153 98
165 160 101
146 141 88
158 154 99
158 152 98
148 143 89
148 144 93
160 153 93
150 143 90
157 151 94
154 149 89
156 150 88
142 137 84
142 136 81
152 146 88
134 130 76
148 143 84
143 137 81
146 140 82
139 137 65
140 140 63
146 148 66
155 165 49
158 173 34
161 181 19
172 195 11
173 196 0
173 196 0
175 198 0
175 198 0
174 197 0
172 195 0
173 197 0
175 198 0
175 197 0
174 198 0
173 195 0
174 198 0
174 197 0
174 198 0
175 198 0
173 197 0
173 197 0
174 197 0
171 194 0
173 196 0
173 197 0
175 198 0
172 196 0
172 197 0
175 198 0
174 198 0
174 198 0
174 197 0
174 198 0
175 198 0
174 197 0
175 198 0
175 198 0
171 194 0
175 198 0
174 198 0
172 196 0
174 197 0
172 196 0
175 198 0
172 195 0
172 196 0
174 197 0
174 197 0
173 196 0
174 198 0
174 197 0
173 197 0
175 198 0
174 198 0
175 198 0
171 195 0
173 196 0
174 197 0
173 197 0
174 197 0
171 196 0
173 197 0
173 196 0
174 198 0
174 197 0
173 196 0
172 195 0
170 193 0
173 196 0
173 197 0
173 197 0
173 197 0
172 196 0
175 198 0
173 197 0
175 198 0
173 196 0
173 197 0
173 196 0
173 197 0
172 196 0
174 197 0
173 197 0
173 197 0
172 196 0
176 198 0
174 198 0
174 198 0
172 196 0
173 197 0
174 198 0
171 194 0
175 198 0
175 198 0
169 193 0
173 196 0
174 197 0
173 197 0
173 197 0
172 195 0
175 198 0
173 197 0
174 197 0
171 194 0
174 197 0
172 195 0
172 195 0
173 197 0
174 198 0
173 196 0
174 197 0
174 197 0
174 197 0
174 197 0
173 196 0
173 197 0
172 196 0
172 195 0
170 193 0
174 197 0
172 196 0
173 196 0
174 196 0
172 196 0
173 196 0
172 196 0
173 196 0
173 197 0
172 196 0
171 194 0
174 197 0
173 196 0
171 194 0
173 196 0
174 197 0
172 194 0
171 195 0
173 196 0
172 196 0
173 196 0
173 197 0
174 197 0
172 195 0
174 198 0
172 196 0
174 197 0
174 197 0
172 196 0
172 195 0
173 197 0
174 197 0
172 195 0
173 197 0
173 196 0
175 198 0
172 195 0
173 197 0
171 195 0
174 197 0
172 196 0
173 195 0
174 197 0
174 196 0
174 197 0
171 194 18
165 188 44
171 193 31
164 188 60
156 181 78
156 179 86
146 170 105
137 163 115
128 153 130
112 139 147
112 138 144
104 132 155
80 112 170
91 121 165
75 109 174
62 99 181
63 100 180
65 102 179
65 101 180
64 100 180
61 99 180
61 99 181
62 99 181
62 99 181
62 99 181
61 98 180
61 99 181
62 99 181
62 99 181
62 99 181
62 99 180
61 98 181
62 99 181
61 99 181
67 103 176
64 100 178
71 106 176
74 108 174
85 117 168
82 114 169
96 125 160
105 132 154
119 146 139
114 141 138
128 154 129
131 156 123
144 169 99
151 174 89
160 184 74
166 189 54
166 190 57
171 194 31
170 193 0
172 195 18
171 194 0
173 196 0
173 197 0
172 196 0
169 193 0
174 198 0
173 196 0
175 197 0
173 195 0
173 196 0
173 196 0
173 197 0
172 195 0
172 196 0
171 194 0
173 196 0
173 196 0
173 196 0
171 195 0
172 195 0
173 196 0
171 194 0
171 194 0
171 195 0
172 196 0
172 196 0
173 196 0
171 194 0
171 195 0
173 196 0
171 194 0
173 196 0
174 197 0
170 193 0
172 194 0
173 196 0
170 192 11
168 189 25
166 184 30
164 181 36
153 165 42
147 155 49
153 155 69
142 145 59
126 123 63
140 136 76
146 140 77
143 138 78
132 127 79
143 138 80
146 140 83
153 148 91
134 129 72
145 140 85
155 149 92
140 136 85
140 135 84
149 145 94
157 152 97
146 142 90
151 147 93
151 147 93
148 144 90
158 154 98
154 149 98
148 145 95
157 153 100
153 149 97
158 154 102
155 151 99
151 148 95
157 155 102
160 156 104
158 155 103
162 158 105
160 157 102
165 162 107
152 149 99
156 151 100
163 160 107
161 158 105
160 158 106
165 161 108
159 157 107
167 165 110
164 161 107
163 160 106
162 159 108
166 163 108
167 164 109
160 158 106
159 158 107
163 161 108
168 164 108
167 164 109
164 162 108
161 159 106
169 165 110
164 161 107
165 163 109
162 159 107
163 162 108
167 163 109
166 164 110
164 161 107
165 163 109
164 161 108
163 162 108
173 169 112
164 161 108
168 165 110
169 166 111
163 161 108
168 166 111
164 162 109
169 167 112
170 168 112
171 168 112
172 169 113
171 167 111
166 164 109
170 167 110
168 165 110
168 164 109
159 157 105
166 164 109
171 168 112
167 165 110
166 163 109
162 159 105
169 165 110
165 162 108
171 168 111
170 166 109
161 157 104
167 164 109
172 167 110
165 162 108
165 161 106
168 164 108
163 159 104
168 164 108
164 161 105
170 164 108
164 161 104
170 166 109
164 160 104
168 163 105
163 160 104
171 167 109
161 158 103
167 163 106
168 163 103
166 162 104
168 163 106
164 158 101
156 152 99
161 157 102
166 161 103
165 161 105
159 154 99
163 157 101
160 155 99
155 150 95
151 147 92
159 155 97
159 154 93
153 148 92
150 145 92
159 153 90
155 148 92
159 152 90
157 151 92
155 148 92
148 143 89
148 142 78
147 141 84
139 134 80
136 131 75
139 133 76
132 129 70
151 154 65
139 144 59
151 163 47
163 180 28
170 191 16
174 196 0
174 196 0
175 198 0
174 197 0
173 196 0
175 198 0
173 196 0
172 194 0
174 197 0
173 196 0
174 197 0
173 197 0
174 197 0
174 196 0
175 197 0
172 196 0
174 197 0
174 198 0
174 198 0
171 194 0
172 195 0
174 197 0
174 197 0
174 197 0
176 198 0
174 197 0
173 197 0
174 198 0
173 197 0
173 196 0
174 197 0
174 198 0
172 195 0
172 196 0
172 196 0
173 197 0
174 197 0
173 197 0
174 197 0
173 197 0
173 197 0
173 196 0
175 197 0
173 197 0
173 196 0
175 198 0
175 198 0
173 197 0
174 197 0
175 198 0
173 197 0
174 197 0
177 199 0
173 197 0
173 197 0
174 198 0
175 198 0
171 195 0
174 197 0
174 197 0
173 197 0
173 197 0
172 196 0
173 197 0
174 197 0
173 197 0
176 199 0
172 195 0
176 198 0
175 198 0
173 196 0
172 196 0
172 196 0
171 195 0
173 196 0
172 196 0
174 197 0
171 196 0
173 197 0
173 197 0
171 195 0
173 197 0
173 197 0
174 197 0
172 196 0
172 196 0
174 197 0
174 197 0
174 197 0
172 196 0
170 193 0
172 196 0
175 198 0
175 198 0
171 194 0
175 198 0
175 198 0
173 196 0
173 197 0
173 196 0
173 196 0
171 194 0
171 195 0
171 194 0
174 198 0
172 196 0
171 195 0
174 197 0
172 196 0
173 196 0
173 196 0
173 197 0
172 196 0
173 196 0
172 195 0
175 198 0
174 197 0
174 197 0
175 198 0
172 195 0
173 197 0
172 195 0
173 197 0
172 195 0
175 197 0
173 196 0
173 196 0
174 197 0
173 197 0
174 197 0
173 196 0
175 198 0
174 197 0
171 194 0
170 194 0
172 196 0
173 197 0
171 195 0
173 197 0
173 196 0
171 194 0
174 197 0
173 197 0
173 197 0
172 195 0
175 198 0
174 197 0
174 197 0
173 196 0
173 196 0
170 193 0
173 197 0
171 195 0
171 194 0
174 197 0
169 193 0
172 195 0
172 196 18
170 193 40
167 191 47
156 180 84
147 172 102
138 163 113
130 156 126
114 140 143
115 142 143
95 125 161
77 110 173
68 103 177
64 100 180
62 99 180
61 99 180
61 99 181
62 99 181
62 99 180
62 99 181
61 98 181
62 99 181
62 99 181
62 99 181
62 99 180
62 99 181
61 99 181
62 99 181
62 99 181
61 98 181
61 98 181
61 99 181
62 99 181
62 99 181
62 99 181
62 99 180
61 98 180
61 98 179
61 98 180
61 99 181
61 99 180
61 99 181
62 99 181
62 99 179
62 99 180
62 98 178
69 104 174
67 103 176
79 112 170
96 125 161
110 137 149
122 148 135
118 145 136
123 148 130
144 168 100
157 181 80
166 190 54
166 190 51
173 196 31
171 194 0
172 195 0
171 194 0
171 195 0
170 193 0
174 196 0
173 196 0
172 195 0
174 196 0
173 197 0
173 196 0
173 197 0
172 195 0
171 195 0
173 194 0
171 194 0
175 198 0
172 195 0
172 195 0
173 196 0
172 195 0
173 195 0
173 196 0
172 196 0
172 195 0
172 196 0
173 196 0
173 196 0
172 195 0
173 196 0
172 195 0
174 197 0
172 195 0
172 196 0
174 197 0
174 197 11
170 191 22
154 170 30
158 172 39
154 164 49
145 149 61
140 144 62
147 145 71
131 127 65
132 128 70
139 134 79
149 144 85
145 139 78
149 144 84
146 140 82
140 136 81
152 146 88
150 145 91
139 134 83
146 140 85
152 147 93
150 146 92
153 149 96
148 143 89
147 142 92
151 146 92
148 145 94
148 144 95
155 151 98
151 147 95
159 155 99
154 151 100
157 153 99
157 152 98
161 156 103
154 151 97
161 157 104
157 155 102
158 154 100
156 154 103
161 157 103
157 154 102
152 149 98
160 157 104
161 157 104
159 155 102
161 159 107
158 156 104
161 158 105
166 163 108
163 161 108
163 160 107
167 163 109
165 161 108
158 156 105
165 162 108
164 162 108
168 166 111
160 157 105
167 164 109
167 164 110
167 165 110
164 161 108
166 163 109
166 164 109
167 164 110
168 165 110
164 161 108
165 162 108
167 164 109
167 164 108
165 163 109
169 166 111
169 166 111
168 166 111
164 162 108
170 166 110
162 160 107
171 167 111
170 167 111
167 163 109
169 166 111
172 168 112
168 165 110
171 168 112
176 171 113
171 169 113
168 165 110
163 160 107
165 162 108
166 163 108
168 165 109
173 170 113
163 160 107
166 163 108
169 165 110
164 161 107
171 168 112
168 164 109
162 159 106
169 165 109
168 164 109
173 169 111
170 166 110
162 158 104
171 167 110
169 165 109
173 168 110
163 160 104
165 162 108
164 160 105
162 158 103
168 165 109
162 158 104
166 161 105
162 157 101
166 162 106
163 159 102
165 160 103
163 159 103
154 151 96
158 153 97
167 161 103
158 152 97
161 156 101
156 151 94
156 151 95
156 151 93
160 154 97
159 154 97
156 151 93
150 146 81
159 154 95
160 153 95
156 151 90
154 147 87
157 150 92
144 139 84
158 152 93
150 145 87
152 146 88
139 134 79
150 144 84
146 139 80
132 128 69
143 139 69
156 163 59
139 149 39
161 177 39
163 181 34
172 195 0
174 197 0
174 198 0
173 196 0
174 197 0
174 197 0
177 198 0
175 198 0
173 197 0
171 195 0
173 197 0
174 197 0
174 197 0
172 195 0
174 197 0
174 197 0
172 196 0
173 196 0
174 197 0
174 197 0
173 197 0
172 196 0
175 198 0
171 195 0
175 198 0
173 196 0
176 199 0
173 197 0
175 198 0
173 197 0
171 195 0
174 197 0
173 197 0
174 198 0
173 197 0
172 195 0
173 197 0
173 197 0
175 197 0
172 197 0
172 195 0
172 196 0
174 197 0
172 196 0
174 197 0
172 195 0
174 197 0
172 196 0
174 197 0
174 197 0
173 197 0
174 197 0
174 198 0
173 196 0
176 197 0
176 198 0
172 196 0
172 196 0
173 197 0
174 197 0
176 198 0
174 197 0
174 197 0
172 195 0
172 195 0
174 197 0
175 198 0
173 196 0
174 197 0
175 198 0
172 195 0
172 197 0
172 195 0
174 197 0
174 197 0
174 197 0
174 198 0
173 196 0
173 196 0
173 197 0
174 198 0
172 196 0
175 198 0
175 198 0
174 198 0
175 197 0
172 195 0
173 197 0
173 197 0
173 196 0
172 196 0
174 197 0
173 195 0
173 197 0
173 196 0
174 196 0
173 195 0
174 196 0
173 196 0
173 197 0
172 195 0
174 197 0
174 197 0
172 196 0
172 195 0
171 194 0
173 196 0
175 198 0
171 194 0
173 196 0
173 196 0
171 195 0
172 195 0
176 198 0
173 197 0
172 196 0
174 197 0
172 196 0
172 195 0
174 197 0
173 196 0
173 196 0
174 198 0
173 197 0
174 197 0
172 196 0
174 197 0
171 194 0
172 194 0
173 196 0
173 197 0
173 196 0
170 194 0
169 193 0
174 197 0
172 196 0
172 196 0
173 196 0
174 198 0
174 196 0
174 196 0
173 196 0
175 197 0
175 198 0
174 197 0
174 197 0
172 196 0
173 196 0
170 194 0
173 197 0
172 195 0
171 195 0
171 194 0
175 198 0
170 193 18
171 195 31
166 190 40
161 185 70
152 176 94
125 151 130
115 143 136
112 139 147
87 118 163
80 112 169
70 105 176
64 100 180
62 99 180
62 99 181
62 99 180
62 99 181
62 99 181
61 99 180
61 99 181
62 99 181
62 99 181
61 99 181
61 99 181
61 99 181
62 99 181
61 98 180
61 99 181
61 99 181
61 99 181
61 99 181
61 99 181
61 98 181
61 99 181
61 98 181
61 99 181
62 99 181
61 99 181
61 99 181
61 98 180
62 99 181
61 99 181
61 99 181
61 99 181
62 99 179
61 99 181
62 99 181
61 98 180
62 99 180
61 98 180
61 98 179
61 98 179
61 98 179
61 99 181
70 104 173
77 110 171
102 130 153
104 131 149
125 151 131
122 147 134
139 163 113
148 173 99
152 175 88
163 187 65
170 193 25
170 193 0
172 196 0
172 196 0
174 197 0
172 195 0
172 196 0
171 194 0
171 193 0
173 196 0
171 196 0
173 195 0
172 196 0
171 193 0
172 196 0
170 193 0
173 196 0
169 191 0
172 196 0
174 196 0
173 196 0
169 193 0
174 197 0
174 197 0
171 195 0
172 196 0
171 194 0
176 198 0
172 196 0
172 195 0
174 196 0
174 197 0
173 196 0
168 188 19
171 192 22
156 174 16
149 163 43
151 157 60
139 141 65
142 141 62
144 141 71
137 132 76
141 136 77
145 139 84
144 139 81
142 138 80
156 150 91
143 139 82
140 136 81
151 146 90
140 136 79
153 148 89
148 145 91
135 132 86
147 141 89
145 142 90
149 144 91
155 151 94
157 154 98
146 142 92
135 134 86
152 149 98
155 152 98
156 153 98
156 152 100
153 151 98
160 156 103
154 151 100
157 154 103
149 146 98
156 153 101
158 154 101
162 159 106
157 154 103
156 154 103
160 158 105
162 158 105
157 155 103
161 159 107
161 158 105
165 160 107
166 162 108
161 158 105
166 163 109
156 153 103
164 162 109
167 164 109
163 161 108
165 162 108
163 160 108
165 163 109
169 165 110
168 166 111
169 167 111
160 158 106
166 163 109
169 165 110
168 166 112
166 164 109
170 167 111
164 161 108
166 163 109
167 165 110
171 168 111
168 165 110
168 165 109
167 165 110
171 168 112
165 162 108
171 169 113
170 167 112
171 167 111
168 165 110
174 170 113
170 167 111
172 168 112
170 167 111
170 166 110
170 167 110
169 166 110
171 168 112
166 163 109
166 163 109
170 167 110
168 165 109
170 165 109
167 164 109
175 171 113
168 165 110
169 166 109
166 162 108
165 162 109
169 166 110
172 168 110
171 166 110
166 162 106
165 161 106
167 163 108
166 163 107
164 160 106
165 162 106
168 164 107
170 165 109
172 167 108
167 163 105
163 159 101
166 162 105
163 159 104
170 165 108
164 159 103
164 159 101
159 155 98
165 160 102
159 155 100
165 160 101
161 156 100
160 156 96
159 155 95
165 159 100
164 160 100
165 159 100
159 154 95
161 156 94
151 145 89
148 142 87
151 145 90
152 146 88
151 146 91
150 145 87
147 141 88
147 143 87
147 141 80
149 142 86
148 142 84
149 143 86
142 136 82
142 137 80
144 138 78
143 141 72
151 150 72
145 151 53
156 169 47
164 182 30
168 189 16
173 196 0
174 197 0
172 196 0
175 197 0
173 196 0
173 196 0
176 199 0
175 198 0
171 194 0
173 196 0
174 197 0
174 198 0
171 195 0
173 197 0
173 197 0
173 197 0
175 198 0
173 197 0
174 197 0
174 198 0
174 197 0
173 196 0
174 197 0
174 198 0
173 196 0
174 198 0
175 198 0
173 197 0
173 196 0
175 198 0
175 198 0
174 198 0
174 197 0
172 196 0
172 196 0
175 198 0
175 198 0
172 196 0
174 197 0
173 196 0
176 198 0
175 198 0
173 197 0
172 195 0
174 197 0
170 193 0
174 198 0
175 198 0
173 196 0
173 197 0
174 197 0
175 198 0
174 197 0
174 198 0
174 198 0
175 198 0
172 197 0
173 197 0
172 196 0
174 198 0
173 196 0
172 196 0
172 196 0
175 198 0
174 197 0
174 197 0
173 196 0
174 197 0
175 198 0
174 197 0
173 196 0
174 198 0
174 197 0
175 198 0
173 197 0
174 198 0
174 197 0
173 197 0
173 196 0
171 193 0
174 198 0
176 198 0
175 198 0
172 195 0
174 197 0
173 196 0
171 195 0
174 198 0
174 196 0
172 196 0
174 197 0
174 198 0
173 196 0
174 196 0
174 197 0
174 197 0
172 196 0
174 198 0
172 195 0
173 196 0
174 197 0
172 196 0
174 197 0
174 197 0
170 194 0
173 196 0
174 197 0
173 196 0
174 197 0
174 197 0
172 196 0
172 196 0
174 198 0
174 198 0
173 196 0
174 197 0
173 196 0
174 198 0
171 194 0
174 198 0
173 196 0
173 196 0
173 197 0
174 197 0
173 197 0
172 195 0
173 197 0
173 197 0
173 197 0
173 196 0
173 196 0
171 195 0
173 196 0
172 194 0
173 197 0
173 197 0
172 196 0
172 195 0
174 197 0
172 196 0
174 198 0
170 194 0
172 197 0
172 195 0
170 193 0
172 195 0
171 195 0
174 197 0
173 196 0
173 197 0
173 196 0
174 197 0
167 189 54
158 182 76
151 176 94
140 165 110
123 149 136
110 138 148
89 120 163
73 107 174
67 103 177
62 99 180
61 99 180
62 99 181
61 99 181
61 98 181
62 99 181
62 99 181
61 99 181
61 99 180
62 99 181
62 99 181
62 99 181
61 98 181
62 99 181
62 99 181
61 99 181
61 99 181
62 99 181
62 99 181
61 99 181
61 98 181
61 99 181
62 99 181
61 98 181
61 99 181
62 99 181
61 99 181
62 99 181
61 98 181
61 99 181
61 99 181
62 99 181
61 99 181
61 98 181
62 99 181
61 98 181
62 99 181
62 99 180
62 99 181
61 98 181
61 98 179
61 99 181
62 99 181
61 98 179
61 98 177
62 99 180
62 99 180
62 99 178
61 99 180
76 109 173
91 121 165
112 139 139
118 145 139
130 155 124
149 173 97
161 185 70
165 188 60
167 190 51
173 196 25
172 194 0
174 197 0
168 191 0
173 197 0
168 191 0
171 194 0
171 194 0
170 193 0
174 196 0
174 196 0
173 196 0
171 195 0
172 195 0
171 195 0
171 195 0
170 194 0
170 193 0
171 194 0
171 194 0
173 195 0
170 194 0
173 196 0
174 197 0
172 195 0
170 193 0
174 197 0
170 193 0
173 196 0
172 195 0
165 184 28
163 181 28
163 178 45
147 154 54
144 149 53
137 139 61
132 130 65
141 137 80
141 136 76
141 135 78
147 141 83
145 139 81
148 143 88
145 139 83
141 137 81
142 139 90
145 141 82
150 145 88
145 140 89
151 145 93
157 151 95
151 146 93
155 152 99
145 143 92
155 151 97
160 154 99
146 143 91
152 148 94
147 144 93
159 154 98
149 146 97
147 144 94
152 149 97
157 154 99
162 157 102
155 152 101
153 151 100
156 153 100
164 160 105
155 153 102
156 153 103
158 155 104
162 159 106
154 151 101
162 158 106
159 156 105
167 165 110
159 157 105
156 154 103
159 157 105
167 163 108
160 157 106
169 165 110
159 157 105
160 158 105
166 162 108
165 162 108
160 158 107
170 166 111
166 163 110
167 164 110
166 163 109
170 167 112
169 166 111
162 161 108
165 163 110
167 164 110
164 162 109
168 166 111
168 165 110
167 164 110
174 170 113
169 166 111
170 166 110
172 169 113
169 167 111
171 168 113
171 168 111
169 166 110
173 170 113
172 169 113
169 166 110
169 167 111
169 167 111
170 167 110
164 162 108
173 169 112
171 168 111
169 166 110
169 165 109
169 166 110
173 169 112
170 167 110
169 165 109
169 165 109
165 162 108
172 169 112
170 167 110
171 167 110
170 166 109
169 166 109
168 164 108
170 167 109
168 164 109
167 164 108
170 166 109
171 167 110
166 162 105
171 166 109
168 164 106
162 158 103
168 163 106
164 160 103
161 157 103
165 161 104
164 161 106
160 156 101
162 158 102
164 160 104
161 158 103
167 161 103
162 157 99
166 161 101
165 160 99
164 159 100
155 151 98
158 154 95
155 150 97
155 149 94
160 155 98
163 157 95
152 147 91
155 150 91
151 145 90
147 142 83
154 147 86
153 147 89
151 145 89
155 149 90
152 147 89
139 134 79
146 140 80
146 142 83
140 134 78
141 136 79
138 133 76
145 143 74
151 154 63
153 162 57
163 175 44
162 183 11
170 191 0
174 197 0
173 195 0
174 198 0
173 197 0
174 197 0
175 197 0
172 194 0
174 197 0
174 197 0
173 196 0
174 198 0
172 195 0
173 197 0
172 197 0
174 197 0
174 197 0
175 198 0
173 197 0
175 198 0
173 196 0
173 197 0
175 198 0
172 196 0
171 196 0
173 197 0
175 198 0
174 198 0
174 197 0
174 198 0
173 196 0
174 197 0
175 198 0
172 196 0
173 196 0
172 196 0
173 197 0
174 197 0
173 196 0
175 197 0
173 196 0
171 194 0
174 197 0
174 197 0
174 197 0
174 197 0
172 196 0
172 195 0
172 196 0
174 197 0
174 197 0
171 194 0
175 198 0
173 197 0
174 197 0
174 197 0
173 197 0
170 194 0
173 196 0
173 197 0
172 195 0
174 198 0
172 196 0
174 197 0
174 197 0
173 197 0
174 197 0
171 195 0
172 196 0
174 197 0
172 196 0
174 197 0
173 196 0
173 196 0
174 197 0
173 196 0
173 196 0
172 195 0
175 198 0
174 198 0
175 197 0
171 194 0
173 196 0
174 197 0
173 196 0
174 198 0
172 195 0
175 197 0
173 197 0
170 193 0
172 196 0
173 196 0
173 196 0
171 195 0
174 197 0
172 195 0
173 197 0
174 197 0
174 197 0
171 194 0
173 196 0
173 197 0
172 196 0
175 198 0
175 198 0
173 196 0
172 196 0
173 197 0
172 195 0
173 196 0
173 197 0
173 197 0
174 197 0
173 197 0
173 197 0
171 194 0
175 198 0
170 193 0
173 196 0
174 198 0
174 197 0
171 195 0
173 196 0
172 195 0
173 196 0
175 198 0
172 195 0
172 196 0
174 197 0
174 197 0
173 196 0
172 196 0
174 197 0
172 196 0
174 197 0
169 193 0
172 196 0
173 196 0
172 195 0
174 198 0
171 195 0
173 197 0
172 196 0
174 197 0
173 195 0
173 197 0
171 193 0
175 198 0
174 196 0
168 192 44
164 187 51
147 172 100
147 171 103
118 145 137
104 133 153
95 124 158
76 110 170
63 100 177
62 99 180
62 99 180
61 99 181
62 99 180
62 99 180
61 98 179
62 99 181
62 99 181
62 99 180
61 98 180
62 99 181
61 98 181
62 99 180
62 99 181
61 99 181
61 99 181
61 99 181
61 99 181
61 99 181
62 99 181
61 99 181
61 99 181
61 98 181
62 99 181
61 99 181
62 99 181
62 99 181
61 98 180
62 99 181
61 98 181
62 99 181
61 99 181
61 98 181
61 99 180
62 99 181
62 99 181
61 99 180
62 99 181
62 99 181
61 99 181
62 99 181
61 99 181
62 99 181
62 99 180
61 98 180
61 98 180
61 98 181
61 99 181
61 98 179
61 98 180
62 99 179
62 99 179
62 99 181
61 99 181
66 101 177
69 104 177
89 119 163
105 133 152
118 144 141
135 159 113
154 177 88
162 185 75
162 185 66
170 194 40
171 195 18
171 195 0
174 196 0
173 197 0
172 196 0
172 195 0
173 194 0
172 196 0
168 191 0
171 194 0
174 197 0
172 195 0
172 194 0
173 196 0
175 198 0
173 196 0
173 196 0
174 198 0
174 196 0
171 195 0
173 196 0
173 196 0
174 196 0
175 198 0
173 196 0
172 195 0
170 191 11
167 188 16
160 175 34
155 167 42
143 150 49
140 143 57
146 145 63
144 140 76
147 141 81
144 138 75
140 136 74
137 133 78
146 141 87
148 143 86
140 135 78
145 141 85
141 136 83
154 150 89
148 143 86
142 138 86
151 146 93
144 140 88
145 141 90
151 146 91
150 146 93
148 144 94
156 151 97
147 144 93
150 147 97
152 149 100
158 155 101
151 148 98
158 155 104
154 151 96
153 150 100
154 151 99
153 149 99
158 154 102
156 152 100
163 160 107
157 154 101
158 154 103
163 159 105
154 152 102
158 156 105
163 159 104
168 165 110
163 159 106
158 155 104
164 160 105
155 152 102
158 156 104
160 157 104
160 158 106
166 164 109
163 161 107
167 163 109
162 159 107
167 164 109
166 163 109
166 163 109
158 157 106
168 165 109
167 164 110
166 163 109
165 162 108
166 163 108
167 163 108
167 163 108
167 165 110
167 164 109
169 167 111
167 164 109
173 169 113
170 167 111
167 165 109
171 169 112
168 166 111
171 169 113
169 166 111
170 167 112
168 166 111
169 167 112
170 167 112
167 164 109
171 168 111
172 169 112
169 166 110
163 160 106
169 166 110
172 169 112
168 165 110
169 167 111
173 169 112
170 166 109
170 166 110
171 167 110
163 161 105
166 163 109
168 165 109
168 165 109
171 167 109
165 162 105
170 166 110
163 160 106
167 163 108
158 154 101
173 169 110
170 165 109
167 163 106
170 166 109
170 165 108
165 160 101
162 158 102
160 156 103
167 162 106
166 161 104
166 161 104
163 159 101
164 158 103
161 157 97
163 159 101
157 154 97
168 162 104
165 160 103
159 155 99
160 155 99
166 161 104
160 156 99
153 149 93
154 148 91
157 152 95
160 155 95
165 159 101
161 155 97
158 153 94
155 150 93
158 153 93
151 145 87
147 141 85
155 149 90
149 143 87
148 143 86
150 144 84
149 142 84
144 139 78
150 143 81
140 137 71
150 149 67
144 151 52
153 167 37
166 184 34
171 194 16
173 196 0
174 198 0
174 197 0
173 196 0
172 195 0
174 197 0
174 198 0
173 196 0
174 198 0
173 196 0
173 197 0
174 197 0
174 197 0
172 196 0
173 196 0
175 198 0
173 197 0
174 197 0
174 197 0
176 198 0
173 196 0
173 197 0
170 193 0
173 196 0
174 197 0
173 196 0
173 197 0
173 197 0
174 198 0
173 196 0
174 198 0
171 196 0
174 197 0
173 196 0
174 197 0
174 197 0
173 197 0
174 198 0
172 196 0
175 198 0
175 198 0
175 198 0
174 197 0
171 195 0
175 198 0
174 197 0
172 195 0
174 197 0
174 197 0
174 198 0
173 196 0
174 197 0
171 195 0
171 195 0
172 196 0
173 196 0
173 195 0
173 196 0
175 198 0
173 197 0
173 196 0
171 195 0
174 197 0
172 197 0
174 197 0
173 196 0
171 196 0
174 198 0
175 198 0
174 197 0
173 197 0
172 196 0
172 195 0
174 198 0
174 197 0
174 198 0
173 197 0
170 194 0
173 196 0
174 197 0
174 197 0
174 197 0
173 195 0
173 196 0
172 196 0
173 197 0
173 197 0
172 196 0
174 197 0
174 198 0
172 195 0
172 195 0
173 196 0
174 197 0
172 196 0
172 195 0
174 197 0
171 195 0
171 196 0
174 197 0
174 198 0
173 196 0
174 197 0
174 197 0
173 197 0
174 197 0
173 196 0
175 198 0
173 196 0
173 197 0
174 197 0
172 196 0
172 195 0
170 194 0
173 196 0
171 195 0
173 196 0
173 196 0
174 196 0
173 196 0
173 196 0
170 194 0
171 195 0
171 195 0
169 193 0
171 195 0
173 196 0
171 195 0
172 195 0
171 195 0
173 197 0
172 195 0
170 195 0
171 194 0
173 197 0
174 197 0
174 197 0
172 196 0
174 197 0
174 197 0
172 195 0
173 196 0
172 195 0
173 197 0
173 196 0
173 197 18
168 192 40
160 183 70
148 173 99
139 164 113
122 148 137
97 127 158
72 106 171
64 101 177
62 99 180
62 99 179
62 99 179
62 99 181
62 99 180
61 99 180
62 99 181
61 99 181
62 99 181
61 98 181
61 99 181
62 99 181
62 99 181
61 99 181
61 98 181
62 99 181
62 99 181
61 99 181
61 98 181
62 99 181
62 99 181
61 99 181
62 99 181
61 99 181
61 98 181
61 99 181
62 99 181
62 99 181
62 99 181
61 99 181
61 99 181
61 99 181
61 99 181
61 99 181
61 99 181
62 99 181
61 98 181
62 99 181
61 98 181
62 99 181
61 98 180
61 99 181
62 99 181
62 99 181
61 99 180
61 99 181
62 99 180
62 99 180
62 99 179
62 99 180
61 98 180
61 98 179
62 99 180
61 98 178
61 98 181
61 98 180
61 99 181
62 99 180
62 99 179
61 98 174
64 100 179
69 104 174
89 119 162
114 141 142
130 155 126
141 166 103
146 170 98
158 181 72
169 193 25
170 194 18
171 195 0
174 196 0
170 193 0
171 194 0
170 194 0
171 194 0
171 193 0
170 193 0
173 196 0
174 197 0
171 195 0
171 194 0
172 195 0
172 195 0
173 196 0
171 194 0
172 195 0
173 195 0
174 197 0
171 193 0
173 195 0
173 196 0
172 195 0
166 188 11
165 182 36
157 172 39
148 156 53
147 153 51
140 141 59
144 143 65
143 139 71
136 132 73
141 136 73
145 138 76
135 130 77
147 142 87
149 144 87
142 138 83
149 144 90
153 147 93
148 144 88
130 127 81
155 151 95
148 144 91
156 153 98
143 140 88
147 143 92
153 149 96
152 147 95
151 148 96
157 153 100
149 146 95
150 147 96
158 154 100
147 145 95
155 152 101
151 148 96
142 139 91
154 150 99
153 151 102
162 158 105
160 156 104
155 152 102
158 156 105
150 147 99
155 152 102
162 159 107
163 160 108
157 154 102
158 155 103
161 157 106
158 155 103
164 161 107
160 158 106
166 163 109
164 162 108
160 158 106
161 158 105
166 164 110
168 164 109
166 163 109
172 168 112
166 163 108
164 161 108
167 164 110
163 161 108
169 166 111
170 167 110
165 163 109
170 167 111
174 171 113
167 164 109
168 166 111
170 166 110
167 165 110
167 164 109
171 167 111
168 165 109
169 166 110
171 168 112
169 166 111
170 166 110
173 169 112
167 165 110
166 163 108
169 166 110
170 167 110
168 165 109
169 165 109
166 163 108
169 166 110
169 164 108
170 166 110
174 170 113
172 169 112
168 164 108
168 164 108
164 161 108
170 166 110
167 165 110
164 161 106
169 166 109
166 163 107
169 166 110
168 164 108
170 165 108
166 163 108
167 164 108
169 165 108
173 168 109
171 166 109
169 166 108
164 160 104
165 161 103
168 164 108
169 164 108
167 162 105
164 160 105
168 164 107
169 164 107
169 165 107
164 159 101
170 164 106
165 160 103
155 152 98
165 159 101
158 153 96
157 153 96
157 152 97
154 150 93
162 157 99
161 156 96
156 151 95
162 156 97
154 149 93
164 157 99
157 152 93
154 148 89
148 144 81
156 150 90
149 144 85
151 145 88
150 144 84
149 144 84
154 148 90
157 149 87
147 141 86
145 139 75
149 144 82
142 136 80
141 136 76
139 137 59
147 152 53
143 151 47
163 180 36
165 186 16
174 197 0
172 195 0
172 196 0
173 196 0
172 196 0
175 198 0
171 195 0
173 197 0
175 198 0
175 198 0
172 196 0
173 197 0
171 195 0
174 198 0
172 196 0
173 197 0
174 197 0
172 196 0
173 195 0
173 197 0
175 198 0
174 198 0
174 197 0
174 197 0
172 196 0
172 196 0
174 197 0
174 197 0
174 197 0
176 198 0
173 197 0
173 197 0
174 198 0
173 197 0
174 197 0
172 196 0
172 196 0
172 196 0
174 198 0
174 197 0
174 197 0
173 197 0
172 196 0
172 196 0
174 198 0
173 197 0
174 197 0
172 196 0
173 197 0
175 198 0
174 197 0
174 197 0
172 195 0
170 194 0
171 195 0
174 197 0
173 196 0
172 196 0
173 197 0
172 196 0
174 197 0
175 198 0
174 197 0
175 198 0
173 196 0
174 197 0
175 198 0
172 195 0
174 197 0
173 197 0
172 196 0
172 196 0
173 197 0
174 197 0
172 195 0
175 198 0
173 196 0
174 197 0
173 196 0
172 196 0
170 194 0
174 196 0
172 196 0
172 195 0
171 194 0
173 195 0
172 196 0
173 196 0
174 197 0
174 198 0
173 196 0
172 195 0
174 198 0
175 198 0
171 194 0
169 192 0
172 195 0
172 196 0
174 197 0
172 196 0
175 198 0
172 195 0
173 196 0
172 195 0
173 196 0
174 198 0
171 195 0
172 195 0
173 197 0
174 197 0
170 193 0
173 196 0
173 195 0
170 193 0
173 196 0
171 193 0
171 195 0
173 196 0
174 196 0
172 197 0
173 197 0
175 198 0
173 197 0
173 196 0
175 197 0
171 194 0
174 197 0
175 198 0
173 196 0
172 196 0
173 197 0
173 196 0
170 193 0
173 196 0
173 195 0
172 196 0
174 197 0
174 197 0
169 193 0
172 196 0
172 195 0
171 194 0
174 198 0
171 194 0
169 192 44
162 185 74
147 171 100
127 153 130
110 138 145
72 106 176
63 100 178
62 99 180
62 99 180
62 99 181
62 99 179
62 99 181
61 98 179
62 99 181
62 99 181
62 99 181
62 99 181
61 99 181
61 99 181
61 99 181
61 99 181
61 99 181
62 99 181
61 99 181
61 99 181
62 99 181
61 99 181
61 99 181
61 98 181
61 98 181
62 99 181
61 99 181
62 99 181
61 98 181
62 99 181
62 99 181
61 99 181
61 98 181
61 98 181
61 99 181
61 98 181
61 98 181
61 99 181
62 99 181
61 99 181
61 99 181
61 98 181
61 99 181
61 99 181
62 99 181
61 99 181
62 99 181
62 99 181
62 99 181
62 99 180
62 99 180
62 99 181
61 98 179
62 99 180
62 99 181
61 99 181
61 98 180
61 98 180
62 99 179
61 98 179
61 98 181
62 99 181
61 98 180
61 99 180
62 99 181
62 98 177
62 99 179
63 99 180
65 101 176
80 112 170
100 128 155
123 149 134
137 162 108
151 176 92
158 182 70
173 196 18
173 196 0
172 196 0
175 197 0
173 195 0
172 195 0
173 195 0
170 193 0
172 195 0
173 197 0
171 195 0
174 197 0
172 195 0
172 195 0
169 192 0
170 193 0
172 195 0
170 193 0
172 195 0
171 194 0
172 196 0
173 196 0
173 195 0
166 186 19
162 177 37
159 170 51
142 148 45
151 158 50
143 140 71
139 135 69
145 139 78
150 144 80
147 142 85
134 130 70
145 140 82
137 132 81
143 138 82
147 142 87
143 139 82
151 146 93
154 149 91
145 142 88
145 141 90
138 134 84
152 148 94
144 140 92
149 146 94
138 135 87
152 148 96
145 140 90
152 148 98
159 154 100
149 146 96
151 148 98
153 150 100
153 150 97
158 155 102
155 153 101
159 155 102
145 144 96
153 151 99
155 152 101
155 153 103
153 151 101
152 150 101
161 157 105
161 158 106
155 152 103
158 155 104
164 160 107
161 158 105
163 160 107
163 161 108
161 159 108
160 158 106
160 156 104
160 157 105
159 157 106
162 160 108
160 157 106
166 163 109
163 160 107
166 163 109
167 164 110
165 163 109
163 161 108
166 162 108
168 164 109
172 168 112
171 168 112
167 164 110
173 169 112
168 165 110
170 168 112
170 168 112
170 166 110
165 162 109
167 164 109
170 168 113
171 167 111
170 167 111
170 167 111
171 168 112
170 166 110
169 167 112
173 170 113
171 168 112
173 170 113
168 166 110
171 168 112
167 163 108
172 168 111
167 164 109
168 166 110
168 165 108
166 163 108
172 168 110
168 165 109
171 167 109
165 162 107
174 170 112
169 165 109
172 168 110
171 167 109
167 163 106
168 164 104
171 167 110
164 160 104
164 161 104
168 164 107
167 163 106
164 161 106
164 160 104
165 162 106
166 163 107
162 158 102
169 165 106
167 163 108
167 163 106
160 156 99
167 162 106
163 159 103
169 164 105
160 155 99
164 158 99
159 154 98
156 152 95
160 155 97
165 159 99
156 151 96
161 156 98
159 154 95
154 149 90
162 156 99
160 154 94
164 158 97
152 147 90
161 156 95
154 149 95
154 149 88
154 148 93
157 152 92
157 151 90
156 150 89
143 137 81
154 148 86
153 147 84
140 134 76
144 138 77
149 142 81
140 133 72
144 143 71
142 145 61
147 150 56
162 172 54
165 184 28
173 197 0
173 197 0
174 197 0
172 195 0
174 198 0
175 198 0
172 197 0
174 197 0
175 198 0
174 197 0
173 196 0
174 197 0
174 197 0
173 196 0
174 198 0
173 197 0
174 197 0
175 198 0
172 197 0
174 197 0
174 197 0
173 197 0
172 197 0
172 196 0
173 197 0
173 197 0
173 197 0
175 197 0
172 195 0
172 195 0
174 197 0
173 197 0
172 196 0
174 197 0
173 197 0
173 197 0
173 196 0
173 196 0
175 198 0
172 195 0
173 197 0
172 196 0
171 195 0
172 195 0
174 197 0
173 197 0
174 197 0
174 198 0
172 196 0
174 196 0
175 197 0
174 197 0
173 196 0
172 197 0
172 196 0
173 196 0
172 196 0
175 198 0
175 198 0
174 197 0
173 197 0
174 198 0
174 198 0
173 197 0
173 196 0
174 197 0
175 198 0
172 196 0
174 197 0
172 196 0
172 196 0
171 195 0
175 198 0
172 196 0
174 197 0
173 196 0
174 198 0
174 197 0
173 197 0
174 198 0
171 195 0
173 197 0
172 194 0
174 197 0
171 195 0
174 197 0
172 196 0
175 198 0
173 197 0
172 196 0
175 198 0
172 196 0
169 193 0
175 198 0
171 194 0
173 196 0
175 198 0
173 197 0
174 197 0
173 196 0
172 196 0
172 196 0
171 195 0
170 193 0
174 197 0
169 193 0
172 195 0
172 195 0
173 195 0
174 197 0
172 196 0
172 196 0
173 196 0
174 197 0
171 195 0
171 195 0
175 197 0
173 196 0
169 193 0
172 196 0
173 197 0
173 196 0
173 197 0
175 197 0
173 197 0
172 196 0
174 197 0
173 196 0
173 197 0
174 197 0
173 196 0
173 196 0
174 197 0
171 195 0
173 196 0
168 192 0
174 198 0
173 196 0
172 196 0
172 196 0
173 196 0
173 196 0
165 188 47
155 178 80
138 163 111
136 160 122
99 128 157
75 109 173
64 101 180
62 99 179
62 99 180
62 99 180
61 98 179
63 100 180
62 99 178
62 99 181
62 99 181
62 99 180
62 99 180
61 99 180
61 99 181
62 99 181
61 99 181
61 99 181
61 99 181
62 99 181
62 99 181
61 99 181
61 98 181
61 99 181
61 99 181
62 99 181
62 99 181
61 99 181
61 99 181
61 98 181
61 99 181
62 99 181
61 99 181
61 98 181
61 99 181
61 99 181
61 98 181
61 98 181
61 98 181
61 98 181
61 98 181
61 99 181
61 98 181
61 99 181
61 98 181
61 99 181
62 99 181
61 99 181
62 99 181
61 98 180
61 98 181
61 99 181
62 99 181
62 99 181
62 99 181
62 99 181
61 98 180
61 99 181
62 99 181
62 99 181
61 99 181
61 99 181
62 99 181
62 99 181
61 98 179
61 98 178
61 98 179
62 99 178
62 99 180
61 99 181
62 99 179
62 99 178
61 97 175
61 97 176
66 101 174
104 132 151
115 142 142
135 161 117
152 175 94
161 185 67
170 193 44
172 194 18
174 196 0
172 195 0
171 194 0
172 195 0
171 194 0
172 195 0
171 193 0
174 196 0
174 197 0
169 192 0
170 193 0
170 193 0
174 197 0
174 196 0
171 194 0
171 194 0
172 195 0
172 194 0
168 191 16
154 173 16
160 175 34
155 167 42
150 157 53
137 134 66
139 136 68
135 131 68
147 141 77
143 138 76
143 136 77
138 133 77
136 131 73
146 142 84
149 144 88
148 142 88
142 138 85
144 139 84
150 146 93
137 134 87
153 147 93
143 139 88
155 151 93
142 139 91
157 152 98
159 153 99
160 156 99
151 148 97
150 146 94
144 142 95
146 142 93
143 141 94
153 150 100
145 143 96
154 151 101
144 142 95
147 144 95
156 153 101
144 142 96
161 157 102
156 152 101
153 151 99
154 152 102
160 158 105
150 148 100
159 157 106
158 154 103
162 159 107
162 159 105
151 149 100
162 159 108
159 157 106
166 162 109
159 157 105
159 157 106
162 159 107
164 160 107
160 157 105
161 159 107
167 164 109
165 162 108
166 164 109
167 164 110
167 163 108
169 166 110
165 163 108
165 162 107
167 165 110
170 167 112
167 164 109
165 163 109
175 170 113
167 164 109
173 169 112
166 163 108
170 167 111
169 166 110
170 166 110
173 169 112
172 167 111
167 165 109
172 168 111
168 164 109
170 166 109
168 165 110
167 164 109
173 169 111
167 165 110
167 164 109
171 167 110
172 168 110
174 170 110
174 170 111
175 170 112
170 166 109
170 166 109
168 165 109
171 166 109
172 169 113
171 168 111
169 165 109
172 168 110
171 167 109
162 159 104
172 168 110
166 162 106
164 162 108
168 164 109
169 166 109
163 161 106
169 165 105
169 165 108
165 162 106
164 161 105
166 162 105
169 164 108
162 159 102
169 164 106
167 163 104
163 159 101
162 158 100
158 153 97
154 150 95
168 162 101
159 154 97
165 159 100
159 154 97
163 158 100
157 153 94
166 161 99
166 160 97
157 152 94
157 150 92
155 149 91
158 153 95
163 157 97
153 148 91
155 149 90
155 149 91
156 150 90
158 152 90
150 146 86
149 143 80
136 131 76
155 149 87
145 139 85
147 141 80
139 134 77
144 138 74
132 127 70
145 143 73
139 140 54
157 166 52
166 185 22
168 189 19
174 197 0
175 198 0
173 195 0
173 196 0
175 198 0
173 197 0
172 195 0
173 197 0
173 196 0
175 198 0
176 199 0
175 198 0
174 197 0
173 197 0
177 199 0
173 196 0
172 196 0
173 197 0
174 197 0
172 196 0
174 198 0
174 198 0
171 195 0
176 198 0
174 197 0
171 195 0
173 197 0
175 198 0
174 197 0
173 197 0
174 197 0
171 195 0
176 198 0
174 197 0
174 198 0
172 196 0
173 197 0
173 197 0
173 197 0
169 193 0
175 198 0
174 197 0
173 196 0
174 197 0
171 195 0
174 197 0
175 198 0
173 197 0
175 197 0
174 196 0
174 197 0
173 196 0
173 197 0
172 196 0
175 198 0
172 195 0
174 197 0
173 196 0
175 198 0
173 197 0
174 198 0
172 196 0
174 198 0
174 198 0
175 198 0
174 197 0
173 196 0
174 197 0
175 197 0
173 197 0
175 198 0
172 196 0
174 198 0
173 197 0
171 193 0
173 196 0
172 195 0
174 197 0
175 198 0
173 197 0
173 196 0
172 195 0
172 195 0
172 195 0
172 195 0
173 196 0
172 195 0
173 196 0
174 197 0
173 196 0
171 195 0
174 197 0
176 199 0
176 198 0
173 196 0
174 197 0
173 197 0
176 198 0
173 197 0
175 198 0
173 196 0
170 194 0
173 196 0
171 194 0
173 196 0
171 195 0
173 197 0
174 197 0
169 193 0
173 196 0
174 197 0
172 196 0
172 195 0
173 196 0
171 195 0
173 197 0
172 195 0
172 196 0
173 195 0
171 195 0
172 196 0
172 196 0
171 194 0
171 194 0
171 195 0
172 196 0
173 197 0
170 194 0
173 197 0
172 195 0
172 195 0
173 196 0
172 195 0
175 198 0
174 197 0
172 195 0
173 196 0
172 196 0
172 196 0
166 189 51
160 183 65
140 165 108
127 153 130
106 134 151
73 107 175
62 99 181
62 99 180
62 99 180
62 99 179
62 99 179
61 99 180
62 99 180
62 99 180
62 99 181
61 99 180
61 99 180
62 99 181
62 99 181
62 99 181
62 99 181
62 99 181
61 98 181
61 98 181
62 99 181
62 99 181
62 99 181
61 99 181
61 99 181
61 99 181
62 99 181
61 99 181
61 99 181
61 99 181
61 99 181
61 99 181
62 99 181
61 98 181
61 98 181
61 99 181
61 98 181
61 99 181
61 99 181
61 98 181
62 99 181
61 99 181
61 99 181
61 99 181
61 98 181
61 99 181
62 99 181
61 99 181
61 99 181
61 98 181
62 99 181
60 98 181
62 99 181
61 98 181
62 99 181
61 99 181
62 99 181
61 99 181
61 98 179
62 99 180
62 99 181
61 98 180
61 98 179
61 98 181
62 99 179
61 99 181
62 99 181
61 98 181
61 98 178
61 99 181
61 98 179
61 98 179
61 98 180
62 99 180
62 98 178
61 98 177
61 97 174
61 97 175
67 102 174
91 121 161
111 138 147
129 154 126
151 174 83
164 186 53
172 195 25
173 195 0
172 195 0
172 194 0
172 194 0
171 193 0
174 197 0
173 196 0
170 193 0
173 197 0
173 196 0
172 194 0
172 195 0
170 194 0
174 195 0
173 196 0
173 195 0
171 193 0
166 188 16
166 185 30
157 172 36
147 153 53
149 151 61
135 135 62
134 131 71
144 138 70
139 133 77
136 132 74
143 138 82
141 137 78
149 144 88
141 137 78
150 144 88
148 143 86
144 139 82
149 144 88
150 145 92
151 146 91
139 135 83
152 148 96
145 141 90
152 148 95
151 148 95
141 138 88
151 148 94
146 143 92
151 147 98
150 147 97
140 139 92
146 144 95
151 148 99
160 156 101
150 148 98
157 153 98
153 151 102
156 153 103
152 151 102
152 149 100
151 148 99
155 152 102
156 153 103
155 154 104
157 154 103
158 156 105
154 152 104
158 156 105
159 157 105
156 155 105
162 159 107
153 152 103
160 157 105
168 165 111
166 162 108
166 163 109
161 158 106
160 158 106
167 164 109
165 162 108
169 166 111
172 168 112
166 163 108
167 165 110
168 165 110
168 165 110
167 165 110
169 165 110
171 167 110
167 163 109
169 166 111
169 166 111
169 166 109
172 170 113
168 166 111
169 166 110
174 170 112
169 166 111
166 164 109
169 166 110
173 169 112
169 165 110
169 166 110
173 169 112
169 166 111
169 166 109
173 168 111
172 168 111
167 164 109
173 170 113
175 171 113
172 168 111
169 166 110
173 168 110
169 166 109
170 167 112
168 166 108
170 166 110
171 166 109
173 168 110
168 165 108
170 166 110
175 170 112
166 162 105
173 168 111
169 165 108
168 165 108
173 169 111
171 167 109
165 161 104
172 168 110
170 165 109
169 164 104
166 162 103
163 159 101
165 161 104
169 164 106
164 160 103
165 161 104
163 158 103
166 162 103
162 157 102
165 159 101
171 165 106
160 156 101
164 159 103
164 159 99
167 161 99
163 157 101
162 158 99
169 163 102
155 150 94
167 160 99
153 148 90
159 153 93
163 157 94
151 146 87
148 143 84
162 156 90
156 150 94
155 150 88
152 147 84
136 130 75
150 144 85
150 144 84
145 139 81
146 140 84
141 135 75
143 137 80
136 129 78
131 127 66
137 136 59
152 159 57
159 174 37
169 190 11
174 197 0
173 196 0
171 194 0
172 195 0
174 197 0
173 196 0
174 197 0
172 195 0
172 196 0
172 196 0
174 197 0
175 198 0
173 197 0
173 196 0
175 198 0
175 198 0
174 198 0
171 195 0
175 198 0
174 198 0
173 196 0
173 197 0
174 198 0
174 197 0
173 197 0
173 197 0
172 196 0
173 197 0
176 199 0
174 198 0
173 196 0
174 197 0
170 194 0
172 196 0
175 198 0
175 198 0
172 195 0
175 198 0
174 197 0
175 198 0
171 195 0
172 195 0
175 198 0
172 196 0
175 198 0
171 195 0
172 196 0
170 194 0
174 198 0
175 198 0
173 197 0
171 195 0
172 196 0
175 197 0
173 196 0
174 197 0
172 196 0
175 198 0
173 197 0
174 197 0
173 197 0
172 196 0
173 197 0
174 197 0
172 195 0
174 198 0
174 197 0
172 196 0
172 195 0
172 195 0
173 197 0
175 198 0
174 197 0
174 197 0
173 196 0
173 197 0
170 193 0
171 195 0
173 197 0
173 197 0
173 197 0
174 197 0
174 198 0
173 196 0
172 196 0
169 194 0
174 198 0
172 196 0
175 198 0
171 194 0
173 197 0
174 197 0
173 197 0
173 196 0
173 196 0
174 198 0
172 195 0
174 196 0
172 196 0
169 192 0
170 194 0
171 195 0
171 194 0
173 197 0
172 195 0
172 195 0
171 195 0
173 197 0
174 197 0
171 195 0
172 195 0
173 197 0
175 198 0
172 195 0
173 196 0
173 196 0
173 196 0
171 195 0
171 195 0
172 196 0
173 196 0
172 195 0
174 197 0
172 196 0
174 197 0
171 195 0
173 195 0
172 196 0
172 196 0
173 196 0
174 197 0
173 197 0
170 194 0
173 196 0
172 195 0
170 194 0
174 197 0
169 193 25
161 184 72
145 170 102
123 148 136
88 119 161
80 112 170
61 99 179
62 99 180
61 99 179
62 99 181
61 98 178
61 99 181
61 99 179
62 99 181
62 99 180
62 99 179
63 100 180
62 99 179
62 99 180
62 99 181
61 99 180
62 99 181
61 99 180
61 98 181
61 99 180
61 99 181
61 99 181
61 99 181
62 99 181
62 99 181
62 99 181
62 99 181
62 99 181
62 99 181
61 98 181
62 99 181
61 99 181
61 98 181
61 99 181
61 99 181
61 99 181
61 99 181
61 99 181
61 99 181
61 99 181
61 99 181
61 98 181
61 98 181
62 99 181
62 99 181
61 99 181
61 99 181
61 99 181
62 99 181
61 98 181
61 99 181
61 99 181
62 99 181
61 99 181
62 99 180
61 99 181
62 99 181
62 99 181
62 99 181
62 99 180
61 98 181
61 99 180
61 98 180
61 99 181
61 98 180
61 99 181
62 99 181
62 99 180
61 98 179
62 98 175
61 98 179
61 98 179
62 98 177
61 97 176
61 98 178
61 98 178
62 99 180
61 98 178
61 98 177
62 98 179
62 98 175
69 104 174
83 113 161
105 133 150
136 161 114
155 178 85
162 186 57
169 193 31
171 195 18
170 193 0
168 191 0
172 194 0
174 197 0
171 194 0
172 195 0
171 193 0
171 195 0
173 197 0
171 194 0
171 195 0
172 195 0
173 196 0
172 196 0
168 187 16
160 173 37
145 155 41
146 151 52
144 146 54
140 136 71
138 132 74
143 136 82
137 132 75
143 138 79
143 139 81
148 141 83
142 137 77
155 150 91
145 141 86
143 139 82
143 139 86
140 137 86
151 146 89
138 135 87
149 145 88
152 147 94
144 141 90
148 145 93
154 150 98
145 142 96
160 155 101
157 153 101
141 139 93
150 148 100
150 147 98
152 148 97
148 146 99
153 150 99
149 147 99
159 154 102
155 153 102
155 152 100
152 149 99
155 153 102
162 159 105
156 154 103
160 157 104
158 155 105
159 156 104
158 155 104
158 154 103
157 154 103
155 153 104
163 160 107
163 160 107
167 164 110
163 160 106
162 159 106
167 163 110
162 160 107
161 159 107
162 158 106
168 165 110
166 163 109
161 159 106
168 165 110
169 166 111
168 166 110
171 167 110
163 161 108
168 164 109
162 159 106
172 169 113
171 168 112
168 165 110
169 166 110
169 166 111
171 167 111
171 167 111
168 165 109
171 167 111
173 169 112
171 167 110
171 167 111
175 171 113
171 168 112
171 168 111
170 167 110
168 164 109
171 167 111
171 167 109
175 170 112
174 170 112
169 165 108
170 166 110
169 165 110
173 170 112
172 168 110
171 167 110
172 168 111
169 166 110
173 169 112
169 166 110
173 168 110
170 166 110
172 167 110
172 168 110
171 168 111
172 168 109
167 163 108
167 164 108
167 165 109
170 166 107
167 163 104
169 164 106
171 166 108
172 167 109
168 164 106
165 162 103
169 163 103
165 161 105
169 165 106
157 152 95
169 165 106
165 160 102
165 159 103
169 164 104
168 163 106
164 160 103
168 162 104
160 155 99
168 162 101
163 158 99
157 153 95
152 147 89
160 156 95
163 157 100
163 157 95
154 149 92
159 153 94
156 151 93
154 148 88
153 147 89
156 150 87
160 154 93
155 150 90
144 138 80
150 144 80
141 136 79
155 148 91
140 134 78
134 128 73
141 135 77
143 136 80
135 131 65
138 139 61
148 153 59
157 170 37
170 191 28
172 195 0
174 197 0
174 197 0
174 197 0
173 196 0
173 197 0
172 195 0
174 198 0
173 196 0
174 197 0
173 196 0
172 196 0
174 197 0
172 196 0
173 197 0
173 196 0
175 198 0
171 195 0
169 193 0
174 196 0
173 197 0
172 196 0
174 197 0
173 197 0
173 197 0
173 195 0
174 198 0
175 198 0
174 197 0
173 196 0
173 197 0
172 196 0
174 198 0
173 196 0
174 198 0
173 196 0
174 197 0
175 198 0
171 195 0
172 196 0
173 196 0
173 196 0
174 197 0
175 198 0
172 196 0
174 197 0
172 196 0
175 198 0
174 196 0
171 196 0
173 197 0
174 198 0
175 198 0
174 198 0
175 198 0
175 198 0
173 196 0
174 197 0
175 198 0
170 194 0
172 196 0
172 195 0
174 197 0
173 196 0
175 198 0
173 195 0
170 194 0
173 196 0
173 197 0
173 196 0
173 196 0
170 194 0
173 197 0
174 198 0
175 198 0
175 198 0
172 196 0
173 197 0
172 196 0
172 196 0
171 194 0
172 196 0
172 196 0
173 196 0
175 198 0
173 196 0
173 196 0
171 194 0
174 196 0
175 198 0
171 195 0
174 196 0
174 197 0
172 196 0
170 194 0
171 195 0
171 195 0
174 197 0
172 195 0
172 196 0
174 197 0
171 195 0
173 197 0
171 194 0
172 195 0
173 196 0
175 198 0
171 193 0
172 195 0
172 195 0
172 195 0
172 195 0
169 192 0
173 197 0
171 194 0
172 195 0
173 197 0
173 195 0
172 196 0
172 196 0
172 195 0
173 195 0
171 194 0
173 197 0
171 194 0
173 196 0
173 196 0
173 196 0
170 194 0
173 196 0
172 196 0
170 194 0
172 196 0
173 196 0
170 194 0
174 197 0
166 189 57
157 180 76
131 156 126
93 123 162
74 108 171
62 99 176
61 98 177
62 99 180
62 99 179
62 99 179
61 99 180
62 99 180
61 99 181
61 99 179
62 99 181
62 99 181
62 99 181
62 99 180
61 99 180
62 99 181
61 98 180
61 99 180
62 99 181
62 99 181
61 98 181
61 99 181
62 99 181
62 99 181
61 99 181
62 99 181
62 99 181
61 99 181
61 99 181
62 99 181
61 99 181
61 99 181
61 98 181
62 99 181
61 99 181
61 98 181
62 99 181
61 99 181
61 99 181
61 98 181
61 99 181
62 99 181
62 99 181
61 98 181
61 99 181
62 99 181
61 99 181
62 99 181
62 99 181
61 99 181
61 99 181
61 98 181
62 99 181
61 99 181
61 98 181
61 98 180
61 99 181
61 99 181
61 99 181
61 99 181
62 99 180
62 99 179
61 99 181
62 99 181
61 98 181
62 99 181
62 99 181
62 99 181
61 98 179
62 99 181
62 99 181
62 99 181
62 99 181
62 99 179
62 99 180
62 98 178
62 99 181
62 99 179
61 98 178
61 98 178
62 99 180
63 99 179
61 98 176
62 99 178
61 97 176
70 104 174
92 121 155
115 142 137
135 159 117
158 181 69
166 190 44
170 192 0
171 194 0
173 196 0
173 195 0
170 193 0
173 195 0
171 193 0
172 194 0
173 196 0
173 195 0
173 196 0
170 192 0
173 196 0
170 193 11
166 186 22
158 172 39
138 146 49
141 146 56
139 136 70
139 133 73
137 132 72
129 125 68
145 139 77
137 132 76
141 135 82
135 130 72
140 136 82
137 133 78
138 133 81
148 144 87
139 136 84
142 138 86
138 135 87
151 147 91
141 138 85
143 140 90
143 140 91
144 141 91
145 141 92
151 147 96
140 137 93
151 148 96
143 140 93
155 152 100
157 152 101
151 147 98
148 145 96
154 150 99
145 141 95
151 148 99
143 141 93
156 153 100
156 153 103
152 150 98
152 150 100
163 159 106
151 148 100
155 152 102
153 151 102
152 150 101
158 156 106
157 154 104
156 154 103
157 155 105
163 160 106
161 158 105
164 162 108
158 156 106
161 159 108
162 160 108
165 162 109
159 157 105
164 161 108
168 164 109
161 158 105
165 163 110
169 166 110
166 164 110
169 166 112
170 166 110
169 166 110
167 164 110
168 165 111
165 162 109
171 167 110
174 171 113
174 169 112
171 168 113
170 166 110
173 169 112
172 168 112
170 166 110
168 164 109
170 166 110
174 170 112
171 168 111
173 169 112
173 168 112
178 173 114
170 167 110
170 167 111
169 166 110
170 166 109
172 168 111
171 168 112
172 168 110
170 167 110
172 168 111
168 165 109
168 165 108
172 168 110
172 168 110
175 171 112
172 167 108
170 166 108
167 164 106
171 167 109
171 166 109
170 166 109
171 166 107
169 165 107
169 165 108
169 164 106
172 167 108
170 166 109
169 164 107
169 165 106
167 163 106
170 166 107
165 161 104
166 161 104
166 161 101
164 160 102
166 161 103
167 162 101
167 161 102
166 161 102
168 163 102
164 160 103
161 156 98
160 155 96
160 154 95
167 161 99
167 160 98
166 161 100
164 159 101
161 155 97
157 152 95
161 155 91
159 153 95
156 150 91
160 154 93
154 147 89
154 148 86
156 149 93
154 148 88
151 145 84
151 145 87
139 134 77
139 134 73
145 138 78
142 136 72
139 133 73
153 147 83
136 132 67
142 139 77
153 156 64
155 165 52
162 178 32
173 193 22
174 197 0
174 198 0
174 197 0
171 195 0
174 197 0
174 197 0
174 197 0
172 195 0
172 196 0
171 195 0
173 196 0
174 197 0
174 197 0
174 197 0
174 197 0
174 197 0
175 198 0
172 196 0
173 197 0
173 196 0
174 198 0
173 196 0
174 197 0
174 197 0
174 197 0
174 197 0
174 197 0
173 197 0
175 198 0
171 195 0
173 197 0
173 197 0
174 197 0
171 194 0
173 196 0
173 196 0
173 197 0
172 195 0
175 198 0
172 196 0
169 192 0
173 196 0
176 198 0
174 197 0
173 197 0
172 195 0
174 198 0
174 198 0
174 197 0
173 196 0
174 197 0
174 198 0
174 198 0
173 197 0
174 197 0
175 198 0
173 195 0
174 197 0
174 198 0
176 198 0
175 198 0
174 197 0
173 196 0
172 195 0
175 198 0
176 198 0
175 198 0
174 197 0
173 197 0
173 196 0
175 198 0
173 196 0
173 196 0
175 198 0
172 195 0
174 198 0
173 196 0
171 195 0
175 198 0
172 196 0
173 197 0
172 195 0
172 196 0
173 196 0
173 196 0
173 196 0
172 195 0
171 195 0
172 195 0
173 196 0
171 194 0
173 196 0
172 196 0
174 197 0
170 194 0
173 197 0
172 196 0
174 197 0
174 198 0
174 198 0
174 198 0
172 195 0
172 195 0
173 196 0
173 197 0
172 195 0
172 196 0
174 197 0
173 196 0
174 197 0
172 196 0
174 197 0
173 196 0
173 196 0
171 194 0
169 192 0
172 195 0
173 195 0
172 195 0
171 194 0
173 197 0
174 197 0
173 196 0
172 195 0
173 196 0
173 197 0
173 197 0
175 197 0
173 196 0
173 196 0
169 192 0
170 193 0
171 194 0
171 194 36
153 177 86
141 166 108
106 134 152
82 114 165
63 99 178
62 99 180
62 99 179
62 99 179
61 98 177
62 99 180
62 99 179
62 99 179
62 99 181
61 99 181
62 99 181
62 99 181
61 98 180
62 99 180
62 99 181
62 99 180
62 99 181
62 99 181
62 99 181
62 99 181
61 99 181
61 99 181
61 98 181
62 99 181
61 99 181
61 99 181
62 99 181
61 99 181
62 99 181
61 99 181
62 99 181
61 99 181
61 98 181
61 99 181
61 99 181
61 98 181
61 99 181
61 98 181
62 99 181
61 99 181
61 99 181
61 99 181
61 99 181
62 99 181
61 99 181
61 98 181
61 98 181
60 98 181
62 99 181
62 99 181
61 98 181
62 99 181
61 99 181
62 99 181
61 98 181
61 99 181
61 98 181
61 99 181
61 99 181
62 99 181
61 98 180
61 99 181
62 99 180
61 99 181
62 99 180
62 99 181
62 99 181
61 98 181
62 99 181
61 99 179
61 98 178
62 99 180
62 99 181
62 99 181
62 99 180
61 98 176
61 98 177
62 98 178
61 99 179
61 97 176
62 98 177
61 98 177
61 97 176
62 99 178
62 98 177
61 98 175
61 98 176
61 97 174
81 112 167
109 136 143
128 153 120
147 170 93
164 187 57
169 193 18
172 196 0
169 192 0
171 194 0
173 196 0
174 197 0
173 195 0
174 197 0
169 191 0
175 198 0
173 196 0
172 194 0
169 190 19
159 175 34
158 172 34
142 149 47
143 145 62
148 145 75
138 132 67
139 134 68
128 123 62
136 131 74
142 138 79
134 129 77
142 138 82
140 135 83
139 135 82
149 144 87
144 138 83
133 131 81
141 137 85
144 140 86
146 143 89
149 144 91
141 138 90
139 136 90
140 137 88
152 148 97
150 147 96
146 144 95
143 141 94
143 141 90
144 141 95
144 142 93
155 152 100
145 144 95
147 144 93
147 145 97
142 140 94
153 150 100
154 151 100
153 151 100
161 157 104
148 146 100
157 154 103
149 147 99
162 159 106
155 152 102
160 157 105
155 153 103
157 155 105
164 161 108
160 157 105
159 157 106
165 162 109
157 154 105
158 156 105
167 164 109
157 154 103
163 161 108
171 167 111
164 162 109
160 158 107
163 161 107
162 159 107
170 166 110
168 165 109
164 161 108
169 166 111
168 165 110
163 160 106
168 165 111
167 164 108
168 165 110
171 168 112
169 166 110
170 167 111
171 168 111
171 168 112
173 170 112
171 167 111
171 168 110
172 168 111
175 170 112
172 169 112
170 167 110
171 168 111
175 170 113
172 168 110
177 172 113
176 172 113
172 168 109
170 167 110
171 166 108
175 171 113
174 170 113
173 169 112
173 169 112
171 166 109
174 170 112
170 168 112
169 165 106
168 164 107
168 164 108
168 165 109
169 165 107
171 167 109
163 160 104
167 163 104
166 162 106
172 167 109
171 166 108
173 168 109
168 165 106
169 165 104
163 159 102
170 165 106
162 159 103
165 160 102
172 167 106
172 165 106
167 163 104
169 165 106
166 161 101
168 163 103
163 158 100
166 161 101
160 155 99
164 159 101
164 158 97
163 158 101
161 156 99
163 158 102
164 158 97
167 161 98
167 161 102
167 161 98
156 151 92
155 150 92
162 157 94
154 148 90
151 146 84
152 147 88
159 153 89
146 140 84
150 145 83
153 147 87
143 137 77
147 141 79
151 144 82
148 142 80
140 134 80
141 135 78
137 131 71
143 138 72
145 145 65
152 160 56
159 174 37
167 186 19
173 196 0
174 196 0
173 197 0
173 196 0
175 198 0
173 197 0
173 196 0
172 195 0
174 198 0
172 196 0
172 195 0
173 196 0
174 197 0
173 196 0
176 198 0
174 198 0
173 197 0
173 197 0
172 195 0
172 196 0
172 196 0
170 195 0
172 196 0
172 197 0
171 196 0
174 197 0
176 198 0
172 195 0
174 197 0
174 197 0
174 197 0
176 199 0
175 198 0
173 197 0
172 196 0
173 197 0
174 197 0
175 198 0
172 196 0
174 197 0
174 197 0
175 198 0
173 197 0
173 196 0
172 196 0
171 194 0
171 195 0
172 196 0
171 195 0
172 196 0
174 198 0
174 197 0
175 198 0
169 192 0
174 198 0
176 199 0
175 198 0
173 196 0
171 195 0
173 195 0
172 195 0
172 196 0
173 196 0
172 195 0
172 196 0
171 195 0
174 197 0
172 196 0
174 197 0
173 197 0
171 195 0
172 194 0
172 196 0
173 197 0
172 196 0
172 196 0
174 197 0
174 198 0
173 196 0
173 197 0
174 197 0
173 196 0
175 197 0
171 194 0
175 198 0
174 197 0
174 197 0
174 197 0
172 195 0
173 196 0
172 196 0
173 196 0
172 196 0
173 196 0
172 196 0
173 196 0
170 194 0
172 195 0
174 198 0
174 197 0
173 196 0
172 196 0
172 195 0
174 197 0
173 196 0
170 194 0
169 193 0
172 196 0
173 196 0
172 194 0
174 198 0
172 195 0
169 192 0
172 196 0
174 197 0
171 194 0
175 198 0
174 197 0
173 196 0
174 197 0
173 197 0
171 194 0
168 191 0
175 198 0
173 196 0
169 193 0
172 195 0
170 193 0
172 195 0
171 195 0
172 196 0
168 192 18
162 186 62
153 177 90
117 143 137
89 119 160
61 99 179
62 99 179
61 99 178
62 99 179
62 99 180
62 99 180
62 99 180
62 99 181
62 99 181
62 99 178
62 99 181
62 99 181
62 99 181
62 99 181
62 99 179
61 98 180
62 99 180
62 99 181
61 99 181
61 99 181
61 99 180
61 99 180
61 98 181
62 99 181
61 98 181
61 98 181
61 99 181
62 99 181
61 99 181
62 99 181
61 99 181
62 99 181
61 99 181
61 98 181
61 99 181
62 99 181
62 99 181
61 99 181
61 99 181
61 99 181
62 99 181
61 98 181
62 99 181
62 99 181
61 99 181
62 99 181
61 99 181
61 98 181
61 98 181
61 99 181
61 99 181
61 98 181
61 98 181
62 99 181
62 99 181
61 99 181
61 99 181
61 98 181
62 99 180
62 99 181
61 99 181
61 99 181
61 98 181
61 99 180
61 99 181
61 98 181
62 99 181
62 99 181
62 99 180
61 99 180
62 99 179
61 98 179
62 99 181
61 98 179
62 99 178
61 98 180
61 98 180
62 99 180
62 98 178
62 99 178
61 98 178
61 98 179
62 99 178
62 99 179
62 99 180
62 98 178
62 99 177
62 98 178
60 97 178
62 98 178
62 98 176
64 100 177
75 107 165
120 145 139
139 164 106
159 182 72
163 188 57
170 193 0
172 196 0
173 195 0
172 195 0
169 193 0
172 195 0
172 194 0
171 193 0
173 197 0
170 194 0
168 189 16
159 175 30
160 171 51
143 148 49
142 141 64
127 123 67
125 122 67
139 134 74
131 127 67
131 127 69
143 138 80
150 145 81
143 137 79
134 130 74
146 141 83
145 140 87
141 137 83
142 138 84
139 136 87
139 136 84
139 135 87
143 140 90
145 141 90
143 141 91
135 132 88
137 136 89
138 135 91
131 130 87
145 143 95
142 141 95
143 142 97
148 145 91
146 143 94
142 140 94
144 141 94
143 141 96
149 145 97
148 146 98
144 141 95
149 147 100
156 153 104
146 144 99
155 153 104
151 149 101
154 151 101
157 154 104
155 153 103
151 148 98
156 154 104
163 160 107
165 161 106
156 154 104
159 156 104
158 156 106
159 156 105
164 161 107
161 158 106
162 160 107
159 157 107
159 157 106
169 166 110
167 164 107
167 164 109
163 160 107
171 167 111
165 162 107
163 160 107
169 165 108
169 166 109
170 167 111
168 164 108
168 164 109
169 166 108
172 168 111
171 167 110
174 170 112
174 169 111
165 163 108
171 167 110
168 165 109
175 171 113
170 167 111
169 166 109
174 169 112
173 170 112
170 165 108
172 169 112
176 172 113
171 168 110
174 170 112
171 167 110
168 165 108
171 167 110
170 166 108
176 171 113
170 166 110
174 169 111
172 169 110
170 167 110
171 166 108
169 165 108
174 170 112
169 164 107
166 161 105
174 169 110
172 167 106
169 165 108
174 169 109
167 163 106
165 161 101
176 171 112
171 167 108
165 161 102
171 166 104
171 166 106
168 163 103
165 161 104
169 164 104
166 161 103
165 161 106
168 161 104
169 164 107
166 162 103
167 163 101
166 161 101
170 164 105
163 158 98
162 156 97
164 159 100
161 157 102
164 159 102
163 158 98
162 156 98
151 146 88
155 149 91
163 156 97
165 158 95
159 152 95
158 153 93
160 154 91
158 152 92
156 151 88
156 150 90
153 146 91
135 130 75
154 148 87
152 146 87
139 134 78
142 137 75
151 145 81
138 131 74
137 132 68
144 138 74
139 136 69
142 145 58
154 167 39
168 187 30
174 196 0
175 197 0
175 198 0
174 197 0
172 195 0
172 196 0
172 195 0
174 197 0
173 197 0
174 197 0
173 197 0
172 195 0
169 194 0
173 196 0
174 198 0
172 196 0
174 197 0
173 196 0
172 196 0
174 197 0
174 197 0
172 196 0
173 196 0
173 196 0
175 198 0
173 197 0
175 198 0
173 196 0
174 197 0
174 198 0
174 198 0
173 196 0
175 198 0
173 197 0
173 197 0
173 197 0
173 197 0
172 196 0
174 197 0
172 196 0
175 198 0
173 197 0
175 198 0
173 197 0
170 194 0
174 197 0
172 196 0
174 197 0
175 198 0
174 196 0
174 197 0
172 196 0
173 197 0
172 196 0
173 197 0
173 196 0
173 197 0
174 198 0
174 198 0
174 197 0
174 197 0
175 198 0
174 197 0
172 196 0
170 194 0
175 197 0
171 194 0
171 195 0
173 197 0
173 197 0
172 196 0
173 196 0
173 196 0
171 195 0
174 197 0
173 195 0
171 195 0
171 194 0
175 198 0
171 195 0
172 195 0
175 197 0
172 195 0
173 196 0
174 197 0
174 197 0
173 196 0
172 196 0
173 196 0
172 196 0
172 196 0
176 199 0
175 198 0
172 195 0
172 195 0
171 194 0
169 193 0
172 195 0
168 192 0
172 195 0
173 195 0
171 195 0
173 196 0
173 197 0
175 198 0
173 196 0
173 196 0
171 195 0
173 197 0
173 197 0
173 197 0
176 199 0
173 196 0
173 195 0
171 195 0
173 196 0
172 195 0
173 197 0
173 197 0
175 198 0
171 194 0
174 196 0
173 196 0
172 195 0
169 193 0
173 197 0
171 195 0
173 196 0
173 197 0
169 192 0
170 193 36
157 181 74
132 158 121
101 129 152
71 106 172
62 98 172
62 99 177
62 99 180
62 99 178
62 99 179
62 98 177
62 99 179
61 98 178
62 99 176
62 99 178
61 98 177
61 98 181
62 99 181
62 99 180
62 99 180
61 99 180
62 99 179
62 99 179
62 99 181
62 99 181
62 99 181
62 99 181
61 99 181
62 99 181
62 99 181
61 99 181
61 98 181
61 99 181
62 99 181
62 99 181
62 99 181
62 99 181
62 99 181
61 99 181
62 99 181
61 99 181
61 99 181
61 98 181
62 99 181
61 98 181
61 99 181
61 98 181
62 99 181
61 99 181
62 99 181
62 99 181
61 98 181
61 99 181
62 99 181
62 99 181
61 99 181
62 99 181
61 99 181
62 99 181
61 99 181
62 99 181
61 99 181
62 99 181
61 99 181
61 99 181
61 98 181
62 99 181
62 99 181
62 99 181
62 99 181
62 99 180
62 99 179
62 99 179
61 99 181
62 99 179
62 99 181
62 99 180
62 99 181
62 99 180
62 99 179
62 99 179
61 99 180
62 99 181
62 99 179
62 99 179
61 98 178
61 99 181
61 98 178
62 98 179
62 99 180
62 99 178
61 97 176
61 98 177
61 97 175
62 98 175
62 99 179
61 97 176
60 96 173
61 98 176
68 102 171
93 122 157
121 147 134
140 165 106
152 176 81
166 189 25
173 196 0
173 196 0
172 196 0
171 194 0
170 193 0
172 195 0
173 197 0
173 195 0
168 187 28
161 177 32
139 150 36
145 145 62
136 133 62
135 130 69
136 130 74
127 122 70
128 124 68
129 125 69
134 130 80
140 135 81
134 130 77
146 141 84
132 129 80
142 138 86
145 141 87
136 132 87
137 133 81
140 137 82
136 133 82
136 133 86
141 138 94
147 144 92
143 140 94
135 134 87
147 144 94
145 141 93
135 134 91
147 144 94
148 145 95
143 141 94
151 149 101
147 146 100
141 140 93
149 147 98
145 143 97
148 146 98
151 150 102
152 149 102
151 149 99
154 152 103
149 148 100
158 155 104
153 150 100
161 157 104
153 153 105
153 150 101
160 158 107
154 152 102
163 159 106
155 153 103
157 155 105
157 154 104
165 162 108
162 159 107
160 158 106
157 156 105
167 163 108
166 164 109
164 161 107
160 157 106
167 164 110
164 161 108
169 166 111
163 159 107
162 160 108
166 162 108
170 166 109
166 163 109
172 167 111
169 167 111
170 166 109
170 167 109
168 164 109
169 165 109
174 170 113
173 169 111
172 169 111
170 167 110
172 169 110
170 166 109
173 169 111
169 166 111
174 170 112
168 165 110
169 166 110
167 163 108
173 169 112
174 170 112
174 170 112
175 171 110
171 167 111
173 169 110
170 166 110
170 167 108
168 165 108
172 168 110
171 167 108
170 167 107
172 166 108
171 167 109
171 168 111
170 165 106
172 168 109
171 167 108
171 166 108
169 165 106
172 167 108
167 163 107
172 167 108
168 164 105
174 169 109
163 159 100
170 166 108
163 159 104
166 162 103
167 162 104
161 157 97
157 152 99
161 157 101
168 162 103
162 158 102
171 165 106
165 160 101
168 164 105
163 157 99
170 164 102
166 159 100
162 157 98
167 162 100
162 157 96
160 155 97
163 157 95
159 153 96
157 152 90
154 148 94
156 151 90
153 148 90
163 157 98
163 158 95
165 158 87
149 143 77
151 145 84
157 150 87
155 149 87
146 140 84
156 150 87
155 148 89
145 140 80
144 138 76
155 148 80
131 126 64
135 131 67
142 146 57
154 168 30
165 183 34
172 195 0
172 196 0
173 195 0
175 198 0
172 196 0
174 197 0
173 196 0
173 196 0
171 195 0
174 197 0
175 198 0
173 196 0
173 197 0
173 197 0
173 196 0
173 196 0
175 198 0
171 195 0
173 197 0
173 197 0
172 196 0
174 198 0
173 197 0
175 198 0
172 196 0
173 196 0
170 193 0
170 194 0
174 196 0
173 197 0
175 198 0
174 197 0
173 197 0
173 197 0
171 196 0
175 198 0
173 197 0
176 199 0
173 197 0
175 198 0
172 195 0
171 195 0
174 197 0
174 197 0
170 194 0
172 196 0
174 196 0
170 195 0
172 196 0
173 197 0
174 197 0
174 197 0
174 197 0
175 197 0
176 198 0
174 197 0
173 197 0
174 197 0
171 195 0
174 197 0
173 197 0
172 196 0
173 197 0
172 196 0
174 197 0
171 195 0
173 197 0
173 196 0
172 195 0
173 197 0
174 197 0
174 197 0
174 197 0
172 195 0
170 193 0
173 196 0
173 197 0
174 197 0
174 197 0
172 196 0
172 196 0
174 198 0
170 195 0
172 196 0
172 196 0
172 196 0
176 199 0
172 196 0
173 196 0
171 195 0
174 197 0
173 197 0
173 196 0
175 197 0
174 197 0
170 194 0
171 195 0
172 196 0
170 194 0
171 195 0
172 195 0
174 197 0
172 195 0
173 196 0
175 197 0
175 198 0
174 197 0
173 196 0
170 193 0
172 195 0
172 196 0
173 196 0
172 195 0
172 196 0
172 196 0
172 196 0
174 197 0
172 196 0
172 196 0
173 196 0
173 197 0
172 195 0
173 197 0
174 197 0
172 195 0
172 195 0
170 194 0
172 196 0
171 195 18
164 189 40
146 171 103
109 137 147
83 114 165
65 101 178
61 99 178
62 99 180
61 99 179
62 99 178
62 99 176
62 99 178
61 98 177
62 99 178
62 99 180
62 99 177
62 99 180
62 99 181
62 99 179
62 99 181
62 99 181
61 99 180
62 99 181
62 99 180
62 99 181
62 99 181
62 99 181
62 99 181
62 99 181
61 99 181
61 99 181
61 99 181
61 99 181
61 98 181
62 99 181
61 98 181
61 98 181
61 99 181
62 99 181
62 99 181
61 99 181
62 99 181
62 99 181
62 99 181
62 99 181
61 99 181
61 98 181
62 99 181
61 99 181
61 99 181
61 98 181
61 98 181
61 98 181
62 99 181
61 98 181
62 99 181
61 98 181
61 99 181
62 99 181
61 99 181
61 99 181
61 99 181
61 99 181
61 99 181
62 99 181
61 99 181
61 99 181
62 99 181
62 99 181
61 99 181
62 99 181
61 99 180
62 99 181
62 99 180
62 99 181
62 99 181
62 99 181
62 99 180
61 99 181
62 99 179
61 98 180
61 98 178
61 99 181
62 99 181
62 99 181
61 98 180
61 98 179
62 99 178
62 99 181
62 99 181
62 98 177
62 99 178
61 98 179
62 99 177
62 99 178
62 99 179
62 98 176
61 97 175
62 99 178
61 98 176
61 97 174
62 98 176
61 97 176
81 112 164
107 134 148
133 157 112
154 178 85
168 191 44
171 194 0
173 196 0
172 195 0
171 193 0
171 194 0
173 196 0
171 193 0
160 174 34
152 165 37
149 156 51
140 141 61
128 125 60
125 121 61
143 137 78
127 123 66
146 140 80
129 125 69
136 131 74
139 134 76
130 126 77
129 125 72
142 138 81
133 130 78
143 139 87
135 132 83
141 136 89
138 134 83
145 142 91
135 133 88
136 132 87
150 146 97
141 137 88
140 138 90
135 134 92
141 139 93
150 147 95
138 137 92
137 136 92
151 147 96
145 143 97
150 148 99
139 137 94
151 148 99
153 150 102
149 147 99
141 139 94
151 149 100
154 152 102
156 153 102
156 153 103
152 150 102
158 155 104
163 160 108
159 157 104
149 147 99
152 151 101
164 161 107
147 146 98
155 154 104
158 156 105
162 159 107
158 156 105
153 151 101
163 160 107
163 160 106
160 157 104
167 164 109
160 157 105
162 159 107
167 163 108
168 165 110
170 167 111
167 164 108
168 165 110
167 163 108
169 166 110
164 161 107
166 163 109
166 163 108
168 165 109
168 165 109
171 167 111
172 168 111
172 168 109
170 167 110
169 166 110
172 169 111
173 169 112
172 168 112
174 171 112
168 165 109
173 169 111
169 166 111
171 168 110
168 164 108
172 169 112
170 167 108
171 167 110
174 170 113
175 170 111
172 169 111
167 164 107
173 169 110
169 165 107
172 167 109
173 170 112
172 167 107
170 167 108
169 165 107
174 170 110
168 164 105
168 163 103
168 165 108
171 166 104
170 166 107
171 167 109
169 165 104
165 161 103
162 160 104
167 162 104
171 167 110
172 167 108
169 164 106
171 166 108
162 158 100
167 163 103
168 162 104
168 163 106
167 163 103
167 162 103
162 157 100
166 160 97
171 166 104
161 156 99
163 158 99
166 161 101
168 162 102
168 163 104
167 162 101
165 159 98
161 156 94
162 157 97
162 155 92
161 155 94
155 149 88
152 147 89
158 152 90
159 154 91
152 147 89
157 151 90
166 159 98
156 149 87
139 135 75
157 151 85
159 152 87
150 143 84
153 146 84
153 146 87
141 134 74
137 131 75
139 133 72
131 132 54
151 158 53
152 168 25
172 193 19
173 196 0
174 197 0
172 196 0
173 195 0
174 196 0
174 197 0
172 196 0
173 196 0
174 198 0
173 197 0
173 196 0
172 196 0
173 196 0
174 197 0
175 198 0
174 198 0
175 198 0
173 197 0
172 196 0
172 196 0
173 196 0
172 196 0
171 194 0
172 196 0
175 198 0
172 195 0
173 197 0
174 197 0
175 198 0
173 197 0
173 196 0
175 198 0
174 197 0
172 195 0
174 197 0
172 196 0
172 196 0
175 198 0
174 197 0
174 197 0
176 198 0
172 196 0
173 197 0
173 197 0
175 198 0
173 196 0
170 194 0
174 197 0
171 195 0
176 198 0
173 195 0
176 199 0
171 194 0
174 197 0
171 196 0
175 198 0
175 198 0
175 198 0
174 198 0
174 197 0
173 197 0
173 196 0
172 196 0
172 195 0
170 194 0
173 196 0
171 195 0
172 195 0
173 197 0
173 197 0
170 194 0
174 197 0
171 195 0
173 197 0
174 197 0
173 197 0
173 197 0
171 195 0
171 195 0
170 193 0
173 197 0
172 195 0
173 196 0
172 196 0
175 198 0
173 197 0
171 194 0
173 196 0
170 194 0
173 197 0
174 197 0
172 195 0
173 196 0
170 193 0
174 197 0
172 195 0
173 197 0
172 196 0
174 197 0
172 196 0
172 195 0
172 196 0
172 196 0
174 197 0
172 195 0
171 194 0
173 196 0
174 197 0
173 195 0
174 197 0
174 198 0
173 196 0
172 194 0
173 197 0
173 197 0
171 194 0
174 197 0
174 197 0
169 193 0
172 196 0
173 195 0
172 196 0
172 195 0
172 195 0
172 196 0
172 196 0
172 195 18
159 182 65
134 159 124
99 128 153
71 106 172
62 99 177
62 99 179
63 99 180
62 99 178
62 99 181
61 99 179
61 99 179
62 99 180
62 99 179
62 99 180
62 99 181
62 99 181
62 99 179
62 99 180
62 99 180
61 98 179
62 99 180
62 99 181
62 99 180
61 99 181
62 99 181
61 99 181
61 99 181
62 99 181
61 99 180
62 99 181
61 98 180
62 99 181
62 99 181
61 99 181
61 99 181
62 99 181
61 99 181
61 99 181
61 99 181
62 99 181
62 99 181
62 99 181
62 99 181
62 99 181
62 99 181
61 99 181
62 99 181
62 99 181
61 98 181
62 99 181
62 99 181
62 99 181
61 98 181
62 99 181
61 99 181
62 99 181
62 99 181
61 99 181
62 99 181
62 99 181
61 99 181
62 99 181
62 99 181
61 99 181
61 98 181
61 99 181
62 99 181
62 99 181
61 99 181
62 99 181
62 99 181
62 99 181
61 99 181
61 99 181
62 99 180
61 98 180
61 99 181
61 99 181
62 99 180
61 98 179
61 98 181
62 99 179
62 99 181
61 98 179
61 99 180
61 98 179
62 99 180
61 98 179
61 98 179
61 98 178
62 99 180
63 99 179
61 99 179
62 99 179
62 99 179
62 98 176
61 98 175
62 98 178
62 98 175
62 99 178
61 98 177
61 99 180
61 98 174
61 98 177
68 102 173
92 121 156
118 145 133
139 163 106
162 185 63
169 192 26
172 194 0
170 193 0
168 191 0
173 195 0
168 188 16
164 178 41
143 153 39
149 155 55
143 141 66
137 132 71
137 131 72
130 125 62
135 130 67
139 135 75
145 140 80
130 125 68
131 126 73
134 131 76
138 134 81
136 132 79
139 135 85
137 134 82
149 145 90
140 136 85
138 134 85
142 138 88
136 133 84
135 133 86
146 143 92
135 133 88
137 135 89
148 146 95
148 144 93
145 143 95
143 141 93
143 141 94
141 140 96
146 144 96
144 141 94
144 142 96
141 139 93
146 144 97
142 140 95
150 148 100
146 146 101
148 146 99
143 141 95
154 152 103
151 149 101
161 158 106
150 149 101
154 152 102
150 149 102
157 154 103
160 158 106
159 157 105
164 160 104
158 157 105
160 157 104
155 152 101
158 155 104
163 160 109
159 157 105
161 158 106
167 164 110
166 163 109
165 162 109
171 167 111
165 162 108
169 166 110
164 160 107
170 167 111
167 164 108
170 166 111
171 167 112
168 166 111
168 164 108
171 167 110
170 167 110
170 167 110
170 167 111
170 166 110
172 169 112
173 168 110
171 167 110
171 166 109
170 167 110
173 169 111
176 171 112
173 169 111
171 167 110
174 168 109
175 170 112
172 168 109
170 167 108
174 170 111
174 171 113
169 166 111
176 171 112
170 167 108
174 169 110
170 166 108
168 164 107
174 169 110
168 165 106
173 168 108
173 168 109
174 169 109
170 166 106
173 168 111
174 169 110
170 165 105
167 162 105
166 161 103
167 164 103
173 168 106
168 164 106
170 165 102
168 164 106
171 166 109
166 162 104
173 168 108
172 167 106
167 162 102
167 161 100
173 167 108
165 159 99
161 156 98
166 162 101
166 161 101
163 159 97
167 162 101
163 157 97
161 155 97
163 158 98
168 162 103
162 156 97
159 153 93
165 160 99
168 161 101
159 153 93
158 153 91
160 154 92
161 155 95
153 148 89
156 151 91
159 152 87
154 149 88
147 141 78
156 149 91
148 142 84
150 143 81
152 145 87
149 142 77
159 152 89
146 140 76
145 139 78
144 139 76
133 127 65
139 133 75
143 147 54
158 172 44
168 189 11
174 197 0
175 197 0
175 197 0
173 196 0
173 196 0
174 197 0
173 197 0
174 197 0
173 197 0
174 197 0
174 197 0
174 197 0
173 197 0
174 197 0
174 197 0
173 197 0
172 195 0
174 197 0
174 197 0
174 197 0
175 198 0
174 198 0
175 198 0
173 196 0
175 198 0
173 196 0
172 196 0
173 197 0
174 197 0
175 198 0
172 196 0
173 196 0
174 197 0
171 196 0
174 198 0
174 197 0
173 197 0
174 197 0
174 197 0
174 198 0
172 196 0
172 196 0
174 197 0
171 195 0
174 197 0
173 196 0
172 196 0
174 197 0
172 196 0
173 196 0
173 196 0
171 195 0
173 196 0
174 197 0
173 196 0
173 197 0
173 196 0
175 198 0
172 196 0
171 195 0
172 196 0
173 196 0
173 196 0
175 198 0
173 196 0
174 197 0
174 197 0
173 196 0
173 196 0
173 196 0
173 196 0
174 198 0
173 196 0
174 196 0
175 198 0
169 193 0
168 192 0
174 198 0
174 197 0
173 197 0
174 197 0
173 196 0
175 198 0
174 197 0
173 196 0
172 195 0
171 195 0
174 197 0
174 197 0
173 196 0
173 197 0
172 196 0
174 197 0
173 196 0
171 195 0
173 196 0
171 195 0
171 195 0
173 196 0
174 197 0
172 195 0
173 197 0
170 194 0
173 197 0
173 196 0
174 197 0
173 196 0
173 196 0
173 196 0
173 197 0
175 198 0
169 193 0
173 195 0
171 195 0
170 193 0
172 195 0
168 191 0
172 195 0
173 197 0
172 195 0
171 195 0
173 197 0
174 197 0
171 195 0
170 194 0
170 192 40
149 173 92
121 147 136
86 117 163
64 100 177
62 99 175
62 99 177
62 99 178
62 99 180
62 99 178
61 98 175
62 99 178
62 99 181
62 99 180
61 98 179
61 99 180
61 98 179
61 99 180
62 99 180
62 99 180
61 99 180
62 99 181
61 99 181
62 99 181
61 98 181
62 99 181
61 98 181
62 99 180
62 99 180
61 99 180
61 99 181
62 99 181
62 99 179
62 99 181
61 99 181
61 99 181
62 99 181
62 99 181
61 99 181
62 99 181
61 99 181
61 99 181
61 99 181
61 99 181
62 99 181
61 99 181
61 98 181
61 98 181
61 98 181
62 99 181
62 99 181
61 99 181
62 99 181
62 99 181
62 99 181
62 99 181
61 99 181
61 99 181
61 99 181
62 99 181
62 99 181
61 99 181
61 99 181
61 98 181
61 98 181
62 99 181
61 99 181
62 99 181
61 99 181
61 99 181
61 99 181
62 99 181
61 99 181
62 99 180
62 99 181
61 98 181
62 99 180
62 99 181
62 99 180
61 98 180
62 99 181
62 99 181
62 99 180
62 99 179
61 99 181
61 99 180
62 99 180
62 99 178
62 99 181
61 99 181
62 99 180
61 98 178
62 98 179
61 98 178
61 98 179
62 98 176
62 99 180
61 98 176
61 98 177
62 98 177
62 99 179
61 98 176
61 98 178
61 98 176
61 97 174
61 98 178
61 97 170
66 101 173
78 110 170
107 135 145
131 154 117
150 173 79
165 188 31
172 195 0
172 195 0
172 195 0
164 184 16
146 160 25
145 155 41
143 144 57
136 132 68
139 133 73
138 133 72
130 125 73
137 131 71
136 131 75
131 127 73
135 130 77
135 131 79
133 129 78
147 142 85
147 142 90
127 124 71
137 134 84
133 130 81
143 140 91
137 134 85
129 128 87
142 140 90
142 139 91
129 127 84
139 136 90
138 135 90
132 130 87
150 146 95
139 138 94
138 136 90
141 138 93
139 137 92
139 137 94
143 141 95
147 144 97
138 138 95
154 152 102
158 155 105
146 144 98
155 153 104
152 149 101
154 152 103
152 149 101
155 152 101
154 152 102
149 148 102
155 154 105
155 153 105
151 150 103
160 158 107
155 154 105
160 158 106
159 157 106
164 160 107
159 156 105
161 159 108
162 160 106
170 167 112
158 155 103
158 156 106
167 163 109
167 163 107
167 163 107
163 159 105
167 164 109
169 166 109
169 166 110
170 166 110
173 170 113
166 163 108
170 166 108
163 161 105
172 169 111
171 166 109
171 168 110
171 167 109
171 167 109
169 167 109
173 169 110
167 163 108
172 169 112
171 167 109
174 170 112
170 166 109
176 171 110
173 169 110
173 168 110
176 171 112
173 169 110
172 168 110
173 168 109
169 167 110
173 168 109
173 169 111
172 167 108
173 169 110
174 170 111
172 168 109
175 170 110
170 166 109
172 168 108
170 166 109
173 168 109
164 160 104
172 167 108
170 166 108
176 171 110
174 169 109
173 168 108
173 169 109
168 164 105
164 161 106
168 163 103
172 167 107
173 168 105
163 158 99
172 167 108
171 167 107
171 167 106
169 165 104
165 159 97
169 164 100
163 159 100
170 164 102
168 162 103
165 160 99
164 159 99
162 157 97
162 157 97
163 158 100
164 159 100
162 157 95
160 154 93
166 159 95
160 154 95
163 157 95
163 157 94
160 154 87
145 140 83
161 154 94
154 149 82
156 151 93
159 153 90
150 144 84
150 143 81
150 145 84
139 134 77
142 136 74
141 136 72
146 139 78
141 135 74
143 136 74
149 142 75
135 128 68
124 120 58
146 148 63
152 163 41
166 185 30
174 197 0
173 196 0
174 197 0
173 196 0
174 197 0
172 195 0
173 196 0
174 198 0
174 197 0
173 196 0
174 197 0
173 197 0
173 196 0
176 198 0
173 197 0
174 197 0
174 197 0
173 196 0
172 195 0
174 198 0
174 198 0
174 198 0
174 197 0
169 194 0
171 194 0
174 197 0
174 197 0
175 198 0
171 194 0
174 197 0
176 198 0
174 197 0
172 195 0
173 197 0
175 197 0
173 196 0
173 197 0
175 198 0
173 197 0
175 198 0
174 198 0
173 197 0
172 196 0
173 196 0
173 197 0
173 197 0
172 195 0
174 197 0
172 195 0
173 197 0
172 195 0
176 198 0
173 196 0
173 197 0
173 197 0
174 198 0
174 197 0
171 194 0
173 197 0
174 197 0
173 196 0
174 197 0
172 195 0
173 196 0
175 197 0
173 196 0
171 194 0
174 197 0
172 196 0
173 196 0
174 197 0
175 198 0
174 197 0
171 194 0
172 195 0
175 197 0
172 195 0
174 198 0
174 197 0
171 195 0
174 197 0
173 196 0
171 195 0
174 197 0
172 195 0
173 196 0
174 197 0
174 197 0
173 197 0
173 195 0
173 196 0
171 194 0
172 196 0
174 197 0
171 195 0
170 193 0
172 194 0
172 195 0
173 196 0
171 195 0
173 196 0
174 197 0
172 195 0
172 195 0
170 194 0
170 194 0
174 197 0
174 197 0
173 196 0
174 198 0
172 196 0
172 195 0
172 195 0
173 196 0
174 197 0
173 196 0
171 195 0
170 194 0
174 197 0
169 193 0
172 195 0
173 195 0
174 196 0
171 194 18
164 187 60
141 165 107
110 137 142
74 108 174
62 99 176
63 100 179
62 99 175
62 99 179
62 99 178
62 99 174
62 99 180
63 99 178
61 98 179
62 99 179
62 99 180
62 99 181
63 100 181
62 99 180
61 99 181
61 99 181
61 99 180
61 99 180
62 99 180
62 99 180
61 99 180
62 99 179
62 99 181
61 98 181
62 99 181
61 99 181
62 99 181
62 99 181
62 99 181
61 98 180
61 99 181
62 99 181
61 99 181
61 99 180
62 99 181
62 99 181
62 99 181
62 99 181
62 99 181
62 99 181
61 99 181
62 99 181
62 99 181
62 99 181
61 99 181
61 98 181
61 99 181
61 99 181
62 99 181
61 98 181
61 99 181
62 99 181
62 99 181
61 98 181
61 99 181
61 98 181
62 99 181
62 99 181
61 99 181
62 99 181
61 99 181
61 99 181
61 98 181
62 99 181
62 99 181
62 99 181
61 99 181
62 99 181
61 99 181
62 99 180
62 99 181
61 99 181
62 99 180
62 99 181
61 98 181
62 99 181
62 99 181
62 99 181
62 99 181
61 99 181
62 99 181
62 99 180
61 98 178
62 99 181
61 99 181
62 99 179
62 99 181
62 99 179
62 99 179
61 99 180
61 98 178
62 99 178
62 99 181
62 99 177
61 99 179
61 98 176
62 99 178
60 97 177
61 98 177
62 98 176
62 99 177
62 99 180
62 98 177
61 98 178
62 99 174
61 97 168
66 100 169
100 128 148
130 155 118
153 176 82
168 191 31
172 194 0
170 192 0
166 187 16
153 167 30
140 146 48
134 131 59
133 129 62
130 126 70
127 122 64
130 126 66
146 139 79
135 131 75
133 128 71
131 128 73
137 133 77
136 133 81
140 135 79
129 126 76
134 131 81
141 137 87
138 135 84
136 132 80
136 133 87
141 138 90
132 131 86
134 132 87
136 135 88
142 139 91
144 141 92
130 129 86
142 140 92
141 140 96
138 137 92
133 132 90
141 139 92
136 134 87
150 148 101
146 145 98
145 143 96
147 145 98
143 141 98
145 144 98
154 151 99
152 150 101
149 147 100
153 152 103
158 155 104
149 149 102
149 148 101
158 156 106
157 154 104
154 152 103
159 155 104
159 157 105
162 160 108
158 156 105
162 159 107
161 158 105
159 157 105
165 162 109
164 161 107
160 158 105
162 160 107
161 158 105
167 164 110
160 157 105
169 166 110
161 158 105
166 162 108
163 161 107
168 164 110
169 167 111
165 162 106
170 167 111
170 166 110
165 162 109
170 166 108
174 170 113
169 165 108
172 168 110
174 170 110
172 168 108
173 169 112
172 169 111
173 169 109
176 171 111
169 165 110
177 172 112
171 167 109
173 169 109
175 171 111
176 172 112
174 170 110
175 169 110
174 170 111
174 169 110
169 166 108
172 167 109
176 171 111
172 167 106
174 169 110
173 168 109
173 168 109
173 169 112
172 168 107
172 167 108
169 164 106
171 166 106
170 166 106
171 167 106
174 169 109
170 164 105
172 167 107
171 167 108
173 168 109
168 163 103
172 167 106
169 164 105
172 166 106
170 164 104
169 163 100
167 163 103
165 160 101
171 166 104
171 166 102
163 158 97
167 161 103
166 159 98
167 161 99
165 160 97
168 162 101
164 159 99
162 156 95
170 163 101
162 156 93
166 159 98
160 154 94
165 159 96
157 152 91
161 157 95
161 155 91
157 152 91
156 150 89
152 148 84
154 149 89
154 148 90
144 138 76
153 147 84
147 141 81
150 145 81
144 139 72
140 135 74
137 131 74
140 134 74
132 126 64
138 132 73
137 131 64
135 130 62
133 131 60
157 165 44
163 179 30
172 195 0
174 197 0
174 196 0
173 196 0
176 198 0
174 198 0
174 197 0
171 194 0
174 197 0
173 197 0
173 195 0
173 197 0
172 195 0
174 198 0
174 198 0
174 197 0
172 196 0
171 196 0
175 198 0
173 196 0
172 196 0
172 196 0
173 197 0
172 196 0
171 195 0
173 197 0
172 196 0
175 198 0
172 196 0
172 196 0
174 197 0
172 196 0
173 196 0
174 198 0
173 196 0
174 198 0
174 198 0
175 197 0
174 197 0
172 196 0
173 196 0
173 196 0
172 195 0
171 195 0
173 196 0
175 198 0
174 197 0
172 196 0
173 197 0
173 197 0
172 195 0
173 197 0
173 196 0
171 195 0
173 196 0
173 196 0
173 196 0
173 196 0
175 198 0
172 196 0
173 197 0
173 197 0
172 196 0
174 198 0
174 197 0
171 196 0
174 197 0
175 197 0
169 193 0
174 196 0
171 195 0
173 197 0
174 197 0
173 197 0
171 195 0
172 195 0
173 196 0
173 196 0
172 196 0
174 197 0
171 195 0
173 195 0
170 194 0
172 196 0
175 198 0
171 194 0
173 196 0
174 197 0
173 196 0
173 196 0
173 196 0
174 198 0
172 196 0
173 197 0
173 196 0
173 196 0
170 194 0
173 197 0
175 198 0
174 197 0
172 196 0
168 191 0
174 195 0
173 196 0
172 195 0
171 194 0
172 196 0
174 196 0
172 195 0
170 194 0
173 196 0
171 194 0
172 195 0
171 195 0
171 195 0
172 196 0
171 193 0
170 194 0
174 196 0
176 198 0
172 195 0
172 196 0
168 191 36
161 185 65
131 157 120
93 123 161
68 104 174
63 100 180
63 99 178
62 99 175
61 98 175
62 99 176
62 99 176
62 99 177
62 99 179
61 98 180
61 98 176
62 99 180
62 99 181
62 99 179
62 99 181
61 98 177
63 100 180
62 99 180
62 99 181
62 99 179
62 99 180
62 99 181
62 99 181
62 99 180
62 99 181
62 99 180
62 99 180
62 99 180
61 98 181
61 99 181
61 99 181
62 99 181
62 99 181
61 98 181
62 99 181
61 98 181
62 99 181
61 98 180
62 99 181
61 99 181
61 98 181
62 99 181
62 99 181
62 99 181
61 98 181
61 99 181
61 99 181
62 99 181
62 99 181
62 99 181
61 99 181
62 99 181
61 99 181
61 98 181
61 99 181
62 99 181
61 98 181
62 99 180
61 98 180
61 99 181
61 98 181
62 99 181
62 99 181
62 99 181
61 98 181
61 99 181
62 99 179
62 99 181
61 99 181
61 99 181
62 99 181
62 99 181
61 99 181
61 98 181
61 99 181
62 99 179
62 99 180
62 99 181
61 99 180
62 99 181
62 99 180
62 99 180
61 98 177
62 99 180
62 99 181
61 98 178
62 99 181
62 99 181
61 98 180
62 99 178
61 98 178
62 99 179
62 99 180
62 99 180
62 99 179
62 98 177
62 99 179
61 98 177
62 99 178
61 98 177
61 97 173
60 97 173
61 98 178
61 97 175
61 98 174
63 99 178
62 98 176
62 98 174
61 97 173
63 98 173
96 125 153
129 153 118
151 173 85
165 187 40
173 195 11
161 178 30
149 159 43
135 140 45
132 131 58
145 139 67
137 132 64
117 113 59
140 135 71
139 134 75
144 139 79
143 138 78
131 127 66
141 136 82
137 132 78
140 136 82
132 128 81
142 138 85
133 131 84
136 132 82
136 134 85
143 140 91
134 132 85
141 137 86
135 133 88
140 138 91
129 126 85
143 140 93
129 127 86
136 135 93
142 139 94
142 141 95
135 134 89
136 134 91
135 134 92
145 143 96
143 141 96
141 140 95
148 146 98
142 140 95
152 149 101
140 139 96
152 149 101
138 138 95
153 151 103
149 148 100
147 145 99
157 154 102
160 157 106
150 148 100
158 156 105
147 146 98
150 148 100
166 163 109
152 150 102
159 156 105
163 159 105
160 158 105
155 153 103
161 158 106
162 159 106
155 153 102
161 159 106
160 157 106
159 157 104
162 160 108
166 163 105
167 164 109
164 162 108
167 163 108
171 167 110
170 166 110
172 168 111
171 167 110
168 164 106
169 165 109
171 168 109
171 166 108
172 168 110
172 169 111
174 169 109
171 167 109
171 167 109
173 169 108
174 170 110
175 170 112
174 170 110
172 167 108
172 168 109
173 170 110
177 172 113
174 170 108
175 171 110
175 170 109
173 168 106
172 168 109
168 165 108
173 169 110
171 168 109
171 168 108
173 168 108
172 167 107
172 168 109
166 163 102
171 167 108
170 165 103
171 167 107
172 168 109
174 169 109
167 163 103
168 162 101
171 167 108
171 166 102
170 164 105
163 159 103
173 168 106
172 167 107
170 165 106
170 165 106
168 163 100
167 163 101
163 158 99
169 164 101
165 160 99
170 165 103
172 166 103
170 165 103
174 168 104
165 160 101
161 156 94
163 157 98
167 162 100
159 153 93
164 159 96
170 164 100
164 159 100
160 156 93
157 150 87
162 157 93
160 154 91
158 152 93
154 148 89
163 156 92
164 157 95
153 147 86
148 143 81
147 142 81
152 147 84
147 142 78
152 146 80
143 137 78
144 138 79
140 134 73
153 148 81
144 138 72
146 140 72
128 123 63
134 131 67
148 152 58
163 180 36
172 194 0
174 196 0
174 196 0
174 198 0
171 195 0
173 197 0
175 198 0
175 198 0
172 196 0
174 197 0
175 198 0
173 196 0
174 197 0
174 198 0
173 197 0
175 198 0
172 196 0
173 197 0
175 198 0
172 196 0
174 197 0
175 198 0
173 196 0
173 196 0
173 197 0
173 197 0
174 198 0
174 198 0
173 197 0
174 197 0
172 195 0
172 196 0
173 196 0
174 196 0
177 199 0
174 198 0
175 198 0
173 196 0
174 198 0
172 195 0
173 195 0
175 197 0
172 196 0
173 196 0
174 198 0
173 196 0
172 195 0
175 198 0
176 198 0
174 198 0
173 197 0
173 196 0
173 197 0
174 198 0
170 194 0
172 196 0
174 197 0
174 197 0
173 197 0
172 196 0
174 197 0
172 197 0
173 197 0
171 195 0
175 198 0
174 198 0
172 196 0
170 194 0
172 195 0
171 194 0
173 196 0
175 197 0
172 196 0
172 195 0
173 196 0
174 196 0
173 196 0
172 195 0
173 197 0
174 197 0
172 195 0
172 196 0
171 195 0
173 196 0
174 197 0
170 194 0
171 196 0
172 196 0
173 197 0
173 196 0
173 196 0
172 195 0
173 196 0
173 197 0
174 198 0
171 194 0
170 194 0
172 196 0
173 196 0
173 197 0
175 198 0
173 196 0
172 196 0
172 195 0
175 198 0
174 197 0
172 196 0
173 196 0
172 195 0
174 197 0
172 195 0
172 195 0
170 194 0
171 195 0
170 194 0
171 194 0
172 196 0
171 195 0
169 192 0
171 194 0
173 195 0
172 195 0
151 174 76
134 159 118
86 117 161
62 99 174
62 99 179
62 99 177
62 99 178
62 99 181
61 98 175
62 99 179
62 99 181
62 99 181
62 99 176
62 99 178
62 99 181
62 99 180
62 99 181
62 99 181
62 99 177
61 98 179
62 99 179
62 99 181
61 98 176
61 99 181
61 98 179
61 99 181
62 99 179
62 99 181
62 99 179
61 99 181
62 99 180
61 99 181
61 99 181
62 99 181
62 99 181
61 99 181
62 99 181
61 98 181
62 99 181
61 98 180
61 99 181
62 99 181
62 99 181
61 99 181
61 98 181
61 99 181
61 99 181
61 98 181
62 99 181
61 99 181
61 98 181
62 99 181
62 99 181
62 99 181
61 99 181
62 99 181
62 99 181
62 99 181
62 99 181
62 99 181
61 98 181
61 99 181
61 98 181
61 98 181
61 99 181
62 99 181
62 99 181
61 98 180
61 99 181
62 99 181
61 99 181
62 99 181
62 99 181
62 99 181
61 98 181
61 99 181
62 99 181
61 98 181
62 99 181
62 99 181
61 98 180
61 99 181
61 98 181
62 99 180
62 99 180
62 99 179
61 98 179
61 98 179
61 98 181
61 98 179
62 99 179
62 99 178
61 98 178
62 98 179
62 99 178
62 99 179
62 99 180
62 99 179
62 99 180
61 98 177
62 99 179
61 97 176
61 98 176
61 98 178
62 99 176
62 99 177
62 99 179
62 98 176
62 98 176
61 97 174
62 99 176
61 97 173
62 99 178
61 96 170
64 99 171
81 112 164
107 134 144
146 169 91
160 183 65
156 173 30
146 155 40
133 134 54
140 136 67
131 125 64
115 112 52
131 127 69
125 122 67
129 126 71
142 138 78
142 137 79
133 128 76
124 121 67
142 138 86
142 138 84
122 119 72
129 127 78
133 130 81
128 125 79
131 129 81
126 125 84
135 132 88
133 131 81
139 138 89
137 135 89
133 131 85
137 135 88
142 139 93
138 137 92
145 142 95
133 132 91
128 128 88
143 141 97
136 135 93
144 142 95
141 140 96
136 135 92
134 133 91
141 141 96
147 145 100
149 147 98
141 140 95
146 145 98
156 153 104
140 140 96
149 147 100
159 156 104
152 150 101
152 150 102
162 159 108
155 152 104
157 155 105
161 159 108
160 157 104
154 151 102
158 155 104
156 153 102
161 159 106
161 159 106
162 159 105
164 161 108
164 160 106
160 157 105
168 164 107
167 163 108
163 160 106
163 161 107
163 160 106
170 166 110
172 168 110
170 166 108
171 167 110
170 167 111
173 169 110
172 168 110
169 165 108
169 166 110
169 165 108
169 164 106
174 169 112
173 169 110
168 165 107
171 167 108
172 169 110
175 171 110
171 167 108
173 168 107
173 169 110
176 171 110
174 170 111
172 168 110
173 168 109
171 168 110
173 169 108
172 168 108
170 166 106
173 168 109
175 170 109
173 169 110
177 171 108
172 168 109
173 168 104
170 166 106
172 168 108
174 170 108
172 167 106
171 166 107
167 162 104
171 166 106
166 162 105
170 166 106
171 166 106
169 164 101
173 168 105
171 165 107
170 165 104
169 164 103
167 161 101
168 163 102
167 162 103
162 158 97
167 162 103
166 161 101
172 167 105
168 164 104
171 166 104
169 164 103
167 161 99
162 156 95
162 157 93
160 155 95
164 157 97
166 160 93
166 160 97
169 163 99
155 150 88
162 156 97
162 156 93
160 155 88
149 145 87
153 149 84
164 157 93
160 155 91
160 153 89
154 148 87
154 148 88
157 151 87
151 144 83
151 145 83
144 137 78
148 141 83
146 140 80
146 140 79
149 143 79
137 132 68
135 130 69
132 127 61
132 134 53
157 170 45
171 194 11
173 196 0
171 194 0
171 194 0
173 197 0
174 197 0
173 195 0
175 198 0
172 197 0
172 196 0
174 196 0
173 197 0
172 195 0
172 196 0
174 197 0
174 197 0
172 195 0
175 198 0
172 195 0
174 197 0
171 195 0
174 197 0
173 196 0
172 196 0
173 197 0
174 197 0
173 196 0
172 196 0
171 195 0
169 193 0
173 196 0
175 198 0
173 197 0
174 198 0
172 195 0
174 198 0
172 195 0
173 196 0
174 198 0
172 196 0
173 197 0
173 197 0
173 197 0
172 195 0
172 195 0
172 196 0
172 196 0
175 198 0
173 196 0
171 195 0
172 195 0
170 195 0
173 195 0
171 195 0
175 198 0
173 197 0
170 194 0
170 194 0
173 197 0
173 196 0
174 198 0
173 196 0
174 198 0
171 195 0
173 196 0
171 196 0
170 194 0
175 198 0
173 196 0
172 196 0
174 196 0
174 198 0
175 198 0
173 196 0
174 198 0
174 197 0
172 196 0
172 195 0
171 195 0
173 197 0
174 197 0
171 195 0
174 196 0
172 195 0
173 196 0
173 196 0
172 195 0
170 194 0
171 195 0
173 196 0
174 197 0
171 194 0
174 197 0
174 197 0
173 196 0
175 198 0
173 196 0
172 194 0
171 194 0
172 195 0
173 197 0
171 195 0
172 196 0
170 194 0
173 197 0
171 194 0
174 196 0
173 196 0
173 196 0
171 194 0
173 197 0
172 195 0
175 197 0
172 195 0
171 194 0
172 194 0
172 196 0
173 196 0
170 194 0
172 195 0
172 195 18
151 175 84
128 153 131
76 109 168
62 98 172
62 99 176
62 99 177
63 100 179
62 99 177
62 98 174
62 99 176
62 99 177
61 99 178
62 99 179
62 99 178
62 99 180
62 99 180
62 99 179
62 99 179
62 99 177
61 98 179
62 99 181
62 99 179
61 99 179
62 99 180
61 99 179
62 99 180
62 99 181
62 99 180
62 99 180
62 99 181
61 98 181
62 99 181
61 98 180
62 99 181
61 99 180
61 99 180
62 99 181
62 99 181
62 99 181
62 99 181
61 99 181
62 99 181
62 99 181
61 98 181
61 99 180
62 99 180
62 99 181
62 99 181
61 99 181
61 99 181
61 98 181
62 99 181
62 99 181
62 99 181
61 99 181
61 99 181
62 99 181
61 99 181
61 99 181
61 99 181
62 99 181
62 99 181
62 99 180
62 99 181
62 99 181
61 99 181
61 99 180
61 98 181
62 99 181
61 99 181
61 99 181
62 99 181
62 99 181
62 99 180
62 99 180
62 99 180
62 99 181
61 99 181
61 98 180
62 99 181
61 99 180
62 99 180
62 99 181
61 98 181
61 99 180
62 99 181
61 99 180
62 99 181
62 99 180
62 99 179
62 99 178
62 99 180
61 99 180
62 99 180
61 98 180
62 98 178
62 99 179
62 98 177
62 99 180
62 99 179
61 99 179
61 98 177
62 99 180
61 98 175
62 99 177
61 98 180
61 98 180
62 99 176
62 99 177
62 98 176
61 97 174
62 98 173
61 98 175
61 96 166
61 97 173
61 96 170
62 98 176
73 106 168
111 138 139
143 167 103
146 165 71
145 153 49
129 130 47
127 123 66
118 113 61
132 127 73
128 124 70
140 134 71
137 133 74
123 120 71
133 129 72
121 118 70
138 134 78
131 128 75
126 124 75
141 137 83
131 129 82
139 136 84
136 132 80
134 132 88
128 126 81
128 127 84
145 141 87
136 133 85
138 135 86
136 134 90
133 132 89
135 134 91
121 121 81
141 139 94
128 126 87
137 136 92
144 141 94
147 145 97
136 135 93
152 150 101
134 134 92
141 140 95
146 143 97
145 143 96
144 143 98
152 149 100
146 144 97
156 154 104
147 146 100
155 152 101
155 153 103
145 144 98
152 150 100
155 152 101
154 152 103
156 153 103
151 149 101
154 152 101
155 153 104
155 153 104
154 152 102
158 156 105
158 155 104
160 158 106
153 151 101
160 158 105
162 159 105
163 161 108
157 155 104
160 157 105
164 161 107
168 165 110
164 161 106
165 163 109
165 162 108
168 164 107
170 166 108
173 169 110
171 167 109
171 167 108
174 169 111
173 168 110
172 169 110
174 170 110
175 170 111
170 167 107
171 168 107
172 168 110
171 167 108
174 170 111
171 167 108
173 169 111
173 169 109
173 168 109
174 170 110
176 172 113
172 167 106
175 170 108
174 169 108
176 172 111
175 170 110
169 164 107
172 168 110
175 170 110
172 168 110
172 167 108
171 167 107
171 167 105
167 164 104
171 167 108
172 168 108
174 170 108
174 169 108
176 170 109
169 164 104
170 165 104
165 160 98
166 162 101
169 164 103
168 164 102
170 165 103
168 164 104
168 162 99
170 165 103
167 161 99
166 162 99
169 164 103
164 158 98
167 160 97
168 162 100
164 159 99
166 161 101
165 160 98
160 156 97
158 153 92
159 154 95
161 156 94
162 157 97
166 160 97
172 166 101
158 153 95
156 151 88
151 145 82
152 147 85
159 153 92
159 153 91
155 149 84
161 154 90
152 146 82
154 148 87
151 146 77
156 150 85
155 149 83
145 139 80
150 143 82
146 140 75
141 136 71
139 133 76
145 139 76
138 133 71
138 133 62
131 130 58
157 170 37
172 193 16
171 195 0
173 196 0
170 192 0
172 195 0
172 195 0
175 196 0
173 197 0
173 197 0
174 197 0
175 198 0
172 196 0
175 198 0
175 198 0
174 197 0
174 197 0
174 198 0
173 196 0
174 197 0
173 196 0
173 197 0
175 198 0
174 197 0
173 196 0
173 197 0
174 198 0
172 195 0
171 194 0
172 195 0
174 196 0
176 198 0
172 195 0
173 197 0
172 195 0
171 195 0
175 198 0
174 196 0
174 197 0
171 195 0
174 197 0
174 196 0
173 197 0
174 197 0
175 197 0
172 196 0
171 195 0
173 197 0
173 196 0
175 198 0
173 196 0
171 195 0
172 195 0
176 198 0
174 197 0
172 196 0
173 196 0
172 196 0
171 195 0
173 196 0
171 195 0
174 197 0
172 196 0
172 196 0
173 197 0
173 196 0
170 194 0
172 195 0
172 197 0
170 193 0
174 198 0
171 195 0
172 196 0
174 197 0
174 197 0
174 196 0
173 197 0
173 197 0
172 196 0
173 196 0
172 195 0
169 192 0
171 194 0
174 196 0
172 195 0
173 196 0
171 195 0
171 194 0
172 195 0
173 196 0
174 197 0
172 194 0
173 197 0
172 196 0
174 198 0
171 194 0
172 195 0
172 195 0
173 197 0
172 196 0
174 197 0
172 196 0
174 197 0
172 197 0
172 195 0
174 196 0
171 195 0
174 197 0
173 197 0
171 194 0
170 193 0
169 193 0
173 197 0
171 194 0
173 197 0
170 194 0
173 196 0
172 195 0
173 197 0
170 193 0
173 196 18
154 179 78
119 146 134
69 104 172
62 99 175
62 99 180
62 99 177
62 99 178
62 99 176
62 99 177
62 99 178
62 99 179
62 99 176
62 99 178
61 98 176
62 99 177
62 99 177
62 99 178
61 99 178
62 99 181
61 98 179
62 99 180
62 99 181
62 99 179
62 99 180
61 99 180
61 99 181
62 99 181
62 99 180
61 99 179
61 99 180
61 99 181
61 98 180
62 99 178
61 99 181
62 99 180
62 99 180
61 99 180
62 99 180
62 99 181
61 99 181
61 99 181
62 99 181
62 99 181
61 99 181
61 98 181
61 98 181
62 99 181
62 99 181
62 99 181
61 98 181
62 99 181
62 99 181
62 99 181
62 99 181
61 99 181
61 99 181
61 98 181
62 99 181
62 99 181
62 99 181
62 99 181
61 99 181
62 99 181
62 99 181
62 99 181
61 99 180
61 99 181
62 99 181
61 99 181
62 99 181
62 99 181
61 99 181
61 99 180
62 99 180
62 99 180
62 99 181
62 99 181
62 99 180
62 99 180
62 99 181
61 99 181
62 99 180
61 99 180
61 99 181
62 99 181
61 98 181
62 99 181
61 99 181
62 99 180
62 99 180
62 99 178
62 99 179
62 99 180
62 99 181
62 99 178
62 99 180
62 99 180
61 98 178
62 98 178
61 98 180
62 99 180
62 99 179
62 99 179
61 97 174
62 99 180
61 98 179
61 97 173
62 98 177
62 99 179
61 97 174
61 97 172
61 98 176
61 97 173
62 98 177
61 98 172
62 98 176
61 97 174
61 97 171
60 95 167
70 102 162
102 129 146
127 149 110
135 141 69
118 118 51
134 129 64
129 124 64
130 125 66
123 120 57
115 112 62
129 125 70
134 129 76
145 140 81
131 126 75
139 136 83
135 131 76
132 128 77
133 130 79
130 128 84
131 128 80
126 124 77
126 125 82
128 127 86
134 132 88
124 124 86
131 129 87
131 129 86
120 119 82
123 124 85
138 137 92
133 131 90
132 130 86
134 134 90
133 132 88
144 142 94
142 140 94
144 143 96
141 140 95
146 144 97
135 135 94
134 134 92
146 143 96
145 144 98
144 143 97
149 147 100
139 138 94
147 145 98
152 150 101
152 151 102
147 145 99
148 147 99
151 149 100
153 151 102
159 156 103
150 147 100
159 157 105
155 153 103
156 155 104
162 159 106
160 158 106
150 148 100
162 159 107
160 158 105
168 164 107
161 158 105
164 161 107
165 162 107
168 165 110
167 162 105
170 167 109
170 166 108
164 162 107
171 167 108
170 165 108
167 163 107
170 167 110
169 166 106
172 167 111
168 165 107
171 167 107
169 166 108
172 168 109
173 169 109
173 168 105
172 168 107
177 172 111
170 166 108
176 170 108
172 168 110
174 170 110
175 171 111
174 169 110
171 167 109
174 170 110
175 170 108
176 171 109
174 170 108
176 171 110
173 168 108
174 168 108
176 172 111
172 168 104
173 168 109
175 170 109
173 168 107
173 167 108
173 168 106
174 169 109
168 164 104
177 171 110
172 167 105
173 169 107
172 168 106
170 164 103
169 164 104
175 169 109
168 163 103
171 166 107
170 165 102
167 162 101
166 160 98
170 165 99
169 164 103
168 163 101
171 165 102
172 167 104
171 166 104
166 161 103
166 161 97
164 159 98
167 161 100
168 162 98
164 159 98
167 161 97
160 155 92
164 159 95
164 158 98
165 158 98
162 155 94
161 154 90
149 145 82
164 158 94
156 150 87
155 147 90
156 151 87
153 148 86
155 150 87
156 150 87
152 147 80
154 148 87
145 139 80
148 142 75
148 142 78
141 136 76
151 146 80
141 136 73
141 136 75
136 131 65
148 141 75
140 139 64
151 161 41
171 194 11
174 197 0
174 196 0
173 196 0
174 197 0
174 198 0
173 196 0
172 196 0
172 196 0
173 196 0
174 198 0
173 197 0
174 198 0
171 195 0
172 196 0
174 197 0
172 196 0
173 197 0
174 198 0
174 197 0
172 195 0
174 197 0
174 197 0
173 196 0
172 196 0
174 198 0
173 196 0
171 195 0
173 196 0
174 197 0
175 198 0
174 198 0
174 197 0
174 198 0
175 198 0
172 195 0
172 195 0
171 195 0
173 197 0
170 194 0
172 196 0
174 197 0
173 197 0
173 196 0
174 197 0
174 197 0
172 195 0
171 194 0
174 197 0
174 197 0
171 195 0
174 197 0
173 196 0
172 195 0
173 196 0
176 198 0
173 197 0
174 197 0
173 196 0
171 194 0
172 195 0
172 196 0
174 198 0
173 196 0
171 194 0
174 197 0
172 195 0
171 195 0
174 197 0
172 195 0
173 197 0
173 196 0
174 197 0
171 195 0
173 197 0
171 194 0
173 196 0
173 196 0
171 194 0
173 197 0
174 197 0
171 195 0
173 196 0
171 195 0
171 195 0
171 195 0
171 195 0
170 194 0
171 195 0
171 194 0
171 194 0
171 194 0
173 196 0
174 198 0
173 197 0
173 197 0
174 197 0
170 193 0
172 196 0
170 193 0
172 195 0
172 196 0
175 198 0
174 197 0
174 197 0
173 197 0
172 195 0
172 195 0
170 194 0
171 194 0
175 197 0
170 194 0
175 198 0
172 195 0
172 195 0
170 192 0
171 195 0
173 195 0
172 195 18
148 173 92
113 140 142
77 110 167
62 99 173
62 99 174
62 99 178
62 99 176
63 99 178
62 99 178
63 99 179
62 99 180
62 99 177
62 99 176
62 99 180
62 99 179
61 99 179
62 99 178
61 99 178
62 99 181
62 99 180
62 99 179
62 99 181
62 99 181
62 99 181
62 99 180
61 99 179
62 99 179
62 99 179
62 99 181
61 99 180
62 99 180
61 99 181
62 99 181
62 99 181
61 99 181
62 99 181
61 98 181
62 99 181
61 98 180
62 99 181
62 99 179
61 99 181
61 99 180
62 99 181
62 99 181
62 99 181
61 99 181
61 98 180
62 99 181
61 98 181
62 99 181
62 99 181
62 99 181
61 99 181
62 99 181
62 99 181
61 98 181
61 99 181
62 99 181
62 99 181
62 99 181
62 99 181
62 99 181
61 99 180
61 99 180
62 99 181
62 99 181
62 99 180
62 99 181
62 99 181
61 99 181
62 99 181
62 99 181
62 99 181
61 98 180
62 99 181
62 99 181
61 98 181
61 99 181
61 99 181
62 99 181
62 99 180
61 98 180
61 98 179
61 99 179
61 99 181
62 99 181
62 99 180
61 99 181
62 99 181
62 99 180
61 99 180
61 98 176
62 99 180
62 99 180
62 99 180
61 98 180
62 99 177
62 99 178
62 99 180
62 99 178
62 99 180
61 98 179
62 99 178
62 99 178
63 99 178
62 99 177
62 99 175
62 99 178
61 98 178
62 98 176
62 99 178
61 98 176
62 98 178
62 99 178
61 98 174
61 97 173
61 97 175
61 96 170
62 98 175
62 98 174
62 97 169
95 121 146
124 139 111
119 120 83
140 135 74
133 128 71
133 128 70
133 129 72
131 128 68
138 134 80
128 124 71
140 136 81
132 129 72
115 113 69
121 119 75
127 125 80
130 128 81
133 129 81
121 122 77
134 132 84
130 127 84
135 133 88
121 121 79
125 125 85
125 125 83
132 131 88
128 127 86
122 122 84
126 127 89
121 120 82
122 123 86
137 136 91
141 139 94
129 130 91
139 138 92
130 131 93
133 133 91
130 131 92
140 138 95
145 144 98
146 144 97
150 147 99
145 145 100
146 144 99
148 146 100
145 143 98
148 146 98
149 147 98
148 147 100
145 145 99
149 147 99
150 149 100
160 157 106
157 155 105
153 151 102
151 150 102
164 161 107
165 162 107
157 155 105
163 159 107
153 151 102
163 160 106
160 158 106
166 163 108
159 157 101
166 163 107
168 165 109
165 162 107
161 159 106
171 167 109
167 164 107
169 165 107
164 161 106
167 164 108
172 167 108
167 165 109
173 169 110
171 166 107
168 165 109
172 168 110
172 168 111
177 172 109
171 167 108
172 168 110
170 166 108
176 171 113
173 168 108
169 166 104
172 168 110
176 170 108
173 169 108
174 169 108
177 172 111
174 169 111
174 169 108
178 172 112
178 172 110
179 173 113
177 172 109
172 168 109
174 169 108
175 170 108
172 168 109
175 170 107
175 169 109
171 166 103
172 167 108
173 168 103
174 169 105
170 166 103
172 167 103
174 169 109
169 163 101
170 165 103
170 164 103
176 171 108
166 162 101
172 165 104
170 165 103
167 162 103
169 164 102
163 159 98
168 162 102
164 159 98
173 167 106
167 161 99
167 161 101
170 164 100
165 159 93
162 156 93
169 164 97
161 156 96
165 159 96
159 154 88
160 155 91
159 154 93
164 157 92
158 152 91
155 149 90
151 145 86
150 145 81
162 155 94
166 160 92
149 144 87
162 157 91
163 156 87
145 139 78
146 141 75
150 144 80
158 152 84
147 141 78
144 138 77
153 147 87
143 136 76
145 139 76
136 131 68
135 130 69
134 128 69
133 128 59
144 154 39
164 184 0
174 197 0
171 194 0
173 195 0
174 197 0
174 198 0
173 196 0
175 198 0
173 197 0
174 198 0
173 197 0
174 197 0
173 197 0
172 195 0
175 198 0
171 194 0
172 195 0
172 196 0
175 198 0
172 195 0
173 197 0
172 195 0
172 196 0
170 193 0
174 197 0
173 197 0
173 197 0
172 196 0
173 196 0
174 198 0
174 197 0
174 197 0
174 197 0
173 197 0
173 195 0
173 197 0
172 195 0
174 197 0
172 196 0
172 196 0
171 195 0
172 196 0
173 196 0
174 197 0
172 196 0
174 197 0
175 198 0
173 195 0
171 195 0
173 196 0
173 196 0
174 197 0
175 198 0
172 196 0
173 196 0
173 196 0
173 196 0
173 196 0
173 196 0
171 194 0
171 194 0
171 194 0
170 195 0
170 195 0
170 193 0
172 196 0
172 195 0
171 196 0
171 194 0
173 196 0
173 197 0
172 196 0
172 196 0
172 195 0
173 196 0
173 197 0
171 194 0
173 196 0
174 197 0
170 194 0
173 196 0
172 195 0
173 196 0
171 195 0
172 196 0
169 193 0
172 196 0
172 195 0
174 197 0
171 195 0
172 196 0
171 194 0
173 196 0
172 195 0
174 198 0
174 196 0
173 195 0
173 197 0
171 194 0
174 197 0
173 196 0
172 195 0
175 198 0
172 195 0
173 196 0
173 196 0
167 189 0
173 195 0
170 194 0
171 194 0
171 194 0
173 196 0
172 196 0
172 196 0
174 198 0
173 196 0
172 195 0
171 194 36
145 169 95
103 131 149
66 102 173
63 99 178
62 99 175
62 99 177
63 99 177
61 98 177
62 99 174
63 99 178
62 99 180
62 99 177
62 99 178
61 98 177
62 99 178
61 99 180
61 99 180
62 99 179
62 99 181
62 99 181
62 99 180
63 99 179
62 99 180
62 99 179
62 99 180
62 99 180
62 99 179
62 99 180
62 99 181
62 99 180
62 99 180
62 99 180
61 98 178
62 99 179
61 99 178
61 99 181
62 99 180
61 99 181
62 99 181
61 98 181
61 98 179
62 99 181
62 99 181
62 99 181
62 99 181
62 99 181
62 99 181
62 99 181
61 99 180
61 98 180
62 99 181
61 98 181
62 99 181
61 99 180
62 99 181
62 99 181
61 99 181
62 99 181
62 99 181
62 99 181
62 99 181
62 99 181
61 99 181
61 99 181
62 99 181
62 99 181
62 99 181
62 99 181
62 99 181
62 99 181
62 99 181
61 99 180
62 99 181
61 98 181
62 99 180
62 99 180
62 99 181
62 99 181
62 99 181
61 98 181
61 99 180
62 99 181
61 98 180
61 99 181
61 99 181
62 99 181
62 99 181
62 99 180
62 99 179
61 98 178
62 99 180
62 99 181
62 99 180
62 99 179
61 98 179
62 99 180
62 99 179
62 99 179
62 99 177
62 99 176
62 99 177
62 99 176
62 99 179
61 98 179
62 99 179
62 98 173
62 98 177
61 98 176
62 99 181
62 99 177
62 99 178
62 99 179
61 98 176
62 99 176
61 98 176
62 99 178
62 98 173
62 98 176
61 97 174
62 98 170
61 97 171
59 94 167
61 97 174
63 97 169
84 109 141
96 110 132
122 123 96
112 109 66
141 135 74
129 125 73
140 135 76
129 125 74
132 129 77
133 130 78
124 123 75
136 131 81
124 122 69
129 127 80
130 127 77
124 121 76
128 127 84
127 125 82
121 120 78
119 119 79
122 120 78
114 114 77
136 134 88
136 135 91
121 120 80
131 129 85
115 115 79
126 127 89
134 132 89
126 127 88
140 139 96
135 134 92
129 129 89
133 132 91
138 137 92
143 141 96
132 131 91
142 141 94
139 138 95
136 134 92
144 143 98
149 146 97
141 141 99
142 141 96
146 144 98
149 147 101
150 150 102
148 147 100
154 151 100
154 152 101
150 148 100
149 148 98
150 149 100
151 150 101
162 159 108
163 160 107
158 156 105
161 158 106
156 154 101
166 162 106
161 158 106
163 160 107
166 163 108
163 160 105
160 158 105
166 162 108
170 166 105
169 165 107
166 163 106
168 164 108
166 163 108
164 161 105
172 167 108
171 167 110
174 169 108
170 166 108
171 167 108
171 167 108
169 165 109
172 167 109
170 166 107
174 170 111
175 170 109
176 171 109
172 168 108
176 171 110
177 171 110
174 170 110
173 169 109
175 170 109
175 170 107
175 170 110
176 171 108
175 170 108
173 169 108
173 169 108
170 166 104
174 170 109
177 171 110
175 170 108
174 168 106
178 172 109
173 168 107
175 171 110
175 168 108
175 170 110
174 169 108
174 169 107
173 168 105
173 167 104
173 168 106
173 168 109
174 168 107
171 166 106
172 167 104
171 166 104
170 165 103
166 162 103
174 169 106
163 158 97
168 163 100
165 159 98
168 162 102
167 162 99
169 164 103
165 161 103
160 155 97
166 161 99
161 156 95
169 163 95
165 159 94
167 161 100
163 157 93
165 158 97
161 155 94
161 155 95
155 149 89
159 154 91
166 160 94
156 151 89
163 156 89
152 147 87
154 149 85
151 145 80
156 150 90
151 146 81
155 149 87
156 150 84
151 144 80
151 145 80
152 146 81
138 132 70
131 126 68
138 133 71
138 132 70
127 122 61
131 127 58
147 151 57
166 184 30
173 196 0
170 193 0
171 193 0
172 195 0
171 195 0
172 196 0
174 197 0
174 198 0
174 197 0
174 198 0
172 195 0
174 198 0
172 196 0
175 198 0
173 196 0
173 196 0
172 196 0
173 197 0
171 195 0
174 197 0
173 197 0
172 195 0
173 197 0
172 196 0
171 195 0
175 197 0
174 197 0
173 196 0
173 196 0
171 194 0
174 197 0
172 195 0
173 197 0
173 196 0
175 198 0
172 195 0
173 197 0
172 196 0
172 196 0
174 197 0
174 197 0
172 195 0
171 195 0
175 198 0
171 195 0
173 196 0
173 196 0
174 197 0
173 196 0
173 196 0
174 197 0
172 196 0
171 195 0
173 196 0
174 197 0
174 196 0
172 196 0
175 197 0
171 194 0
174 197 0
174 197 0
172 196 0
173 196 0
173 197 0
171 194 0
174 197 0
171 193 0
172 196 0
174 198 0
171 194 0
172 196 0
174 197 0
173 197 0
172 196 0
172 195 0
173 196 0
173 196 0
173 197 0
172 196 0
173 196 0
174 198 0
173 197 0
172 195 0
171 194 0
169 192 0
172 196 0
173 196 0
174 197 0
170 193 0
172 195 0
172 195 0
174 197 0
170 194 0
173 196 0
174 197 0
173 196 0
170 193 0
172 196 0
170 193 0
171 195 0
173 196 0
172 196 0
171 194 0
172 195 0
172 195 0
173 197 0
173 196 0
173 196 0
172 196 0
171 194 0
171 195 0
174 197 0
172 195 0
171 194 0
172 195 0
166 189 44
149 173 92
105 133 148
64 100 169
62 99 173
62 99 175
62 99 176
62 99 175
62 99 179
62 99 176
62 99 175
62 99 180
63 99 175
63 100 177
62 99 180
62 99 180
62 99 180
62 99 178
61 98 173
62 99 179
62 99 180
62 99 181
62 99 179
62 99 179
62 99 180
62 99 179
62 99 181
61 99 179
62 99 180
62 99 179
62 99 179
61 99 181
61 98 181
62 99 180
62 99 180
61 99 180
61 99 180
62 99 181
62 99 180
62 99 180
62 99 181
61 99 181
62 99 181
62 99 180
62 99 181
62 99 181
62 99 181
61 99 181
61 99 180
62 99 181
62 99 181
62 99 181
62 99 181
62 99 181
62 99 181
62 99 181
62 99 180
62 99 180
61 99 181
61 99 181
61 99 181
61 99 181
61 99 181
62 99 180
62 99 181
62 99 181
62 99 179
62 99 181
62 99 181
61 99 180
61 98 180
62 99 181
62 99 181
62 99 181
61 98 180
61 99 181
62 99 181
62 99 180
62 99 181
62 99 180
62 99 180
62 99 181
62 99 181
62 99 181
62 99 181
62 99 181
62 99 181
62 99 181
62 99 178
62 99 180
62 99 180
61 99 179
62 99 180
62 99 179
61 99 180
61 99 181
61 99 179
62 99 179
62 99 179
62 99 180
62 99 181
62 99 179
61 98 179
62 99 178
62 99 178
62 99 178
62 99 177
62 98 179
62 98 175
62 98 177
62 99 180
62 99 178
62 99 175
62 99 173
61 97 174
62 99 177
61 98 177
61 98 174
62 98 177
61 98 174
61 97 174
61 96 167
61 98 176
61 97 170
61 97 173
62 97 173
60 95 167
74 98 152
109 117 119
121 120 82
119 115 64
133 129 73
125 122 68
122 120 74
135 131 76
138 134 78
129 127 72
140 136 85
132 129 80
114 113 67
127 124 78
120 120 76
131 129 78
132 129 87
129 126 80
137 134 87
137 135 88
133 130 86
128 128 86
121 121 84
138 136 90
135 133 89
126 125 84
138 136 90
131 130 90
134 133 91
123 125 88
133 133 91
136 136 92
129 129 90
140 139 94
128 127 87
137 136 93
139 138 95
141 140 97
131 132 92
140 139 97
141 140 96
147 145 97
133 134 92
147 145 99
151 150 100
150 148 101
146 145 98
152 150 101
152 150 101
151 150 103
152 150 102
153 151 102
153 152 101
159 156 106
152 150 99
152 151 102
155 153 101
155 152 101
155 153 103
157 154 103
157 155 104
161 158 101
162 158 104
167 163 107
170 165 109
164 161 105
165 161 105
163 160 107
169 165 108
166 162 107
170 167 108
169 165 107
171 167 108
169 165 108
170 167 110
169 166 107
173 168 108
170 166 108
171 167 105
173 168 109
174 169 108
175 171 110
173 169 109
173 169 108
176 171 109
176 170 108
172 167 104
171 167 107
176 171 110
174 168 107
174 169 108
176 170 108
174 168 103
173 168 107
174 170 110
174 169 107
172 167 104
175 170 109
173 168 107
175 170 108
174 169 105
173 168 106
170 166 103
175 170 108
173 168 106
173 168 109
175 170 108
173 168 109
169 165 103
173 166 103
173 168 103
174 168 108
173 168 105
173 166 105
171 166 104
170 164 102
172 167 107
163 159 100
170 165 102
171 165 103
170 163 101
166 160 97
164 158 97
170 164 101
166 161 100
166 161 98
166 160 97
171 164 100
168 162 98
163 157 94
166 161 99
164 158 91
157 152 86
165 158 92
161 156 94
161 156 87
162 156 93
159 153 87
163 158 93
156 149 88
153 147 85
160 153 88
162 155 90
156 151 83
149 143 79
143 138 77
159 153 87
151 145 80
148 142 77
143 138 72
156 149 81
153 147 80
145 139 74
130 126 63
114 108 57
147 140 76
128 131 51
157 173 22
174 196 0
173 196 0
173 196 0
173 196 0
173 196 0
175 196 0
174 197 0
172 196 0
175 198 0
175 198 0
173 196 0
174 197 0
170 193 0
172 196 0
174 198 0
172 196 0
173 196 0
171 195 0
174 197 0
173 196 0
172 196 0
170 194 0
170 194 0
172 196 0
174 197 0
173 196 0
175 197 0
173 197 0
173 197 0
173 196 0
171 194 0
172 195 0
175 198 0
172 195 0
172 196 0
173 197 0
172 195 0
172 194 0
173 196 0
172 196 0
171 194 0
174 197 0
172 196 0
174 198 0
174 197 0
172 196 0
170 193 0
171 194 0
175 198 0
172 196 0
173 196 0
173 197 0
172 195 0
174 197 0
171 195 0
173 196 0
173 197 0
173 196 0
171 195 0
175 198 0
171 195 0
172 195 0
175 198 0
174 197 0
174 197 0
173 197 0
172 195 0
171 195 0
175 198 0
172 195 0
173 196 0
173 197 0
167 190 0
173 197 0
173 197 0
172 196 0
172 196 0
171 194 0
171 195 0
173 196 0
174 198 0
174 197 0
172 195 0
171 194 0
171 194 0
170 194 0
174 197 0
170 194 0
174 197 0
172 195 0
171 195 0
173 196 0
175 198 0
172 196 0
174 196 0
174 198 0
172 196 0
172 195 0
175 197 0
174 196 0
170 193 0
171 194 0
170 194 0
171 195 0
171 195 0
169 192 0
174 197 0
172 196 0
169 191 0
173 196 0
173 196 0
170 193 0
174 197 0
172 196 0
168 192 40
147 171 88
94 124 158
68 103 171
62 99 172
63 99 176
62 99 177
62 99 177
62 99 173
63 99 177
62 99 175
62 99 177
63 99 175
61 98 179
62 99 179
62 99 179
61 99 177
62 99 177
62 99 180
62 99 177
62 99 179
62 99 179
62 99 181
62 99 179
62 99 180
62 99 180
61 99 178
62 99 180
62 99 180
62 99 180
61 99 181
62 99 181
62 99 181
62 99 181
62 99 179
61 98 180
62 99 181
62 99 181
61 99 180
62 99 181
61 99 180
62 99 181
62 99 181
62 99 180
62 99 181
61 99 181
61 99 180
61 99 181
62 99 181
61 99 181
61 99 180
62 99 180
62 99 181
62 99 181
61 98 179
62 99 181
62 99 181
61 99 181
62 99 181
62 99 181
62 99 181
62 99 181
62 99 181
62 99 181
61 98 181
62 99 180
62 99 181
61 99 181
62 99 181
61 99 181
61 99 181
62 99 181
62 99 181
61 98 178
62 99 181
61 99 179
62 99 181
61 98 180
62 99 180
62 99 181
61 99 180
62 99 178
62 99 181
61 99 180
62 99 181
62 99 180
61 98 180
63 100 178
61 99 180
62 99 179
61 99 181
62 99 181
62 99 181
62 99 179
62 99 180
62 99 179
62 99 181
62 99 180
62 99 179
62 99 180
62 99 180
62 99 178
61 98 180
62 99 178
61 98 178
62 99 177
62 99 179
62 99 179
62 99 177
62 98 175
62 99 178
62 99 179
62 99 179
62 98 176
62 99 179
62 99 179
61 98 175
62 99 176
62 98 176
61 98 174
62 98 177
61 97 173
61 97 174
62 98 175
62 98 175
62 98 175
61 96 172
60 95 167
63 98 169
83 106 155
105 116 130
109 112 87
127 124 75
130 126 75
121 118 67
119 117 68
128 124 75
129 126 73
137 133 84
129 126 78
132 130 80
115 113 75
120 119 78
132 129 81
120 118 73
121 118 78
119 118 76
124 124 82
131 129 86
129 128 86
131 130 86
124 123 82
124 123 81
129 128 87
120 120 84
125 125 88
126 127 85
135 134 93
128 129 90
133 132 91
137 136 92
136 135 94
141 140 95
134 134 92
128 129 89
130 130 91
139 138 95
148 146 99
146 144 98
144 143 98
139 138 95
146 143 96
142 142 97
149 148 99
150 148 99
149 147 100
153 151 102
154 152 100
154 152 102
153 151 103
150 148 99
158 156 105
158 156 104
159 156 103
158 155 106
164 161 106
162 158 104
165 161 106
161 158 105
162 159 104
163 159 105
159 157 105
164 161 103
167 164 107
169 165 107
164 161 107
170 165 105
162 159 105
169 165 108
169 166 107
170 166 107
168 163 104
172 168 110
175 170 108
173 169 110
172 168 108
173 169 108
172 168 108
174 169 110
173 168 108
174 169 109
176 171 110
173 169 110
174 168 107
172 168 108
173 169 106
177 172 109
173 169 108
173 168 104
173 168 106
173 168 106
174 169 108
177 171 109
174 168 104
176 170 109
174 169 109
174 169 108
175 170 106
175 169 108
173 168 105
178 172 109
176 170 107
174 170 110
179 172 109
172 168 104
170 165 101
171 165 101
171 166 104
174 168 106
175 169 106
173 167 103
165 159 96
166 161 101
174 168 106
169 164 101
169 163 98
168 163 103
171 166 105
174 168 104
173 167 104
172 166 103
167 161 99
167 162 100
166 162 99
162 156 93
167 161 97
158 151 91
164 158 95
155 149 87
166 160 95
161 156 93
159 153 90
161 154 92
160 154 85
165 159 93
161 155 89
158 153 87
164 158 92
159 153 88
158 152 91
152 146 84
161 154 87
153 147 80
153 146 84
152 146 80
155 148 81
145 140 75
155 149 79
154 147 82
147 141 79
145 139 69
141 135 75
137 131 63
140 134 64
131 129 53
154 169 34
174 197 0
173 197 0
173 195 0
172 195 0
173 197 0
172 195 0
171 195 0
173 197 0
176 199 0
171 195 0
173 197 0
173 196 0
173 197 0
175 198 0
171 195 0
171 195 0
173 196 0
173 196 0
173 197 0
172 196 0
172 196 0
171 195 0
175 198 0
172 196 0
172 196 0
174 197 0
172 196 0
172 195 0
173 196 0
169 193 0
172 195 0
173 197 0
174 197 0
174 197 0
172 196 0
172 195 0
175 197 0
172 195 0
176 198 0
175 197 0
174 197 0
173 196 0
171 195 0
173 196 0
172 195 0
174 197 0
172 196 0
173 196 0
172 196 0
171 195 0
173 197 0
173 196 0
173 195 0
173 197 0
173 197 0
174 197 0
170 193 0
171 196 0
173 196 0
174 197 0
173 197 0
172 196 0
175 197 0
174 197 0
174 197 0
173 197 0
171 194 0
174 197 0
173 197 0
174 196 0
169 192 0
172 196 0
173 196 0
172 196 0
172 195 0
170 194 0
174 197 0
172 195 0
170 194 0
171 194 0
172 196 0
170 192 0
174 196 0
172 195 0
173 196 0
170 193 0
172 196 0
172 196 0
171 194 0
174 197 0
171 195 0
170 193 0
174 197 0
173 197 0
172 195 0
173 196 0
171 194 0
175 198 0
170 195 0
173 196 0
172 195 0
170 194 0
171 195 0
172 196 0
174 197 0
171 194 0
172 196 0
172 196 0
173 196 0
169 192 0
173 195 0
172 196 0
174 197 0
171 193 0
146 171 90
109 136 145
64 100 171
62 99 174
62 99 176
62 99 175
63 99 171
61 98 173
63 99 177
62 99 176
63 100 177
63 99 178
62 99 180
61 98 176
61 98 173
62 99 176
62 99 180
61 98 179
62 99 180
62 99 180
62 99 178
62 99 178
62 99 177
61 99 179
61 99 180
62 99 179
62 99 180
62 99 180
62 99 179
62 99 180
62 99 180
62 99 181
62 99 179
62 99 180
62 99 181
62 99 181
62 99 181
62 99 180
62 99 181
62 99 180
61 99 181
63 100 181
61 99 181
62 99 181
62 99 181
61 99 181
62 99 181
62 99 181
62 99 181
62 99 181
62 99 181
62 99 181
62 99 180
62 99 181
61 99 181
61 99 181
61 99 181
62 99 181
62 99 179
62 99 181
62 99 181
62 99 180
61 99 179
62 99 180
62 99 181
62 99 180
62 99 181
61 99 181
62 99 181
62 99 181
61 99 181
62 99 179
62 99 181
62 99 181
61 98 180
61 98 181
61 99 181
62 99 181
62 99 181
62 99 181
62 99 178
62 99 181
62 99 179
62 99 180
62 99 180
62 99 181
61 99 180
62 99 180
62 99 181
62 99 181
62 99 181
62 99 181
62 99 180
62 99 180
62 99 181
62 99 181
62 99 179
61 99 180
62 99 178
62 99 177
62 99 180
62 99 180
62 99 180
62 99 177
62 99 177
62 98 176
62 99 178
62 99 178
62 99 178
62 99 177
61 98 177
61 97 174
62 99 177
63 100 179
61 97 174
61 97 170
62 99 178
62 99 176
62 99 175
61 97 171
62 98 176
60 97 175
61 98 174
62 98 174
62 98 175
61 96 171
61 97 173
60 95 168
61 97 170
64 99 173
72 99 153
117 123 123
113 114 94
124 121 75
122 118 64
134 129 73
118 115 69
127 124 79
135 131 78
125 122 75
118 117 74
116 116 73
122 121 76
128 125 80
115 114 72
123 121 80
126 125 82
122 121 79
126 125 84
108 109 76
115 115 78
128 128 85
118 119 80
119 120 84
122 122 86
125 124 86
121 121 83
126 126 85
140 139 95
129 129 89
130 130 91
129 130 91
140 138 94
131 131 91
127 128 89
131 131 91
134 134 92
137 137 94
145 143 99
131 131 92
139 139 96
144 143 97
142 141 97
151 149 101
159 157 106
147 145 96
145 144 97
151 149 98
147 147 100
151 148 97
147 146 100
156 154 104
152 150 102
161 158 104
161 158 106
157 155 102
160 158 104
163 160 106
164 161 104
161 158 104
167 163 105
165 160 105
161 158 103
164 162 106
161 158 105
166 163 106
163 160 104
168 165 107
171 166 108
166 163 107
165 161 102
171 167 108
170 165 105
169 166 108
169 165 105
171 167 107
174 169 108
171 167 108
176 171 110
173 168 106
172 169 109
171 167 108
170 166 106
173 168 105
171 167 108
176 171 109
179 172 108
172 168 104
173 169 109
172 169 110
176 170 107
174 170 106
178 172 110
175 170 106
176 171 109
175 170 109
177 172 109
170 166 106
173 168 108
175 170 105
172 167 106
174 168 108
171 166 103
170 166 103
175 169 108
172 168 107
172 166 103
171 165 103
174 168 106
173 168 104
172 166 104
170 165 102
166 162 98
171 165 99
172 167 101
171 166 98
168 162 99
167 162 97
167 161 101
173 166 103
161 156 95
169 164 101
164 159 94
169 164 99
162 157 95
163 158 97
167 160 95
166 159 96
160 154 90
162 156 95
163 157 93
167 160 97
162 157 95
154 149 87
168 162 93
163 156 93
148 143 80
156 149 87
159 153 90
150 144 85
159 153 85
151 145 80
157 150 83
142 138 74
152 146 82
150 144 81
149 144 73
157 149 79
146 141 75
140 133 72
147 141 75
134 129 72
134 129 67
126 121 61
133 132 56
150 163 34
173 196 0
171 195 0
172 195 0
171 193 0
174 197 0
174 197 0
171 195 0
171 195 0
172 196 0
174 197 0
172 195 0
171 195 0
172 196 0
173 197 0
173 196 0
172 196 0
173 196 0
174 197 0
173 196 0
171 195 0
172 195 0
172 195 0
172 196 0
173 197 0
172 195 0
172 195 0
170 195 0
173 197 0
172 195 0
173 197 0
173 196 0
172 195 0
170 195 0
171 195 0
172 195 0
174 197 0
174 197 0
168 191 0
174 197 0
174 197 0
172 195 0
174 196 0
174 197 0
173 196 0
172 195 0
173 196 0
172 196 0
173 197 0
172 196 0
173 197 0
172 196 0
173 196 0
174 197 0
171 195 0
173 196 0
172 196 0
171 196 0
173 197 0
172 195 0
172 196 0
172 195 0
173 196 0
173 196 0
174 197 0
174 197 0
169 193 0
170 193 0
174 197 0
173 196 0
173 196 0
173 197 0
172 194 0
173 196 0
170 193 0
171 195 0
170 193 0
173 196 0
170 194 0
171 195 0
169 193 0
171 194 0
171 194 0
172 195 0
171 194 0
175 198 0
170 195 0
171 195 0
170 193 0
172 195 0
172 195 0
173 197 0
171 194 0
171 194 0
173 196 0
170 194 0
170 192 0
171 194 0
174 197 0
170 193 0
174 196 0
173 196 0
171 194 0
173 196 0
172 195 0
172 196 0
171 194 0
172 196 0
172 195 0
173 196 0
168 192 0
174 197 0
169 193 0
171 194 25
148 172 92
112 139 139
65 100 170
62 99 169
62 99 174
62 99 174
62 99 176
62 99 173
62 99 177
62 99 177
62 99 176
62 99 177
62 99 177
61 98 175
62 99 177
62 99 177
62 99 180
62 99 177
62 99 179
62 99 181
62 99 180
62 99 175
62 99 180
62 99 177
62 99 181
62 99 177
62 99 181
62 99 180
62 99 181
62 99 180
61 99 180
62 99 181
62 99 180
62 99 180
62 99 181
63 100 180
62 99 180
61 98 179
62 99 181
62 99 181
62 99 181
62 99 181
61 99 180
62 99 180
61 98 180
61 99 180
61 99 181
62 99 181
62 99 179
62 99 180
62 99 181
61 99 181
62 99 181
62 99 180
62 99 180
61 98 180
62 99 181
62 99 181
61 98 179
62 99 181
62 99 181
62 99 180
62 99 181
61 98 179
61 99 181
62 99 180
62 99 180
62 99 180
62 99 181
61 99 180
62 99 180
62 99 181
62 99 181
62 99 181
62 99 181
61 99 180
62 99 180
61 98 181
61 99 177
62 99 181
62 99 181
61 99 180
62 99 181
62 99 180
62 99 181
61 98 180
62 99 179
63 99 180
62 99 179
61 99 180
62 99 179
62 99 181
62 99 179
62 99 178
62 99 177
62 99 179
62 99 181
62 99 181
61 99 179
62 99 178
61 99 179
62 99 178
62 98 174
62 99 178
62 99 179
62 99 180
62 99 176
62 99 178
62 99 179
62 99 179
62 99 179
62 99 177
61 98 176
62 99 176
62 99 178
62 99 177
62 99 177
61 98 177
61 98 175
61 98 174
62 98 173
62 98 174
62 99 177
61 98 170
62 97 172
62 98 170
61 97 173
61 97 172
61 97 172
61 96 171
60 95 165
60 95 166
82 104 150
102 112 127
121 122 99
125 121 72
110 108 61
124 122 69
122 120 71
123 121 72
130 127 80
126 123 81
120 119 78
119 117 76
125 122 82
127 126 81
121 120 77
116 117 76
128 127 83
132 131 88
109 111 77
123 123 82
124 123 83
125 125 84
120 121 83
129 129 88
136 135 91
129 129 90
134 133 91
126 127 87
126 127 90
134 135 93
131 131 91
141 140 96
138 136 94
135 134 93
140 140 96
122 123 86
143 141 95
137 136 93
150 148 100
136 136 93
147 144 95
155 153 103
154 151 101
147 145 96
162 159 104
150 148 100
145 145 100
157 154 104
153 151 100
158 156 104
157 155 104
155 152 101
155 152 99
157 155 103
160 156 101
158 155 104
161 158 106
162 158 101
164 161 105
163 159 101
164 160 105
164 160 104
165 162 105
167 163 104
172 167 105
168 164 106
168 165 106
172 168 108
170 166 106
167 163 106
168 164 103
170 166 106
168 164 107
170 166 107
169 166 108
168 164 106
168 164 107
174 170 109
174 170 109
173 168 110
172 168 104
174 169 108
176 171 109
174 169 105
173 168 107
173 168 108
176 171 111
175 169 108
173 169 107
173 167 103
172 168 104
172 168 107
176 171 106
174 169 109
176 170 105
171 168 105
175 169 108
174 169 107
175 169 104
173 168 104
171 167 104
173 168 106
171 166 101
174 168 108
173 168 105
169 164 102
172 167 105
169 164 101
171 166 104
167 161 100
168 163 103
173 167 104
175 168 103
170 164 101
170 164 103
173 167 104
167 161 97
169 164 100
171 166 101
161 156 97
162 156 95
172 164 99
169 163 98
162 156 95
170 162 98
162 156 93
161 157 90
168 162 94
172 165 95
163 157 95
156 149 84
163 158 95
160 154 88
162 156 86
157 151 86
164 157 87
157 151 85
158 152 88
148 143 79
150 144 80
162 156 89
153 146 84
147 142 82
155 149 85
149 143 72
143 138 72
147 140 82
134 129 66
150 144 76
148 141 79
147 140 75
133 128 63
141 136 67
132 131 56
149 159 42
175 197 0
172 195 0
173 195 0
173 196 0
171 194 0
173 197 0
172 195 0
173 197 0
172 196 0
174 197 0
174 196 0
174 197 0
174 198 0
175 198 0
173 196 0
170 194 0
173 196 0
173 197 0
173 195 0
173 196 0
175 198 0
173 197 0
173 196 0
173 197 0
174 197 0
173 196 0
173 196 0
175 198 0
173 197 0
173 196 0
173 197 0
173 197 0
172 196 0
172 196 0
174 197 0
174 197 0
173 196 0
173 197 0
172 196 0
172 195 0
172 196 0
173 196 0
173 196 0
173 197 0
173 197 0
171 194 0
172 195 0
172 196 0
170 194 0
173 196 0
172 196 0
175 198 0
174 197 0
174 197 0
174 197 0
171 194 0
172 195 0
172 195 0
172 196 0
170 194 0
173 196 0
173 195 0
172 196 0
172 195 0
174 197 0
173 196 0
171 195 0
173 197 0
171 194 0
171 194 0
173 196 0
173 196 0
172 195 0
174 198 0
172 196 0
172 195 0
171 194 0
172 195 0
171 195 0
172 195 0
174 197 0
172 196 0
172 196 0
174 196 0
172 194 0
172 196 0
173 196 0
170 193 0
172 195 0
174 197 0
171 194 0
171 194 0
172 195 0
171 195 0
170 194 0
170 193 0
174 196 0
172 195 0
172 195 0
171 195 0
171 194 0
171 194 0
173 197 0
172 195 0
171 194 0
172 195 0
169 192 0
170 194 0
173 196 0
172 195 0
172 196 0
176 198 18
156 180 74
115 141 136
66 101 169
62 99 173
63 99 169
63 100 178
62 99 176
62 99 178
62 99 171
62 99 174
62 99 178
62 99 178
62 98 175
62 99 174
61 98 177
62 99 175
62 99 177
62 99 179
62 99 180
62 99 178
62 99 178
62 99 177
62 99 178
62 99 179
62 99 180
61 98 176
62 99 180
61 98 178
62 99 178
62 99 179
62 99 180
62 99 180
62 99 181
62 99 181
62 99 181
62 99 180
62 99 181
62 99 181
62 99 181
61 99 181
62 99 181
62 99 180
62 99 181
62 99 181
62 99 180
62 99 181
61 99 180
62 99 180
61 98 180
62 99 180
61 99 181
61 98 179
62 99 181
61 99 179
62 99 181
62 99 181
62 99 180
62 99 181
61 99 181
62 99 181
61 98 181
62 99 181
61 99 181
62 99 181
61 98 181
61 98 180
62 99 180
61 99 181
61 99 181
62 99 179
62 99 180
62 99 180
61 99 181
62 99 181
62 99 179
62 99 179
61 98 180
61 98 179
62 99 179
61 99 180
62 99 180
62 99 180
61 98 180
62 99 180
61 99 180
62 99 178
62 99 179
61 99 180
62 99 180
61 98 180
62 99 179
61 99 180
62 99 178
62 99 181
62 99 176
62 99 180
62 99 177
62 99 180
62 99 180
61 98 178
62 99 178
62 99 179
61 98 180
62 99 177
62 99 180
61 98 174
62 99 179
62 99 180
62 99 177
62 99 177
62 99 178
62 99 179
62 99 181
61 98 173
62 99 177
61 98 174
62 99 179
62 99 177
60 96 172
61 98 177
62 99 178
61 98 173
62 98 176
61 97 170
62 98 173
61 98 173
62 99 177
61 97 170
62 98 173
61 97 175
61 98 174
61 96 166
61 96 168
63 96 166
85 106 148
112 117 109
126 125 90
120 117 66
127 123 71
119 117 70
123 120 74
125 124 76
124 122 78
120 120 77
98 99 65
116 115 75
125 124 80
122 120 78
114 114 78
119 118 78
113 114 76
111 112 78
122 123 83
122 123 84
122 121 85
122 122 84
125 125 86
119 120 84
125 127 89
128 128 88
125 126 87
136 135 92
135 134 91
126 126 88
128 128 89
134 134 93
134 134 94
137 136 93
134 134 91
140 139 96
137 137 93
139 138 95
141 139 94
136 136 93
140 139 95
139 139 95
151 148 100
142 141 95
148 147 98
147 145 98
152 150 101
160 157 104
150 148 98
155 153 103
149 148 99
163 160 104
163 159 105
158 156 104
158 156 102
156 154 104
167 162 106
164 160 103
160 157 103
165 162 106
161 158 104
164 161 106
159 156 101
165 162 107
170 166 107
166 163 106
168 164 106
166 162 102
164 160 103
167 164 107
167 163 104
170 166 105
177 171 108
169 165 106
172 168 107
174 169 109
170 166 106
176 170 110
171 166 103
172 168 105
177 171 110
172 168 104
171 167 104
171 167 108
171 168 107
173 169 109
173 168 107
173 169 107
173 168 104
174 169 107
177 171 103
173 169 108
175 170 106
175 169 106
175 170 108
174 169 108
176 171 109
171 165 101
176 170 105
173 167 104
173 167 104
170 165 102
171 167 100
173 168 104
167 162 100
171 167 104
173 167 103
169 164 102
170 165 104
172 167 104
170 165 103
170 164 98
169 164 103
172 166 101
170 164 104
169 163 100
166 159 97
171 166 102
174 168 101
168 163 97
160 155 93
165 159 96
166 160 95
161 155 90
166 161 95
166 160 96
159 154 90
167 161 97
157 151 85
160 154 92
160 154 88
164 157 90
154 149 87
164 158 95
153 148 82
162 156 92
157 151 86
157 151 88
149 145 81
159 154 84
155 149 81
155 149 77
148 142 78
159 152 89
138 133 69
151 145 75
141 136 66
144 137 70
135 131 62
131 126 62
137 132 67
132 126 65
123 118 57
138 150 32
172 195 0
174 196 0
173 195 0
174 196 0
173 197 0
171 195 0
174 198 0
173 197 0
173 197 0
173 197 0
172 196 0
174 198 0
174 197 0
172 196 0
175 198 0
170 194 0
174 197 0
174 197 0
171 195 0
173 197 0
174 197 0
175 197 0
173 197 0
171 194 0
174 197 0
173 196 0
173 196 0
174 196 0
173 195 0
175 198 0
175 198 0
172 196 0
172 196 0
173 197 0
172 195 0
173 196 0
173 196 0
174 197 0
175 198 0
172 196 0
171 194 0
172 195 0
172 196 0
171 195 0
171 196 0
171 195 0
173 195 0
170 194 0
173 196 0
172 196 0
174 197 0
174 197 0
176 198 0
173 196 0
173 197 0
174 197 0
170 194 0
172 195 0
173 196 0
172 195 0
172 195 0
172 196 0
172 196 0
174 196 0
172 196 0
172 196 0
171 194 0
170 193 0
173 196 0
173 197 0
173 197 0
173 196 0
172 194 0
171 194 0
172 195 0
172 196 0
171 194 0
172 195 0
173 196 0
173 196 0
171 194 0
174 198 0
172 196 0
171 195 0
171 195 0
173 196 0
169 192 0
171 195 0
172 196 0
174 197 0
172 195 0
172 195 0
173 197 0
173 196 0
171 194 0
168 192 0
170 194 0
172 195 0
173 196 0
172 195 0
171 195 0
173 196 0
173 197 0
172 196 0
173 196 0
172 195 0
172 195 0
171 194 0
174 197 0
173 196 0
171 194 0
159 184 65
121 147 128
69 104 168
61 98 173
62 99 172
61 98 174
62 99 175
61 98 173
62 98 173
62 99 175
62 99 176
62 99 177
62 99 176
63 100 180
61 98 175
62 99 179
62 98 174
62 99 176
62 99 175
62 99 179
62 99 179
62 99 179
62 99 179
62 99 179
62 99 180
62 99 178
61 98 177
62 99 181
62 99 181
61 98 176
61 98 178
62 99 180
62 99 181
62 99 179
62 99 178
62 99 179
62 99 181
62 99 181
63 100 181
62 99 180
62 99 181
62 99 180
61 99 181
61 99 181
62 99 181
62 99 180
61 99 181
62 99 181
62 99 179
61 99 181
61 99 181
62 99 180
61 99 180
62 99 181
62 99 181
62 99 181
61 99 181
62 99 180
62 99 181
62 99 180
62 99 179
62 99 181
62 99 180
62 99 181
62 99 180
62 99 181
61 99 179
62 99 181
62 99 181
62 99 181
61 99 179
62 99 180
62 99 179
62 99 181
61 99 179
62 99 180
61 99 181
61 99 181
62 99 181
62 99 181
62 99 180
62 99 180
62 99 178
62 99 179
62 99 177
61 99 178
62 99 179
62 99 181
61 98 179
61 98 180
62 99 181
62 99 181
62 99 180
62 99 179
62 99 180
62 99 178
61 98 180
62 99 179
62 99 180
61 98 178
62 99 179
62 99 178
62 99 180
62 99 178
62 99 180
61 98 179
61 98 177
61 98 178
62 99 180
61 98 176
61 98 176
62 99 177
62 98 175
62 99 180
61 98 175
62 99 176
63 99 179
61 98 173
62 99 175
61 98 174
62 98 175
61 98 174
61 98 174
62 99 177
61 98 174
61 97 171
62 98 175
63 99 174
62 98 172
61 97 172
60 97 173
61 97 171
61 96 171
61 96 171
61 96 169
62 96 160
76 99 149
102 109 111
114 114 85
128 125 76
120 117 65
119 116 70
124 121 74
109 109 66
114 111 68
112 112 74
115 115 72
111 111 74
117 115 73
112 112 75
109 110 73
120 119 79
104 105 72
122 121 84
126 125 84
121 120 82
115 116 81
115 115 80
111 112 78
120 119 83
121 122 86
120 121 85
120 120 84
128 128 89
122 123 86
129 129 89
127 128 89
131 132 93
131 130 91
140 139 95
141 141 96
136 135 94
143 141 94
139 138 95
148 146 97
137 137 94
148 146 98
145 143 97
140 140 95
149 147 97
151 149 99
152 150 101
155 153 102
152 150 100
149 148 100
161 157 103
157 155 104
154 152 102
155 152 101
151 150 100
163 159 103
155 153 102
157 154 102
169 165 106
170 166 108
164 162 106
163 159 103
166 163 106
159 155 101
163 160 98
169 165 107
168 164 105
170 167 106
168 164 104
172 167 107
165 162 104
167 163 104
172 166 107
171 166 105
170 166 104
175 170 108
175 169 108
174 169 109
172 168 105
174 169 108
176 171 110
172 167 104
174 170 110
177 171 109
172 168 106
174 168 105
171 167 105
174 169 108
174 169 108
174 168 104
173 168 101
174 170 108
175 169 107
176 171 108
173 168 104
177 171 106
175 169 104
176 170 108
175 170 109
168 163 96
172 167 104
176 170 107
171 166 103
173 168 103
171 165 103
173 167 101
173 167 104
173 168 105
164 160 100
173 168 104
175 168 101
172 166 101
165 159 99
166 161 95
163 158 94
173 166 103
164 158 95
166 161 97
167 161 98
171 164 100
163 158 92
163 158 93
165 160 99
166 160 94
163 157 93
165 159 97
164 158 94
158 152 90
165 160 98
163 157 91
163 157 93
160 154 89
154 148 84
167 160 95
168 161 98
157 150 82
156 150 88
157 151 85
149 142 86
155 150 83
152 147 75
148 141 80
152 145 80
148 144 78
146 140 76
142 136 74
150 145 77
143 137 74
143 138 74
138 131 65
128 123 63
140 134 70
114 110 52
140 145 45
173 194 11
171 195 0
173 197 0
172 196 0
174 196 0
173 197 0
172 195 0
174 197 0
174 197 0
172 195 0
170 194 0
174 197 0
174 198 0
174 198 0
175 198 0
172 196 0
169 193 0
174 198 0
172 196 0
174 197 0
171 194 0
174 197 0
171 194 0
172 195 0
172 195 0
176 198 0
173 197 0
172 197 0
171 194 0
176 198 0
173 196 0
170 193 0
173 197 0
174 197 0
173 197 0
174 197 0
173 197 0
173 196 0
172 196 0
174 197 0
173 196 0
172 196 0
174 197 0
171 195 0
172 195 0
173 197 0
174 198 0
174 197 0
173 197 0
172 196 0
172 196 0
173 196 0
174 196 0
170 194 0
172 196 0
173 197 0
173 197 0
173 197 0
174 198 0
173 197 0
171 194 0
174 197 0
172 195 0
172 195 0
172 196 0
170 193 0
172 196 0
174 197 0
174 197 0
172 196 0
175 198 0
172 195 0
172 195 0
173 196 0
173 196 0
174 196 0
174 198 0
174 196 0
174 197 0
172 195 0
173 196 0
172 195 0
171 195 0
173 196 0
173 196 0
171 193 0
173 196 0
173 195 0
170 193 0
171 194 0
171 195 0
171 194 0
172 196 0
172 196 0
171 195 0
173 195 0
173 196 0
173 195 0
175 197 0
171 194 0
171 194 0
175 197 0
171 195 0
172 195 0
173 197 0
172 195 0
172 195 0
174 197 0
167 191 0
167 190 18
167 191 51
122 148 129
78 111 165
62 99 173
62 99 172
63 99 172
61 98 173
63 99 171
61 98 172
62 98 169
62 99 174
62 99 175
61 98 175
62 99 178
61 98 174
62 99 177
62 99 176
61 98 174
62 99 178
62 99 179
62 99 177
62 99 175
62 99 175
62 99 179
62 99 180
62 99 178
61 98 177
62 99 180
62 99 179
61 98 178
62 99 180
62 99 178
62 99 181
61 99 180
62 99 181
62 99 180
62 99 177
62 99 180
62 99 181
62 99 181
62 99 179
62 99 181
62 99 181
62 99 181
61 99 181
62 99 181
62 99 181
62 99 179
62 99 180
62 99 181
62 99 181
62 99 181
62 99 181
62 99 181
61 99 180
62 99 179
62 99 180
61 98 177
62 99 180
62 99 181
62 99 180
62 99 181
62 99 181
62 99 181
62 99 181
62 99 181
62 99 179
62 99 181
62 99 180
62 99 179
62 99 181
62 99 180
62 99 179
61 98 177
62 99 181
61 99 181
62 99 178
62 99 180
62 99 181
62 99 181
62 99 180
62 99 180
62 99 181
62 99 179
62 99 180
62 99 180
61 99 179
62 99 180
62 99 181
62 99 180
62 99 179
62 99 180
62 99 180
62 99 180
62 99 180
61 99 179
61 99 180
62 99 179
62 99 178
62 99 179
62 99 179
62 99 179
61 98 178
62 99 178
61 99 180
62 99 178
62 99 179
62 99 179
62 99 180
61 98 177
61 98 178
62 99 175
62 99 181
62 99 177
62 99 178
62 99 177
61 98 177
61 98 176
63 100 179
62 99 176
62 98 176
62 99 176
62 98 173
62 99 173
61 98 176
62 98 176
61 97 171
61 97 170
61 97 173
62 98 172
62 98 173
62 97 170
61 97 169
61 97 173
60 96 168
62 98 172
61 96 166
70 100 164
92 108 142
101 107 105
130 128 88
128 126 78
107 106 62
117 115 69
125 122 76
120 119 78
130 127 80
114 112 73
118 118 79
101 101 67
97 99 69
106 106 70
119 118 77
105 107 75
123 122 81
100 102 74
128 127 88
119 119 81
121 121 85
128 128 90
123 122 83
124 124 86
115 118 85
125 125 86
137 136 93
122 123 86
127 127 89
137 136 92
128 128 89
117 118 84
131 130 88
135 134 93
143 142 97
139 138 95
139 139 95
135 135 92
145 143 96
145 143 96
145 143 96
148 146 97
149 147 97
152 150 100
147 144 94
153 151 101
149 147 97
148 146 98
153 151 99
150 149 99
162 160 106
163 160 104
154 152 102
165 161 106
158 155 101
161 158 99
166 162 104
150 148 97
163 160 104
163 161 105
170 166 106
170 165 108
170 166 106
165 161 104
171 167 107
166 162 104
168 164 106
171 166 108
171 166 104
170 165 104
171 167 106
167 163 105
169 166 105
168 165 105
175 171 110
172 167 106
169 165 105
169 166 106
175 170 104
171 167 105
176 170 105
177 172 109
171 167 104
172 168 105
176 170 109
175 170 108
177 171 106
176 170 107
171 168 107
171 167 105
176 170 106
175 170 105
178 172 108
174 169 107
176 170 107
175 169 103
172 166 102
172 166 104
173 168 104
171 165 101
173 168 106
171 166 103
168 163 96
171 165 105
174 167 103
168 163 101
171 165 102
169 162 95
174 167 105
173 167 103
172 167 103
170 163 98
170 165 99
171 165 103
170 164 100
169 163 97
171 165 97
160 155 89
162 157 93
160 155 94
169 162 99
170 164 97
169 164 95
168 162 95
167 160 95
166 160 94
158 153 89
160 154 87
159 153 91
155 149 85
160 154 86
157 151 85
159 153 87
162 156 88
160 154 87
157 151 84
158 151 82
150 145 80
157 151 89
150 144 78
150 144 80
146 141 75
154 148 80
144 139 74
150 144 75
148 142 75
134 128 70
151 144 73
139 133 75
141 135 66
127 122 48
134 138 48
172 194 0
172 197 0
173 196 0
173 196 0
174 197 0
175 198 0
174 196 0
173 195 0
173 196 0
171 195 0
175 198 0
172 195 0
174 197 0
172 196 0
172 196 0
173 196 0
176 198 0
172 196 0
174 197 0
174 197 0
173 196 0
172 195 0
172 196 0
173 196 0
171 195 0
171 194 0
172 195 0
174 197 0
172 195 0
173 197 0
174 197 0
173 196 0
175 198 0
171 195 0
171 194 0
174 198 0
174 197 0
174 197 0
170 194 0
171 194 0
173 196 0
171 195 0
173 197 0
172 195 0
174 198 0
173 196 0
174 197 0
173 197 0
172 195 0
174 198 0
171 194 0
174 196 0
172 195 0
174 197 0
173 197 0
169 193 0
173 196 0
175 198 0
172 195 0
172 197 0
173 196 0
173 196 0
173 195 0
171 195 0
173 197 0
169 192 0
173 196 0
172 196 0
173 197 0
168 192 0
172 196 0
173 196 0
171 195 0
173 197 0
172 195 0
171 194 0
168 192 0
173 197 0
171 194 0
169 193 0
175 198 0
174 197 0
169 193 0
173 196 0
171 195 0
172 196 0
172 194 0
173 196 0
174 197 0
174 197 0
173 197 0
175 198 0
173 196 0
170 193 0
172 195 0
171 194 0
170 193 0
173 196 0
173 196 0
168 191 0
167 191 0
169 193 0
171 195 0
171 195 0
171 195 0
172 195 0
171 195 0
169 192 0
171 193 0
164 187 40
138 163 102
76 109 168
62 99 174
63 99 170
62 99 174
61 98 175
62 99 178
61 98 173
63 99 176
62 99 172
62 99 175
63 99 177
62 99 174
62 99 178
62 99 177
62 99 177
62 99 176
62 99 176
62 99 176
63 100 179
62 99 177
62 99 179
62 99 180
62 99 177
62 99 178
62 99 178
62 99 179
61 99 179
62 99 180
62 99 179
62 99 180
62 99 179
62 99 180
62 99 181
62 99 180
62 99 181
62 99 178
62 99 181
62 99 179
62 99 181
61 99 181
62 99 180
62 99 179
62 99 178
62 99 181
62 99 178
62 99 180
62 99 181
62 99 178
62 99 180
62 99 180
62 99 181
62 99 178
62 99 181
61 99 179
62 99 181
61 99 181
62 99 180
61 99 179
62 99 181
62 99 181
61 98 179
61 98 179
61 99 179
62 99 178
62 99 181
62 99 181
61 99 179
61 99 180
62 99 180
61 99 181
61 99 180
61 98 178
62 99 180
62 99 181
62 99 180
62 99 181
61 99 181
62 99 180
62 99 178
62 99 178
62 99 177
62 99 179
62 99 181
61 99 180
62 99 180
62 99 181
62 99 178
61 99 180
62 99 180
62 99 180
62 99 179
62 99 179
62 99 180
63 100 180
62 99 180
62 99 179
62 99 181
61 98 179
61 99 180
62 99 181
62 99 177
62 99 178
62 99 178
62 99 180
62 99 178
61 98 175
61 98 177
62 99 179
62 99 179
62 99 178
62 99 178
62 99 178
62 99 176
62 99 179
62 99 178
61 98 177
62 99 175
62 99 176
62 98 174
61 98 174
61 97 170
62 99 178
62 98 174
61 98 175
62 99 176
62 98 171
62 98 173
62 98 174
62 99 176
61 97 170
62 98 171
61 97 172
62 98 171
61 97 167
61 96 167
60 95 165
60 95 164
60 94 162
87 104 138
113 117 105
128 125 82
107 106 71
108 107 62
121 119 76
97 97 63
107 108 73
109 109 73
105 107 72
113 113 71
117 116 75
113 113 78
110 109 73
103 104 70
111 111 76
108 110 78
117 117 80
110 110 76
110 112 78
118 120 84
117 118 83
108 109 75
122 123 84
119 120 83
125 124 86
127 127 87
137 137 96
136 135 93
130 131 91
126 128 90
138 137 95
140 139 94
146 144 95
148 146 98
137 137 93
137 136 92
141 139 94
136 136 91
147 145 99
132 132 89
144 142 95
153 151 102
148 147 98
148 146 98
153 151 100
149 147 97
154 151 99
156 154 101
152 150 98
150 148 98
161 158 102
159 157 97
163 159 101
156 154 100
160 158 102
158 155 102
162 159 104
171 166 109
165 161 103
157 155 104
172 167 107
167 163 99
167 164 105
167 163 103
171 167 110
167 163 104
170 166 106
172 168 108
169 165 104
170 166 107
170 165 107
178 172 110
173 167 105
171 168 106
174 168 103
177 171 109
175 170 104
176 171 108
176 170 108
176 171 107
172 167 105
176 170 106
173 168 104
174 169 105
175 170 108
172 167 105
175 169 104
171 166 101
173 167 103
173 168 105
176 170 104
174 169 108
177 170 103
177 171 106
174 168 103
173 167 103
170 165 100
171 167 103
171 166 101
173 168 104
175 169 104
172 167 102
170 164 105
171 165 100
174 169 103
170 164 101
171 165 99
174 168 100
175 168 101
168 162 93
166 161 97
163 158 93
168 162 97
165 159 97
173 167 98
167 161 97
166 160 97
167 162 93
168 162 97
165 159 95
169 162 96
161 154 91
163 157 93
167 160 96
159 153 88
162 156 87
157 152 85
160 154 90
149 144 80
160 154 85
159 153 86
160 154 89
158 153 89
150 143 79
152 147 78
154 149 85
158 152 81
153 148 80
152 145 84
150 144 78
149 142 79
149 144 78
145 139 75
142 137 67
142 136 64
138 131 63
139 135 56
138 132 69
132 127 66
132 131 57
171 192 0
173 196 0
172 195 0
173 197 0
174 197 0
173 196 0
172 196 0
172 196 0
173 197 0
174 198 0
173 196 0
176 198 0
175 198 0
169 193 0
174 197 0
175 198 0
171 195 0
173 196 0
175 198 0
174 196 0
176 198 0
172 195 0
172 195 0
174 197 0
172 196 0
173 197 0
174 197 0
172 196 0
174 197 0
175 198 0
174 197 0
173 196 0
173 197 0
174 197 0
173 196 0
172 196 0
174 197 0
169 192 0
173 197 0
174 197 0
172 196 0
172 195 0
175 198 0
172 196 0
173 196 0
170 193 0
172 195 0
175 198 0
171 195 0
171 195 0
171 195 0
175 197 0
172 196 0
173 197 0
171 195 0
168 192 0
172 195 0
173 196 0
172 195 0
174 197 0
173 196 0
173 197 0
174 197 0
172 196 0
172 196 0
173 197 0
174 197 0
170 194 0
171 195 0
172 196 0
175 197 0
173 196 0
174 197 0
174 197 0
175 198 0
173 197 0
171 194 0
175 197 0
171 194 0
173 196 0
173 196 0
171 194 0
172 195 0
172 195 0
171 195 0
170 194 0
171 195 0
173 195 0
172 195 0
172 195 0
173 196 0
173 196 0
173 196 0
171 195 0
175 197 0
171 195 0
174 197 0
170 193 0
172 196 0
174 197 0
169 192 0
173 197 0
170 194 0
171 194 0
168 192 0
170 194 0
167 191 0
173 196 0
170 193 31
139 163 105
95 124 155
62 99 173
62 99 170
63 99 173
62 99 176
62 99 172
61 98 174
62 99 176
62 99 177
62 99 177
62 99 176
63 99 179
62 98 173
63 100 178
62 99 178
62 98 174
62 99 176
62 99 178
62 99 178
62 99 177
62 99 175
62 99 175
62 99 179
62 99 180
62 99 178
62 99 177
62 99 180
61 98 178
61 99 180
62 99 180
62 99 180
62 99 181
62 99 180
62 99 180
62 99 175
63 100 180
62 99 179
62 99 178
61 99 180
62 99 180
62 99 179
62 99 181
62 99 181
62 99 180
62 99 179
62 99 181
62 99 180
62 99 178
62 99 181
62 99 180
62 99 179
62 99 179
62 99 181
61 99 181
62 99 181
62 99 179
62 99 179
62 99 181
62 99 181
61 99 179
61 99 179
62 99 181
62 99 181
62 99 180
62 99 181
62 99 180
62 99 180
62 99 181
62 99 179
62 99 181
62 99 179
62 99 181
62 99 181
62 99 180
61 99 179
62 99 180
62 99 180
61 99 180
62 99 180
63 100 180
61 98 180
61 98 179
62 99 181
61 99 181
63 100 179
62 99 179
62 99 180
62 99 180
62 99 179
62 99 178
61 99 179
62 99 180
62 99 180
61 99 178
62 99 176
62 99 181
61 99 179
62 99 177
62 99 180
62 99 175
63 99 180
62 99 179
62 99 178
62 99 177
61 98 175
61 99 180
62 99 177
62 99 178
61 98 178
62 99 179
62 99 176
62 99 177
62 99 177
62 99 178
61 98 173
61 98 177
62 99 179
61 98 173
62 99 175
63 100 180
62 99 174
62 98 174
62 98 176
62 98 172
62 98 176
62 98 174
61 98 172
62 98 172
62 98 174
61 97 171
62 98 176
62 97 172
61 97 174
61 95 167
61 97 174
61 97 169
61 97 170
61 97 169
60 95 167
72 101 160
93 106 135
118 119 91
122 120 77
125 123 78
109 108 71
103 103 66
112 111 72
115 114 76
114 113 75
110 109 69
109 109 71
111 110 74
118 118 81
111 111 75
104 105 72
108 109 77
106 108 76
106 110 80
104 106 75
119 119 81
118 118 82
114 115 79
116 117 83
113 115 81
125 125 87
136 136 93
125 126 88
124 125 87
125 126 85
130 130 90
127 128 87
139 137 91
137 136 93
136 136 92
146 146 98
142 142 99
137 136 91
145 144 96
146 144 94
142 141 95
139 139 94
139 139 91
145 143 94
155 152 100
149 146 96
149 147 97
155 152 99
152 150 100
158 155 100
155 152 100
167 162 103
162 158 104
160 157 103
162 159 100
158 156 103
162 159 103
160 157 99
168 163 103
161 158 100
167 163 104
172 167 105
165 161 105
166 162 101
169 164 105
169 165 106
166 162 104
167 164 106
163 161 101
169 165 104
169 165 104
173 168 106
173 167 103
171 166 104
175 169 108
174 170 110
171 167 105
173 168 104
173 168 103
172 167 108
171 166 102
176 171 108
174 169 104
173 167 101
173 168 104
172 166 97
172 167 103
176 170 106
173 168 102
171 167 103
172 167 102
170 165 99
176 170 106
172 167 100
176 170 106
171 165 101
176 171 106
175 169 102
175 168 99
171 167 101
174 168 103
175 169 105
175 170 103
168 163 97
171 166 99
171 165 101
172 166 100
173 166 103
166 161 98
173 167 102
169 163 97
167 160 98
166 161 93
167 161 97
169 163 96
171 164 97
167 161 96
166 160 94
168 162 96
166 160 93
164 158 95
160 155 83
161 155 89
164 158 93
161 155 87
162 155 92
161 155 89
164 157 93
152 147 84
163 156 92
155 150 84
151 146 80
160 153 89
155 148 82
157 151 84
170 163 93
161 154 91
156 150 75
155 150 84
145 140 71
143 137 76
147 141 73
152 146 80
147 140 71
133 128 63
142 137 71
142 138 67
138 133 65
129 124 58
139 133 65
134 134 58
169 192 0
172 195 0
174 197 0
173 196 0
173 196 0
172 195 0
174 197 0
175 198 0
173 196 0
174 197 0
173 196 0
174 197 0
174 197 0
173 197 0
172 195 0
174 197 0
175 198 0
171 194 0
174 197 0
174 197 0
173 197 0
171 194 0
173 196 0
172 196 0
172 196 0
174 197 0
172 195 0
173 197 0
173 196 0
172 196 0
174 197 0
172 195 0
173 196 0
173 197 0
173 197 0
172 196 0
173 197 0
173 196 0
175 197 0
173 197 0
174 197 0
175 198 0
171 195 0
168 192 0
172 195 0
171 195 0
175 198 0
172 196 0
173 196 0
173 196 0
173 197 0
171 195 0
173 196 0
172 196 0
173 196 0
174 197 0
173 197 0
170 194 0
172 195 0
170 194 0
173 197 0
173 196 0
173 196 0
171 195 0
171 194 0
172 196 0
169 194 0
171 195 0
172 196 0
171 194 0
174 197 0
173 196 0
173 197 0
170 193 0
172 194 0
174 197 0
172 195 0
169 193 0
169 192 0
172 195 0
169 193 0
169 193 0
173 196 0
171 195 0
174 197 0
172 196 0
172 195 0
172 194 0
173 196 0
172 195 0
174 197 0
170 193 0
172 195 0
172 196 0
170 193 0
173 196 0
173 197 0
170 193 0
170 193 0
174 197 0
170 193 0
170 193 0
172 195 0
172 195 0
172 196 0
173 195 0
172 195 0
171 194 18
157 181 74
99 128 154
62 99 174
62 99 176
62 99 170
61 98 174
62 99 174
62 99 176
62 99 178
62 98 171
62 99 178
61 98 173
62 99 175
61 98 176
61 98 175
62 99 177
62 99 175
62 99 180
62 99 177
62 99 180
63 100 179
62 99 177
61 98 176
61 98 178
62 99 181
62 99 179
63 99 178
62 99 179
62 99 178
62 99 179
62 99 179
62 99 180
62 99 179
61 99 179
62 99 179
62 99 179
62 99 178
62 99 180
62 99 179
62 99 179
62 99 180
62 99 178
62 99 180
62 99 181
61 98 178
61 98 178
61 99 180
62 99 181
62 99 181
61 99 180
62 99 181
61 99 181
62 99 180
62 99 181
62 99 180
62 99 179
62 99 179
62 99 181
62 99 179
62 99 179
62 99 180
62 99 178
62 99 180
61 99 181
61 99 178
62 99 180
61 98 178
62 99 181
62 99 180
63 100 180
62 99 180
61 99 181
62 99 180
62 99 180
62 99 180
62 99 179
62 99 179
61 99 180
62 99 180
63 99 180
61 99 179
61 98 177
62 99 180
62 99 179
62 99 180
62 99 181
62 99 181
62 99 179
62 99 180
62 99 179
62 99 178
62 99 178
62 99 181
62 99 181
62 99 178
62 99 180
61 98 178
62 99 180
62 99 180
62 99 179
62 99 178
62 99 179
63 99 178
62 99 180
62 99 180
62 99 180
62 99 178
62 99 179
61 98 175
62 99 177
62 99 177
62 99 177
61 98 174
62 99 177
62 99 177
63 100 178
62 99 180
62 99 176
62 99 177
62 98 176
62 99 175
61 98 174
62 99 179
61 97 171
61 98 175
62 99 179
61 98 172
62 98 173
62 98 174
61 98 174
62 98 172
62 98 176
62 99 174
62 99 174
62 98 172
61 98 173
60 95 168
61 96 169
62 97 171
62 98 173
61 97 170
59 94 162
66 96 156
101 111 132
119 119 84
111 110 66
106 106 62
112 112 70
112 111 74
95 96 66
114 113 73
93 94 63
109 110 76
115 115 76
106 109 75
107 108 74
110 110 74
116 117 80
123 122 84
107 108 75
104 107 75
112 114 82
116 118 82
115 116 83
125 125 87
116 117 83
110 111 79
118 118 83
119 120 85
131 131 91
126 127 90
124 125 87
133 133 93
126 128 90
133 132 91
138 137 94
135 135 92
136 135 92
136 135 92
136 135 93
142 142 96
149 147 97
143 143 97
145 143 93
144 143 93
145 143 94
150 149 101
153 152 101
155 152 96
149 147 99
154 151 99
154 152 99
151 148 99
152 150 98
156 153 100
162 158 101
161 157 103
164 160 103
164 161 102
164 161 102
157 155 98
166 162 102
163 160 101
168 164 104
171 166 104
160 158 103
164 160 104
168 164 106
172 166 102
172 167 105
171 167 104
171 167 104
173 168 106
174 169 102
172 167 106
170 166 103
168 164 103
170 165 101
170 166 105
173 169 107
175 169 108
170 165 98
174 169 108
171 166 100
176 170 107
172 167 101
173 168 104
173 168 104
171 166 105
172 167 101
173 167 101
174 167 101
174 169 104
174 169 104
168 164 97
173 168 103
174 168 102
174 168 101
172 167 103
172 166 103
168 164 99
173 167 100
173 168 99
174 168 104
171 165 99
172 166 97
172 167 101
171 165 100
169 164 102
171 165 101
175 169 105
174 168 101
169 163 99
172 166 102
165 160 93
168 161 97
169 163 101
167 162 93
163 158 96
165 159 92
163 158 95
164 156 88
167 162 94
165 160 95
163 157 89
154 149 84
167 161 96
164 157 91
163 156 90
159 153 89
158 152 87
151 145 84
155 149 81
158 152 85
153 147 84
159 152 84
159 152 87
151 144 82
156 150 80
151 145 76
149 143 76
148 142 79
141 136 70
159 151 83
144 138 70
146 141 70
141 135 69
135 130 66
136 130 68
133 127 63
129 123 62
140 139 57
172 195 0
173 195 0
171 194 0
175 197 0
174 197 0
171 194 0
173 196 0
174 197 0
174 198 0
172 196 0
175 198 0
172 195 0
171 195 0
173 196 0
174 197 0
171 195 0
174 198 0
173 196 0
173 197 0
172 196 0
174 197 0
171 194 0
170 194 0
175 198 0
173 197 0
173 196 0
172 195 0
174 197 0
173 195 0
172 196 0
173 197 0
172 195 0
174 197 0
174 197 0
175 198 0
173 197 0
172 196 0
173 196 0
173 196 0
172 195 0
174 197 0
173 196 0
171 195 0
175 198 0
169 193 0
172 195 0
172 195 0
173 196 0
173 197 0
172 195 0
169 193 0
173 196 0
172 195 0
173 196 0
175 198 0
173 197 0
174 197 0
173 196 0
173 196 0
172 196 0
172 196 0
172 196 0
172 196 0
172 196 0
174 197 0
169 194 0
172 195 0
172 196 0
172 195 0
170 194 0
172 196 0
174 197 0
173 196 0
174 197 0
172 195 0
173 196 0
173 195 0
172 196 0
172 195 0
173 196 0
170 194 0
174 197 0
171 194 0
169 192 0
169 192 0
174 198 0
171 195 0
171 194 0
171 195 0
172 194 0
173 197 0
170 195 0
172 195 0
172 196 0
172 195 0
171 195 0
171 195 0
173 196 0
171 193 0
171 194 0
173 195 0
171 194 0
173 196 0
172 195 0
170 194 0
174 196 0
173 197 0
163 186 51
115 142 136
66 102 169
62 99 171
62 99 171
62 99 175
62 98 170
62 99 173
62 99 175
63 99 176
62 99 173
62 99 177
62 99 179
62 99 179
62 99 176
61 98 176
62 99 179
62 98 173
62 99 174
62 99 178
62 99 179
62 99 175
63 99 178
62 99 176
62 99 180
62 99 177
62 99 179
62 99 178
62 99 180
62 99 177
62 99 181
62 99 179
62 99 177
61 98 176
62 99 178
62 99 177
62 99 178
61 99 181
62 99 180
62 99 180
62 99 180
62 99 179
62 99 179
62 99 180
62 99 181
62 99 179
62 99 180
61 98 180
62 99 180
61 99 181
62 99 180
62 99 180
62 99 180
62 99 177
62 99 180
62 99 180
62 99 181
63 100 179
62 99 180
62 99 181
62 99 177
61 98 178
62 99 181
62 99 179
62 99 181
62 99 180
62 99 180
62 99 179
62 99 180
61 99 179
62 99 180
62 99 180
62 99 179
62 99 180
61 99 178
62 99 178
61 99 181
62 99 179
62 99 179
62 99 180
61 99 179
62 99 177
62 99 179
62 99 180
62 99 179
61 99 180
62 99 180
62 99 179
62 99 180
62 99 180
62 99 178
62 99 177
62 99 181
62 99 177
62 99 179
63 100 180
62 99 178
62 99 177
62 99 179
61 99 180
62 99 181
62 99 180
62 99 175
62 99 178
62 99 180
61 98 176
62 99 180
62 99 179
62 99 179
62 99 179
62 99 179
62 99 180
61 98 173
62 98 172
62 99 177
62 99 178
62 99 179
62 99 175
62 99 178
62 99 176
62 99 171
62 99 178
62 99 176
61 98 173
62 99 178
60 97 170
61 98 175
62 98 175
62 98 173
62 99 174
62 99 179
63 99 179
61 96 169
62 98 175
61 98 173
62 98 170
62 99 176
62 98 172
62 98 172
62 98 173
61 97 170
60 95 167
60 95 164
60 95 166
73 98 150
89 99 100
109 108 74
102 101 61
114 112 72
114 113 70
110 110 69
108 109 72
107 107 68
112 111 73
108 108 73
90 94 68
104 105 72
103 105 70
100 103 74
120 121 84
99 102 74
115 117 82
106 108 78
109 110 78
106 108 78
122 123 83
105 107 76
122 124 88
121 123 87
126 125 86
123 124 87
120 121 83
119 120 83
140 138 92
126 127 88
124 125 86
134 134 93
135 134 91
140 139 94
140 139 95
141 140 95
149 146 96
148 146 97
142 141 93
135 135 89
147 145 97
145 144 94
139 137 90
143 142 94
138 138 93
139 138 92
143 142 97
159 156 101
154 151 98
158 154 98
157 154 100
156 153 100
168 163 105
161 158 103
163 160 101
164 161 104
161 158 98
163 159 101
164 161 102
164 160 100
163 159 99
165 161 101
166 162 102
169 165 102
163 160 102
165 161 98
169 164 105
168 164 105
170 165 103
170 165 104
172 166 104
172 167 104
174 169 105
168 165 103
173 168 103
174 169 106
171 166 104
176 170 106
171 165 103
173 169 106
177 171 105
175 169 103
177 170 105
177 170 104
171 166 97
168 163 100
174 170 106
173 168 103
172 167 103
175 169 105
175 169 103
175 169 104
175 169 103
175 169 103
170 164 97
173 168 103
173 167 103
173 167 100
170 164 99
170 165 99
171 165 95
170 166 102
173 167 101
175 169 100
175 169 106
174 168 98
167 163 97
170 164 95
170 165 100
168 163 95
162 157 93
171 164 98
166 160 94
166 160 93
169 162 93
166 159 93
172 165 97
160 155 92
166 160 95
165 158 93
165 158 87
162 156 90
160 155 85
168 161 90
159 153 86
162 155 87
158 152 84
161 155 87
167 160 89
162 156 89
150 145 82
159 152 85
153 147 84
154 148 80
154 148 80
154 148 80
153 147 81
147 141 76
153 147 80
149 143 69
140 134 65
146 140 72
142 137 67
131 125 61
139 134 69
139 133 64
143 136 70
124 119 56
170 191 16
172 193 0
173 195 0
171 194 0
174 197 0
175 198 0
175 198 0
173 196 0
175 198 0
172 196 0
175 198 0
173 196 0
173 196 0
174 197 0
174 197 0
174 197 0
172 195 0
172 197 0
172 195 0
174 197 0
173 197 0
174 197 0
172 196 0
173 197 0
175 198 0
174 197 0
173 196 0
172 196 0
173 197 0
172 195 0
173 196 0
174 197 0
174 198 0
169 193 0
171 194 0
172 197 0
172 195 0
172 196 0
172 196 0
172 196 0
172 196 0
173 197 0
173 196 0
174 197 0
169 193 0
174 197 0
172 196 0
173 196 0
174 197 0
174 197 0
171 195 0
171 195 0
171 195 0
172 195 0
174 197 0
172 195 0
171 195 0
172 195 0
172 195 0
173 197 0
172 195 0
172 197 0
172 195 0
173 197 0
173 197 0
170 194 0
175 198 0
172 195 0
171 195 0
174 197 0
172 195 0
174 197 0
171 194 0
169 193 0
171 195 0
172 196 0
172 196 0
172 195 0
173 196 0
175 198 0
175 198 0
170 194 0
170 193 0
175 198 0
171 195 0
173 196 0
172 196 0
173 196 0
172 196 0
173 195 0
173 197 0
168 191 0
172 195 0
173 196 0
173 196 0
172 195 0
174 197 0
173 196 0
170 193 0
170 194 0
170 194 0
170 193 0
171 194 0
169 193 0
175 198 0
173 196 0
169 192 40
128 153 121
69 104 167
63 99 172
62 98 166
62 99 174
63 99 174
63 100 176
62 99 175
61 98 173
62 99 175
63 99 171
62 99 176
62 99 178
63 100 178
63 99 178
61 98 178
62 99 178
62 99 180
62 99 179
63 100 179
62 99 180
62 99 179
62 99 176
63 100 180
62 98 174
62 99 175
62 99 180
62 99 178
62 99 178
62 99 180
63 100 181
62 99 179
62 99 179
62 99 180
62 99 179
62 99 181
63 100 180
63 100 177
62 99 178
62 99 178
63 100 180
62 99 181
62 99 180
62 99 180
62 99 180
61 98 179
61 99 179
62 99 181
62 99 181
62 99 180
62 99 179
62 99 180
62 99 181
62 99 178
61 98 178
62 99 180
62 99 179
61 99 180
62 99 181
62 99 178
62 99 181
61 99 181
62 99 181
62 99 180
62 99 181
62 99 180
62 99 180
62 99 181
62 99 179
61 99 180
62 99 180
62 99 181
61 98 178
61 98 180
62 99 181
62 99 180
62 99 179
62 99 180
62 99 180
62 99 180
62 99 181
61 98 177
61 99 181
62 99 180
61 98 179
62 99 178
63 100 181
62 99 181
62 99 180
62 99 181
62 99 179
61 99 179
62 99 179
63 99 178
62 99 180
61 98 179
61 98 179
62 99 180
62 99 180
62 99 179
62 99 181
62 99 180
62 99 178
62 99 180
62 99 179
61 98 175
62 99 176
61 98 174
63 99 177
62 99 176
62 99 178
62 99 177
63 100 181
62 99 175
61 98 176
61 98 175
62 99 178
62 99 178
62 99 176
62 98 173
61 98 175
61 98 175
62 98 175
62 98 175
62 98 175
62 99 177
62 98 172
62 99 175
61 98 175
62 98 173
62 98 170
62 98 172
62 99 175
62 99 176
62 99 175
61 96 169
61 97 164
61 97 162
62 97 168
61 96 167
60 94 166
60 95 170
62 98 171
60 95 162
64 96 159
89 106 137
90 96 86
92 94 61
103 103 68
110 110 71
110 108 71
117 116 75
111 110 72
102 103 71
116 116 80
109 110 78
95 96 67
116 116 79
97 100 69
94 96 63
107 108 76
109 112 79
119 120 83
117 117 84
114 115 80
114 116 82
101 105 77
120 121 82
116 117 82
119 120 85
117 119 84
120 120 81
127 127 86
128 128 90
130 131 90
130 129 88
127 128 90
140 139 95
134 133 89
138 137 93
132 131 87
145 143 96
142 141 92
135 135 89
136 135 86
142 141 97
151 150 100
140 140 94
144 143 94
142 141 94
146 145 97
160 157 102
155 153 100
152 150 98
155 152 97
156 154 100
149 147 96
158 155 101
160 156 97
165 161 101
162 158 104
161 158 99
167 163 104
162 158 100
171 166 104
161 158 98
171 166 105
170 164 103
163 160 103
173 167 105
173 168 103
169 163 102
172 167 105
170 166 104
171 167 107
171 166 104
170 166 104
169 164 101
165 161 96
170 165 103
171 166 101
171 167 103
175 170 105
172 166 103
176 170 106
176 171 105
175 169 104
172 167 101
176 170 103
175 169 103
176 170 106
175 170 101
171 166 99
173 168 104
175 169 103
174 169 107
175 169 101
171 166 99
171 166 99
176 171 103
170 165 101
169 163 98
168 163 97
171 165 101
171 165 101
173 166 103
175 167 97
169 163 97
168 163 97
169 163 99
165 159 91
167 162 97
174 168 101
171 166 99
170 164 99
171 165 101
171 164 98
170 164 99
166 160 95
163 158 95
168 163 98
163 157 89
162 156 87
159 154 93
168 161 92
168 162 95
158 152 84
159 152 88
171 163 92
162 156 93
160 154 87
159 153 82
163 157 87
159 153 85
154 148 84
153 148 81
158 152 80
154 148 78
149 144 81
152 146 80
149 144 77
157 150 87
144 139 73
146 140 72
150 144 80
142 136 72
143 137 75
135 129 66
144 137 79
140 133 68
136 130 68
145 138 72
122 119 54
168 188 25
170 193 0
172 195 0
172 194 0
174 197 0
172 193 0
173 196 0
175 198 0
175 198 0
174 197 0
174 197 0
173 197 0
174 198 0
176 197 0
173 197 0
171 194 0
169 192 0
173 197 0
171 195 0
174 198 0
173 196 0
173 196 0
173 197 0
174 198 0
173 197 0
172 196 0
174 197 0
174 197 0
173 196 0
173 196 0
173 196 0
173 197 0
171 196 0
173 197 0
173 197 0
171 194 0
172 196 0
171 194 0
173 196 0
169 191 0
173 196 0
174 197 0
174 197 0
169 193 0
174 197 0
170 193 0
172 195 0
173 196 0
173 196 0
171 195 0
170 194 0
173 196 0
174 197 0
173 196 0
170 194 0
174 197 0
174 197 0
174 196 0
173 196 0
172 195 0
171 195 0
171 195 0
172 196 0
174 197 0
172 196 0
174 197 0
171 195 0
172 196 0
170 193 0
171 195 0
171 194 0
171 194 0
174 197 0
172 195 0
173 197 0
174 197 0
173 196 0
172 195 0
173 196 0
169 192 0
173 196 0
171 195 0
176 198 0
169 192 0
169 193 0
169 192 0
172 197 0
172 195 0
171 194 0
172 195 0
173 196 0
173 196 0
170 193 0
171 194 0
173 196 0
170 194 0
173 196 0
170 193 0
169 193 0
170 193 0
173 195 0
169 193 0
173 196 0
174 197 0
172 195 0
171 194 18
144 169 95
80 112 156
62 98 170
62 99 168
62 98 169
62 98 171
62 99 171
62 99 175
62 99 175
62 99 173
62 99 176
62 99 177
62 99 174
62 99 173
62 99 176
62 99 178
63 99 178
62 99 178
62 99 174
62 99 179
62 99 177
62 99 177
62 99 179
62 99 174
62 99 177
62 99 180
62 99 179
62 99 179
62 99 177
62 98 174
62 99 180
63 100 179
62 99 179
62 99 180
62 99 176
62 99 177
62 99 180
62 99 181
63 100 180
61 99 178
62 99 180
61 99 178
62 99 180
62 99 179
62 99 181
62 99 179
62 99 180
62 99 180
61 98 179
62 99 180
62 99 180
62 99 180
62 99 181
62 99 181
62 99 180
62 99 181
62 99 179
62 99 179
62 99 180
62 99 181
62 99 179
62 99 179
62 99 179
61 99 181
62 99 181
62 99 181
62 99 180
61 99 179
62 99 179
62 99 180
62 99 181
62 99 181
62 99 179
62 99 180
61 98 178
62 99 179
61 98 179
61 99 179
62 99 179
62 99 178
62 99 179
62 99 181
61 98 178
62 99 180
61 99 179
62 99 179
62 99 180
61 98 175
62 99 178
62 99 181
62 99 179
62 99 180
62 99 180
62 99 180
62 99 179
62 99 176
62 99 177
62 99 180
62 99 180
62 99 180
61 98 176
62 99 179
62 99 179
62 99 179
61 99 179
62 99 176
62 99 176
62 99 179
62 99 179
62 99 179
62 99 177
62 99 179
63 99 180
62 99 176
62 99 179
61 98 175
62 99 179
62 99 178
62 99 176
61 98 177
62 99 177
62 99 176
62 99 177
62 98 172
61 98 173
62 99 175
62 99 176
62 98 174
61 98 170
62 99 178
62 99 175
62 98 174
61 98 174
61 98 170
61 97 171
62 98 172
61 97 167
63 99 173
62 98 170
62 99 175
61 98 174
61 97 169
61 97 168
61 97 169
60 95 163
60 95 161
62 93 154
81 98 124
108 111 93
110 108 67
98 99 66
110 109 70
84 88 64
96 98 70
101 102 65
112 112 74
115 114 75
98 99 66
99 100 67
112 113 77
99 102 73
85 88 66
94 97 69
102 105 76
121 121 83
107 109 79
98 101 72
115 116 80
114 115 80
107 109 78
122 122 85
117 117 79
129 130 90
115 117 82
124 124 85
130 130 88
135 135 90
133 133 91
139 138 93
131 131 89
137 135 91
136 136 93
141 140 93
149 146 97
146 144 97
144 142 93
146 144 96
150 147 96
137 137 92
149 147 96
144 142 94
145 144 90
153 151 95
150 148 97
145 145 96
158 155 100
155 153 102
160 158 102
163 159 103
159 156 99
160 157 100
159 156 98
158 155 95
159 156 100
167 162 104
170 165 106
169 164 103
170 166 105
168 163 104
171 166 106
164 161 104
171 166 106
166 161 103
171 166 103
168 164 104
171 166 103
174 169 105
169 164 102
172 167 107
174 168 102
174 169 106
175 169 104
176 171 109
169 164 101
171 166 100
172 167 101
168 163 101
169 164 97
176 169 98
173 167 99
171 166 100
176 170 106
172 166 100
169 165 101
174 168 101
173 168 101
170 165 103
171 167 102
175 169 105
171 164 100
170 165 97
175 169 101
173 167 102
172 166 97
172 165 97
172 166 99
170 164 100
171 166 99
168 163 99
171 166 101
169 164 100
171 165 96
167 162 96
170 164 96
160 155 93
172 165 101
165 160 99
167 160 94
164 159 95
170 163 97
166 161 91
168 162 95
169 163 95
165 159 94
170 163 94
159 154 87
161 156 90
168 162 97
162 155 89
165 160 90
160 154 90
163 158 93
158 152 86
160 154 88
158 152 83
156 150 80
161 155 87
155 149 79
152 146 75
150 144 78
150 144 71
154 147 74
146 139 72
149 143 75
158 151 76
148 142 74
149 143 72
145 139 67
143 137 69
133 128 63
142 137 64
135 129 62
126 122 56
139 134 64
169 190 0
173 195 0
173 196 0
171 193 0
173 195 0
172 195 0
173 196 0
171 195 0
173 196 0
175 198 0
175 198 0
170 194 0
173 196 0
174 197 0
173 196 0
172 195 0
174 197 0
175 198 0
173 197 0
173 196 0
174 197 0
174 197 0
174 197 0
172 196 0
171 194 0
173 197 0
173 197 0
173 196 0
173 196 0
175 198 0
171 194 0
174 197 0
173 197 0
171 193 0
173 197 0
172 195 0
171 195 0
173 197 0
170 193 0
172 195 0
172 196 0
172 196 0
173 197 0
172 195 0
173 196 0
173 197 0
173 196 0
173 197 0
171 194 0
173 196 0
171 194 0
173 196 0
174 197 0
171 195 0
171 195 0
175 198 0
174 197 0
168 192 0
171 194 0
171 194 0
172 195 0
171 194 0
172 195 0
174 197 0
170 193 0
174 198 0
172 196 0
172 196 0
172 194 0
173 197 0
171 195 0
169 193 0
174 197 0
169 192 0
170 194 0
173 196 0
170 194 0
175 198 0
169 193 0
171 194 0
171 195 0
173 196 0
171 193 0
169 192 0
170 194 0
172 195 0
170 194 0
171 194 0
173 196 0
172 196 0
175 198 0
173 197 0
175 198 0
171 194 0
173 196 0
172 195 0
171 194 0
172 195 0
169 193 0
168 192 0
172 196 0
169 193 0
172 196 0
169 193 0
173 196 0
165 188 47
91 121 154
62 98 167
63 99 174
62 99 170
63 99 172
63 99 173
63 99 175
63 100 173
62 99 172
62 99 176
63 100 180
62 99 174
62 99 176
62 99 178
62 98 171
63 100 178
62 99 178
61 98 174
62 99 177
62 99 172
62 99 179
62 99 178
62 99 176
62 99 178
62 99 180
63 100 178
63 99 179
61 99 180
62 99 179
62 99 176
62 99 181
62 99 176
62 99 179
62 99 181
62 99 177
62 99 178
62 98 178
62 99 180
62 99 176
62 99 180
62 99 180
62 99 178
62 99 180
62 99 180
62 99 181
62 99 181
62 99 176
62 99 180
62 99 177
62 99 179
61 99 180
62 99 180
61 99 178
62 99 181
62 99 179
62 99 181
62 99 181
62 99 180
62 99 179
63 99 180
62 99 180
62 99 181
62 99 180
62 99 181
62 99 179
62 99 180
62 99 181
62 99 180
61 99 179
62 99 180
62 99 181
61 99 181
61 98 177
62 99 180
62 99 180
61 99 180
62 99 179
62 99 179
61 99 179
62 99 178
62 99 179
62 99 180
62 99 181
62 99 178
61 98 176
62 99 180
62 99 179
62 99 181
62 99 175
62 99 178
62 99 177
62 99 178
62 99 180
62 99 178
63 99 178
62 99 180
62 99 179
61 98 177
61 98 176
62 99 180
62 99 178
62 99 177
62 99 179
62 99 181
62 99 178
62 99 177
62 99 181
62 99 178
61 98 177
61 98 176
61 98 174
62 99 178
62 99 178
62 99 178
62 99 178
61 98 177
62 99 175
63 99 177
62 99 176
62 99 181
62 99 176
62 99 177
62 98 174
62 99 177
63 99 175
62 99 176
62 99 175
62 99 175
62 99 176
62 99 177
62 98 173
62 98 174
61 97 170
62 98 175
61 97 166
62 98 173
62 97 171
61 96 166
63 99 175
62 98 173
62 98 170
61 97 171
61 97 163
61 97 169
59 93 159
60 95 163
59 93 154
72 99 155
90 102 118
88 92 76
98 98 64
93 95 63
109 109 70
95 96 66
97 99 69
98 100 73
97 100 71
107 109 77
102 104 73
107 107 74
106 108 75
113 114 80
104 105 73
111 111 77
108 110 79
108 110 79
113 113 78
110 112 77
115 116 80
111 113 80
110 111 79
109 111 79
111 114 82
123 124 85
118 119 84
125 125 86
128 128 90
142 141 95
137 136 93
139 138 90
138 136 90
139 138 95
142 141 94
136 136 88
146 145 96
133 131 86
136 135 92
144 143 95
152 150 99
149 147 93
147 146 94
149 147 97
149 147 98
152 150 98
150 148 99
162 159 101
155 153 100
157 154 101
159 155 101
160 156 101
163 159 101
162 158 100
160 156 99
160 157 100
160 156 100
165 161 100
162 158 101
168 163 101
168 164 104
170 165 101
166 162 102
167 163 103
165 161 100
165 162 102
167 163 103
172 167 105
175 170 108
174 169 105
172 168 102
172 167 105
175 169 103
174 169 103
175 170 104
176 170 103
175 169 103
173 167 99
173 168 106
174 168 101
177 171 106
177 170 101
171 166 103
173 167 99
175 169 103
170 165 96
175 169 102
173 167 94
171 166 103
173 168 99
175 168 103
172 167 101
172 167 98
170 164 98
171 166 98
174 168 99
175 169 103
172 167 100
171 166 103
165 160 88
170 164 100
173 167 101
170 164 97
168 162 96
162 157 88
171 165 99
167 161 94
173 166 102
167 161 95
171 164 93
170 163 94
168 162 96
165 159 92
170 164 97
168 162 90
161 155 87
165 159 92
168 162 94
161 154 90
163 157 91
159 153 87
166 159 90
153 147 80
155 149 88
156 150 80
156 151 83
155 149 83
158 152 86
156 149 80
154 147 80
157 150 84
142 136 72
150 143 79
157 150 77
149 143 77
155 148 80
153 146 82
148 142 72
139 134 64
148 143 70
145 138 73
144 137 70
141 135 67
132 127 60
140 134 62
119 116 54
163 184 11
170 193 0
172 195 0
173 195 0
174 196 0
171 194 0
173 196 0
173 197 0
175 198 0
172 196 0
172 196 0
171 195 0
173 196 0
170 194 0
172 196 0
175 198 0
172 196 0
172 197 0
174 198 0
173 196 0
173 197 0
172 195 0
174 197 0
171 195 0
175 198 0
173 197 0
171 195 0
169 193 0
175 198 0
173 196 0
171 194 0
170 194 0
176 199 0
173 195 0
172 195 0
170 194 0
173 196 0
172 196 0
173 196 0
174 197 0
170 194 0
172 195 0
172 196 0
171 195 0
174 196 0
172 195 0
171 194 0
173 197 0
167 190 0
175 198 0
174 198 0
172 196 0
173 196 0
175 198 0
171 195 0
171 194 0
173 197 0
172 195 0
172 196 0
172 196 0
173 196 0
173 197 0
170 193 0
173 196 0
172 195 0
171 193 0
173 196 0
170 194 0
170 192 0
172 196 0
170 193 0
170 194 0
169 192 0
170 194 0
172 195 0
172 195 0
174 197 0
172 196 0
171 195 0
169 193 0
172 196 0
173 196 0
173 195 0
171 194 0
170 193 0
171 195 0
171 194 0
170 194 0
172 195 0
168 191 0
171 194 0
170 193 0
174 197 0
173 195 0
172 195 0
168 192 0
171 195 0
171 193 0
172 195 0
173 195 0
174 197 0
168 191 0
171 194 0
175 198 0
163 186 54
129 154 121
71 105 169
62 98 168
61 98 167
62 99 173
63 99 175
63 99 176
62 99 174
63 99 174
62 99 174
62 98 170
61 98 169
62 99 173
62 98 173
63 100 178
62 98 171
61 98 172
62 99 177
62 99 178
63 100 180
62 99 178
62 99 175
62 99 175
63 100 178
62 99 177
62 99 177
62 99 178
62 99 177
62 99 180
62 99 178
62 99 178
62 99 179
62 99 180
61 98 176
62 99 178
62 99 180
62 99 180
61 98 177
62 99 181
62 99 180
62 99 179
62 99 179
62 99 178
62 99 179
61 99 181
62 99 178
62 99 179
62 99 180
62 99 178
62 99 179
62 99 180
62 99 180
63 100 181
62 99 181
62 99 179
62 99 180
62 99 181
62 99 180
62 99 178
62 99 177
63 100 180
62 99 178
62 99 180
62 99 181
62 99 181
61 99 178
62 99 180
62 99 180
61 98 178
62 99 179
62 99 180
62 99 180
62 99 179
63 100 180
61 98 178
62 99 180
61 99 181
62 99 181
62 99 180
62 99 179
62 99 179
62 99 178
62 99 176
62 99 180
62 99 181
62 99 177
62 99 180
62 99 180
62 99 179
62 99 179
62 99 180
62 99 176
62 99 179
62 99 179
62 99 176
63 99 175
62 99 178
62 99 179
62 99 178
62 99 181
62 99 180
62 99 179
62 99 179
62 99 178
62 99 180
61 98 175
62 99 178
62 99 180
61 99 178
62 99 179
62 99 177
62 99 175
62 99 178
62 98 173
62 99 179
62 99 179
62 99 176
62 99 177
62 99 178
61 98 179
61 98 172
62 99 175
62 98 173
62 99 175
62 98 175
62 98 172
63 99 174
62 98 174
62 99 176
62 98 170
62 98 173
62 99 174
61 98 172
63 99 171
62 98 173
63 99 175
62 98 174
61 97 173
62 98 172
60 96 170
60 96 162
61 97 167
61 96 168
60 95 164
61 97 168
61 97 171
59 94 160
60 95 161
58 91 155
72 97 149
100 107 109
102 103 74
81 84 58
105 104 69
93 96 67
95 96 65
111 110 73
97 99 70
90 93 69
103 103 71
96 97 68
105 107 76
107 109 77
115 115 78
106 109 76
106 108 77
100 102 70
108 110 81
110 112 79
113 115 82
113 115 82
114 115 82
114 116 81
121 121 84
125 126 87
114 116 82
113 115 79
120 122 85
130 130 88
123 124 84
132 133 90
145 144 96
137 137 90
137 137 90
136 135 88
146 144 92
128 129 88
148 146 96
142 141 89
155 152 98
145 143 91
136 136 89
150 149 96
154 152 100
152 150 97
148 147 94
151 148 94
159 156 100
153 150 96
163 159 103
163 159 99
160 157 99
161 158 102
165 161 103
158 154 99
165 160 101
169 164 106
160 157 100
167 162 101
164 159 99
169 164 103
166 162 102
166 161 99
169 164 100
168 164 103
172 167 102
172 167 104
168 163 104
173 167 103
172 167 103
175 170 107
174 168 101
171 166 102
174 168 101
173 168 104
176 169 104
175 169 104
173 167 102
173 168 103
175 169 100
171 167 101
172 166 98
174 168 104
174 168 99
174 168 103
172 167 102
175 169 104
175 168 103
176 170 104
177 171 103
173 167 97
176 170 105
174 168 101
174 168 100
172 167 97
169 163 100
171 166 99
175 168 96
176 170 105
175 168 101
173 167 100
169 165 97
168 163 98
168 163 95
169 162 98
167 161 96
167 161 93
167 161 95
168 161 92
169 162 92
170 164 95
159 154 85
172 165 96
166 160 90
162 156 90
161 156 91
165 158 90
161 155 88
168 162 94
160 153 86
170 163 96
156 150 82
164 157 86
165 159 90
159 153 85
160 154 81
162 156 87
152 148 79
148 142 80
156 149 78
145 140 72
158 151 85
140 134 71
152 146 79
151 145 75
136 131 72
143 136 76
145 138 68
142 138 67
148 142 75
124 120 56
143 137 65
137 131 65
132 125 60
133 132 54
172 194 0
174 196 0
175 196 0
173 194 0
173 196 0
171 194 0
173 197 0
174 197 0
172 195 0
169 193 0
175 197 0
172 195 0
172 196 0
172 195 0
170 194 0
173 196 0
173 196 0
174 197 0
172 195 0
173 197 0
171 195 0
172 196 0
174 197 0
173 197 0
172 196 0
171 195 0
173 197 0
172 195 0
172 196 0
173 196 0
175 197 0
175 197 0
175 198 0
168 191 0
172 196 0
173 196 0
172 194 0
172 196 0
172 196 0
173 196 0
173 197 0
173 196 0
173 197 0
171 195 0
172 195 0
172 196 0
170 193 0
172 196 0
170 193 0
168 192 0
174 197 0
169 192 0
172 195 0
171 195 0
172 195 0
171 195 0
173 196 0
173 196 0
170 194 0
173 196 0
172 195 0
174 197 0
172 194 0
171 195 0
174 197 0
173 196 0
172 195 0
169 192 0
173 196 0
172 195 0
169 193 0
174 197 0
173 196 0
172 195 0
170 194 0
171 194 0
174 197 0
173 195 0
172 195 0
171 195 0
170 194 0
173 196 0
171 194 0
172 196 0
173 196 0
171 195 0
175 198 0
171 194 0
171 195 0
171 195 0
172 196 0
173 196 0
169 193 0
169 192 0
170 192 0
168 192 0
171 193 0
169 192 0
169 192 0
172 196 0
171 195 0
173 196 0
170 194 0
169 193 0
143 168 97
71 105 161
61 98 163
62 98 170
62 99 169
62 99 171
62 98 169
63 99 172
62 99 172
62 99 174
63 100 176
62 99 179
62 99 174
62 98 168
63 99 178
62 99 178
62 99 177
63 100 177
62 99 173
63 100 178
63 100 178
62 99 178
62 99 176
62 99 176
62 99 177
62 99 178
61 98 173
62 99 177
62 99 178
62 99 175
62 99 178
62 99 177
62 99 179
62 99 179
61 98 177
62 99 179
62 99 179
62 99 179
62 99 179
62 98 178
63 100 180
61 98 178
62 99 180
61 99 180
62 99 181
62 99 179
62 99 179
62 99 177
62 99 176
62 99 180
63 100 180
62 99 180
61 98 176
62 99 180
62 99 180
63 100 179
62 99 181
63 100 179
62 99 179
61 98 177
62 99 179
62 99 181
62 99 180
63 100 180
61 99 178
61 99 180
63 99 180
62 99 179
62 99 178
62 99 180
62 99 177
62 99 181
61 99 180
62 99 179
62 99 179
62 99 180
62 99 180
61 98 177
62 99 178
62 99 179
62 99 180
62 99 179
62 99 179
61 98 177
62 99 181
62 99 176
63 100 180
62 99 181
61 99 178
62 99 179
62 99 178
61 98 177
63 100 180
62 99 178
62 99 179
61 98 179
62 99 179
62 99 178
62 99 179
62 99 177
62 99 177
62 99 179
63 99 178
62 99 178
62 99 179
62 99 179
62 99 178
63 100 179
62 99 180
62 99 173
62 98 174
63 100 178
62 99 176
62 99 180
63 99 180
62 99 175
62 99 177
62 99 175
62 99 177
62 99 179
62 99 177
62 99 176
62 98 174
62 98 173
62 99 179
62 99 175
61 98 172
61 98 173
61 98 174
62 99 175
63 99 175
61 98 172
62 98 173
62 98 172
62 98 175
62 98 172
61 97 167
61 96 161
61 98 174
61 97 172
62 99 174
60 95 162
63 99 171
61 97 168
62 97 169
61 96 167
60 96 163
61 95 168
60 96 168
61 96 165
59 93 155
67 89 133
94 99 83
96 96 62
80 83 57
102 102 69
92 95 68
89 91 66
87 90 67
87 90 65
101 104 72
86 89 65
93 96 68
95 98 70
103 106 78
107 109 76
112 114 80
105 108 77
114 114 79
113 114 79
114 115 81
107 109 80
119 120 84
122 123 85
116 116 81
122 123 85
126 126 87
115 117 82
126 126 84
128 128 86
119 120 83
124 125 84
133 134 91
135 136 92
146 143 93
141 140 91
132 132 87
133 133 86
140 139 89
142 140 93
132 132 88
146 144 94
150 148 93
148 146 96
158 155 97
162 158 100
157 153 99
154 151 99
157 154 95
153 151 95
161 157 98
148 147 93
156 154 99
160 156 100
162 158 98
160 156 95
163 160 101
165 161 103
162 158 99
167 163 103
162 159 97
169 164 105
168 163 101
161 158 95
168 163 99
170 165 101
173 167 104
169 165 104
169 164 99
165 161 100
169 164 102
169 165 101
174 167 99
170 165 98
174 168 104
171 165 101
173 167 100
174 168 100
176 170 104
172 167 103
171 166 98
177 170 103
172 167 100
175 170 106
172 167 102
173 167 99
172 167 103
174 168 103
170 165 95
175 168 98
175 169 103
173 167 99
173 167 99
171 165 99
172 165 97
170 166 98
175 169 102
169 163 97
173 167 102
172 165 99
174 168 104
169 163 93
168 162 95
169 163 95
175 168 99
168 163 94
170 165 95
165 159 94
166 160 95
169 163 98
166 159 87
170 163 96
167 160 90
168 161 93
164 159 90
164 159 92
160 154 87
161 156 84
159 153 86
165 159 90
165 159 94
160 153 81
156 150 84
167 160 88
167 160 89
156 150 83
157 151 84
153 147 80
160 154 80
152 146 80
148 142 80
151 145 77
162 155 87
153 146 81
153 147 75
150 144 76
148 142 69
143 138 64
139 133 69
144 137 73
136 131 60
139 133 69
143 138 69
137 131 64
132 126 63
139 139 54
168 189 16
169 192 0
174 195 0
173 196 0
172 195 0
172 194 0
173 197 0
171 194 0
173 196 0
173 196 0
173 197 0
173 196 0
172 196 0
171 195 0
174 197 0
171 194 0
173 196 0
173 196 0
173 196 0
174 197 0
173 196 0
173 196 0
173 196 0
172 195 0
173 196 0
174 197 0
171 195 0
174 197 0
171 194 0
172 196 0
173 196 0
174 197 0
172 196 0
172 196 0
172 196 0
172 196 0
174 198 0
171 195 0
174 197 0
173 197 0
172 196 0
174 197 0
173 196 0
173 196 0
173 197 0
171 195 0
171 194 0
173 196 0
170 192 0
174 197 0
172 195 0
172 194 0
172 195 0
173 197 0
174 197 0
172 195 0
173 196 0
172 195 0
170 194 0
170 194 0
173 196 0
173 196 0
172 196 0
170 193 0
172 195 0
173 196 0
173 196 0
170 194 0
174 198 0
171 195 0
170 194 0
175 198 0
173 196 0
171 195 0
173 196 0
172 195 0
176 198 0
172 196 0
172 197 0
173 196 0
172 196 0
173 196 0
170 194 0
171 195 0
171 195 0
173 197 0
174 197 0
171 194 0
170 194 0
170 193 0
169 192 0
171 194 0
171 195 0
170 193 0
172 195 0
173 196 0
170 194 0
170 194 0
171 195 0
171 194 0
174 197 0
167 190 0
167 191 0
161 183 67
100 128 143
63 99 169
62 99 174
63 99 170
62 99 172
62 98 168
61 98 168
62 99 175
62 99 172
62 99 170
63 99 175
62 99 178
61 98 172
62 99 176
62 99 175
62 99 175
62 99 174
62 99 176
63 99 175
63 99 176
62 99 174
62 99 178
62 98 174
62 99 178
62 99 178
63 99 177
62 99 179
62 99 176
62 99 178
62 99 178
62 99 178
63 100 179
62 99 177
62 99 179
62 99 177
62 99 177
62 99 180
62 99 180
62 99 175
61 99 179
62 99 176
62 99 180
62 99 181
62 99 179
62 99 179
61 99 179
62 99 181
62 99 180
62 99 176
62 99 180
62 99 179
63 100 181
63 99 179
62 99 180
62 99 178
63 100 180
62 99 177
62 99 181
62 99 180
63 100 179
62 99 180
62 99 179
62 99 180
62 99 180
62 99 178
62 99 178
62 99 179
62 99 181
63 100 179
62 99 180
62 99 179
62 99 180
61 99 178
62 99 179
62 99 180
62 99 178
62 99 179
62 99 180
62 99 176
61 98 179
62 99 181
62 99 179
61 98 178
62 99 178
62 99 180
61 98 177
62 99 179
61 98 178
62 99 180
62 99 178
62 99 179
62 99 177
61 98 176
62 99 178
62 99 179
62 99 177
62 99 179
62 99 178
62 99 176
62 99 178
62 99 177
62 99 181
62 99 174
62 99 176
62 99 178
62 99 180
62 99 179
62 99 177
62 99 178
62 99 180
62 99 174
63 100 180
61 98 176
61 98 179
62 99 177
62 98 174
62 99 173
62 99 177
63 99 177
62 98 174
63 100 179
62 99 174
63 99 177
63 99 175
63 99 179
62 98 174
63 99 177
62 99 177
62 99 177
61 98 174
62 98 172
62 99 176
62 99 174
62 99 176
62 99 174
62 98 172
62 99 174
62 99 175
61 98 174
62 98 174
61 97 167
62 98 170
60 96 162
62 98 170
61 97 168
61 97 168
62 98 171
61 96 165
60 95 162
60 95 165
59 93 159
61 88 140
89 99 105
91 93 70
86 88 62
85 87 60
90 92 65
86 87 61
87 90 66
91 93 68
88 91 65
85 88 60
79 84 63
93 95 67
94 97 71
96 99 73
104 107 76
109 110 77
118 118 81
105 108 80
111 112 79
108 110 76
115 116 82
108 110 76
123 124 85
122 122 84
128 127 87
117 119 80
129 130 91
124 124 84
122 122 82
127 126 82
133 133 88
133 133 90
134 134 90
134 134 90
142 141 95
134 133 89
140 140 93
144 143 94
140 139 94
150 147 90
151 149 97
148 146 95
153 150 98
153 149 94
156 153 99
154 150 92
154 151 98
161 157 99
164 161 101
150 147 91
165 161 100
158 154 96
162 158 96
160 157 95
160 157 101
162 158 97
163 159 102
164 159 100
161 157 100
168 163 103
166 162 95
169 165 100
163 160 96
168 163 97
169 164 101
168 164 96
173 167 104
170 165 104
173 168 103
172 167 102
174 169 103
168 164 97
172 167 98
172 167 103
174 168 98
169 165 96
174 168 100
174 169 102
174 168 100
175 169 102
169 164 98
175 169 101
172 167 102
170 165 98
174 168 99
176 171 105
174 169 102
174 168 99
172 167 97
175 169 104
173 168 103
171 165 99
171 165 95
172 167 99
169 163 98
170 163 93
172 166 96
172 164 97
169 163 92
165 159 93
164 160 93
173 167 100
171 164 100
169 163 95
169 163 93
171 165 97
167 160 92
170 164 93
167 161 94
168 161 89
168 162 95
167 160 90
160 154 87
161 156 89
165 158 90
170 164 93
167 160 90
156 150 80
165 158 90
154 148 83
161 155 85
164 157 88
156 151 84
151 145 77
146 141 70
156 150 81
161 155 84
158 151 85
154 147 77
155 148 79
155 149 76
149 143 76
151 145 74
146 141 68
154 147 80
150 143 75
125 120 54
141 135 71
127 121 59
147 142 68
130 125 60
137 132 58
130 124 56
125 126 41
170 191 0
172 195 0
173 195 0
174 195 0
172 195 0
173 196 0
171 194 0
171 194 0
174 197 0
173 195 0
173 195 0
173 197 0
173 197 0
174 197 0
171 195 0
173 196 0
172 196 0
174 197 0
173 196 0
171 195 0
173 196 0
172 196 0
171 194 0
171 194 0
171 195 0
170 193 0
172 196 0
174 197 0
172 194 0
172 195 0
174 198 0
172 195 0
171 195 0
174 197 0
174 197 0
173 197 0
171 194 0
173 196 0
173 196 0
171 195 0
172 195 0
172 196 0
169 194 0
175 197 0
172 195 0
172 196 0
173 197 0
173 197 0
173 196 0
172 195 0
173 197 0
173 196 0
170 194 0
174 196 0
175 197 0
170 194 0
170 194 0
172 195 0
172 195 0
172 195 0
171 195 0
172 195 0
170 193 0
171 195 0
171 194 0
173 196 0
169 193 0
173 196 0
172 196 0
174 197 0
171 193 0
170 194 0
171 194 0
174 197 0
172 195 0
171 194 0
173 196 0
171 195 0
171 195 0
174 197 0
168 191 0
170 194 0
173 195 0
170 194 0
170 194 0
172 196 0
172 195 0
171 194 0
170 193 0
171 194 0
172 196 0
168 192 0
169 193 0
171 194 0
170 194 0
173 197 0
171 194 0
173 197 0
172 196 0
173 196 0
170 193 0
173 196 0
168 192 31
135 159 113
72 106 162
62 99 171
62 99 172
62 98 169
62 99 173
63 99 175
62 99 172
62 99 175
62 99 175
62 98 168
62 99 175
61 98 172
62 99 171
62 99 174
62 98 170
62 99 174
62 99 180
62 99 177
62 99 177
63 100 179
62 99 174
62 99 177
63 100 180
62 99 178
62 99 174
62 99 179
62 99 179
62 99 176
62 99 177
62 99 179
62 99 178
62 99 180
61 99 177
62 99 179
61 98 179
63 99 178
62 99 179
62 99 177
62 99 178
62 99 177
61 98 177
62 99 179
62 99 180
63 100 180
62 99 179
62 99 180
62 99 180
62 99 178
63 100 179
62 99 178
63 100 180
62 99 180
62 99 175
62 99 179
63 100 179
62 99 180
62 99 178
61 98 177
62 99 180
62 99 179
62 99 180
62 99 179
61 99 179
62 99 180
62 99 178
61 98 179
62 99 180
62 99 179
61 98 176
62 99 177
61 99 179
62 99 180
62 99 180
62 99 180
61 99 180
62 99 177
62 99 180
62 99 178
62 99 179
63 100 180
62 99 179
62 99 179
61 98 178
62 99 177
62 99 179
62 99 180
62 99 180
62 99 176
61 99 180
62 99 180
62 99 180
62 99 180
62 99 179
61 99 179
63 100 180
62 99 178
62 99 180
63 100 181
61 98 175
62 99 176
62 99 176
62 99 178
62 99 179
62 99 177
62 99 178
62 99 172
62 99 176
62 99 177
62 99 178
62 99 177
63 99 177
62 99 180
62 99 174
63 100 179
62 99 177
62 99 172
62 99 180
62 99 175
61 98 174
62 99 176
61 98 173
62 99 174
62 98 176
62 99 179
62 99 176
62 98 175
61 97 171
62 99 172
62 99 179
62 98 169
62 98 170
61 97 171
63 99 176
62 98 174
61 97 167
61 98 170
61 97 170
62 98 174
60 97 172
62 98 173
61 97 169
62 98 171
61 96 166
62 98 171
62 98 168
61 97 166
61 97 171
61 96 164
60 95 166
61 95 159
59 94 164
59 92 156
75 96 139
81 90 96
84 88 68
88 89 61
91 92 62
94 96 67
77 81 59
90 92 64
94 97 69
101 101 70
90 93 67
91 95 67
91 94 69
94 97 71
103 104 73
101 104 73
92 93 64
102 105 75
108 109 75
110 112 80
110 113 81
120 120 83
121 122 85
110 113 81
117 119 85
116 117 78
121 122 83
120 122 82
125 126 86
122 123 82
127 128 82
124 125 85
142 141 91
125 125 84
133 132 88
140 140 93
132 132 89
146 144 89
138 137 90
145 143 95
144 142 91
145 144 94
145 144 94
147 144 92
150 148 96
155 152 98
155 151 93
152 149 91
160 156 98
165 161 99
163 158 100
154 152 98
154 152 96
166 161 102
162 158 98
167 162 97
160 156 94
169 164 102
167 164 102
166 161 95
170 164 97
169 164 99
170 165 101
167 162 97
170 165 100
166 161 98
171 165 103
168 163 101
172 166 97
170 165 97
177 170 105
176 170 105
170 165 102
176 170 102
171 166 101
172 167 97
172 168 104
174 168 96
174 168 104
174 168 101
171 166 99
171 166 96
174 169 100
171 165 98
174 168 99
174 167 99
175 169 102
175 169 102
169 163 93
176 169 101
177 170 102
174 168 99
169 163 97
170 164 95
172 166 95
166 160 94
170 165 94
169 163 96
173 167 96
170 164 97
169 163 90
168 163 93
174 166 97
170 163 93
169 162 93
167 161 95
167 160 95
167 160 93
162 157 87
168 162 91
166 159 93
170 163 94
165 159 93
166 159 85
164 158 90
154 150 75
161 155 81
167 160 90
162 155 91
159 153 84
167 161 90
158 152 78
165 158 88
160 154 79
156 150 77
160 154 84
154 147 77
161 153 84
149 143 75
161 154 83
154 149 76
157 151 80
151 144 70
156 148 75
150 144 77
140 134 67
150 143 72
136 131 60
141 135 63
139 134 61
136 131 52
139 133 61
124 119 54
137 138 51
174 196 11
171 195 0
173 195 0
171 193 0
173 196 0
171 193 0
173 197 0
174 197 0
170 193 0
172 196 0
173 196 0
171 195 0
172 196 0
174 197 0
171 195 0
173 197 0
171 194 0
173 196 0
174 197 0
172 196 0
172 196 0
171 195 0
168 192 0
174 196 0
174 197 0
173 197 0
171 194 0
171 194 0
172 195 0
174 197 0
172 195 0
174 197 0
173 197 0
174 198 0
173 196 0
174 197 0
173 196 0
173 197 0
172 196 0
175 198 0
172 195 0
174 197 0
172 196 0
170 194 0
172 195 0
172 196 0
172 196 0
172 195 0
174 197 0
172 196 0
172 195 0
172 196 0
172 195 0
173 196 0
172 195 0
171 194 0
173 196 0
171 194 0
174 196 0
171 195 0
169 192 0
170 194 0
172 196 0
171 194 0
172 196 0
172 195 0
172 195 0
171 195 0
171 195 0
170 193 0
173 197 0
175 198 0
169 193 0
174 197 0
171 196 0
173 196 0
171 194 0
171 195 0
171 193 0
172 196 0
174 197 0
172 196 0
169 193 0
170 194 0
170 194 0
170 193 0
171 194 0
171 193 0
173 196 0
172 194 0
169 191 0
167 190 0
170 193 0
171 194 0
170 193 0
168 191 0
170 194 0
167 190 0
172 196 0
168 190 0
172 195 0
171 194 18
153 177 84
97 126 150
62 98 163
62 98 164
62 99 172
62 99 172
63 99 169
62 98 172
62 98 169
62 99 170
62 99 174
62 99 177
62 99 176
62 99 176
62 99 175
63 99 177
62 99 173
62 99 173
62 99 179
62 99 177
62 99 178
62 99 176
62 99 176
62 99 176
63 100 179
62 99 174
63 99 178
62 99 177
62 99 178
62 99 174
62 99 175
62 99 176
62 99 178
62 99 179
62 99 180
62 99 180
63 99 176
62 99 180
62 99 180
62 99 177
62 99 181
62 99 180
61 99 178
62 99 176
62 99 175
62 99 181
62 99 178
62 99 180
62 99 178
62 99 178
62 99 178
62 99 177
62 99 179
62 99 178
62 99 180
62 99 177
62 99 180
62 99 177
62 99 179
62 99 178
62 99 180
62 99 179
62 99 178
62 99 178
62 99 177
62 99 178
62 99 179
62 99 180
62 99 176
62 99 177
61 98 181
62 99 180
62 99 178
62 99 181
62 99 180
61 98 177
62 99 180
62 99 179
62 99 179
62 99 178
62 99 179
61 99 181
62 99 181
63 99 179
61 98 177
61 98 178
62 99 179
62 99 179
62 99 180
63 100 180
61 99 179
62 99 179
62 99 180
62 99 176
62 99 176
62 99 176
62 99 178
62 99 174
62 99 175
62 99 178
63 100 180
62 99 178
62 99 179
61 98 174
62 99 179
62 99 177
63 100 177
61 98 175
62 99 176
61 98 174
62 98 175
62 99 179
62 99 175
62 99 175
63 100 177
62 99 178
62 99 178
62 99 177
62 99 179
62 99 174
62 99 176
62 98 170
62 99 176
61 98 175
62 99 176
62 98 174
61 98 177
62 99 177
62 98 175
61 98 172
63 99 174
62 99 174
62 99 174
62 99 174
63 100 176
61 98 170
62 98 168
62 99 174
62 99 171
62 98 171
62 99 171
62 98 171
62 98 169
62 99 173
61 97 165
61 96 168
62 98 172
62 98 174
62 97 167
61 96 165
62 97 168
60 94 161
61 96 168
60 94 157
64 95 157
68 88 126
88 93 83
94 96 65
87 90 63
95 95 63
87 90 64
79 81 57
87 92 67
80 83 61
88 92 66
102 104 75
99 101 71
90 93 65
92 96 69
89 93 68
87 92 68
106 108 76
105 107 77
118 119 83
100 102 70
116 116 75
110 111 77
98 102 72
107 109 76
120 121 82
125 125 84
124 125 83
126 127 84
135 134 89
122 123 80
137 135 89
128 128 84
139 138 90
142 141 93
139 137 90
134 135 85
141 139 89
146 144 92
144 142 87
150 147 93
150 148 94
150 147 94
151 149 93
154 151 96
147 146 93
146 145 94
157 154 99
160 156 96
159 155 97
165 160 100
163 159 97
156 153 98
162 159 103
160 156 97
165 162 103
169 164 103
166 162 101
163 159 96
167 162 95
158 155 92
166 162 99
166 162 98
168 163 99
168 163 103
169 164 101
166 161 98
170 165 97
169 164 96
171 165 102
172 166 96
174 168 100
172 166 98
170 165 97
169 165 96
172 166 99
177 170 99
173 168 100
169 164 96
172 167 100
172 166 101
173 167 99
169 165 97
173 167 101
169 163 95
174 168 104
174 168 99
173 167 101
174 167 101
178 170 100
175 169 99
175 169 97
173 167 101
172 166 99
171 165 95
171 165 95
170 165 96
169 163 94
174 168 101
167 161 91
169 162 92
167 161 92
169 163 95
168 162 92
169 163 95
166 160 88
174 166 97
168 162 93
165 159 92
165 159 91
164 158 89
166 160 89
165 160 90
158 151 86
161 155 86
165 159 90
168 162 87
165 158 91
154 148 82
163 157 86
163 156 82
163 156 85
156 151 82
158 152 82
157 151 84
157 150 84
147 141 75
150 144 78
152 146 75
156 150 84
155 149 79
146 140 75
158 152 75
144 138 73
153 147 75
145 139 76
144 137 67
145 139 69
140 135 61
138 133 65
134 129 60
139 133 62
130 125 53
130 134 47
171 195 0
173 195 0
171 192 0
172 194 0
172 194 0
174 196 0
173 196 0
171 195 0
174 197 0
173 195 0
173 197 0
174 196 0
171 195 0
174 197 0
172 195 0
173 197 0
172 195 0
173 196 0
171 195 0
173 196 0
173 196 0
173 196 0
175 198 0
171 195 0
172 195 0
175 197 0
171 195 0
172 194 0
172 196 0
172 196 0
169 193 0
174 197 0
173 197 0
173 196 0
172 195 0
173 197 0
172 194 0
173 196 0
172 195 0
172 195 0
172 195 0
172 195 0
170 194 0
172 195 0
173 195 0
175 198 0
173 196 0
173 197 0
172 196 0
171 195 0
172 196 0
174 197 0
174 197 0
169 193 0
172 195 0
172 195 0
174 197 0
173 196 0
170 194 0
169 193 0
173 195 0
171 195 0
173 197 0
169 192 0
172 196 0
172 197 0
170 193 0
171 195 0
171 194 0
171 195 0
170 194 0
171 194 0
172 194 0
173 196 0
172 196 0
173 195 0
169 193 0
172 196 0
171 195 0
175 198 0
170 193 0
170 194 0
171 194 0
171 195 0
173 196 0
172 195 0
168 192 0
169 192 0
168 191 0
170 194 0
175 197 0
172 196 0
171 194 0
170 193 0
169 192 0
172 195 0
170 193 0
171 193 0
172 195 0
170 194 0
169 191 0
164 188 44
120 146 129
62 99 168
62 98 171
63 99 171
62 99 169
62 99 171
62 98 169
63 99 175
63 99 174
62 99 172
62 99 176
62 98 171
62 99 175
62 98 169
62 98 173
62 98 170
62 99 177
62 99 178
62 99 173
62 99 173
61 98 176
61 98 176
62 99 177
63 100 181
62 99 178
62 99 178
63 100 178
62 99 179
62 99 178
63 99 179
62 99 176
62 99 177
62 99 177
62 99 178
62 99 178
62 99 181
62 99 177
62 99 178
62 99 178
62 99 179
63 100 180
62 99 178
62 99 181
62 99 178
61 98 176
62 99 176
62 99 178
63 99 180
61 99 179
62 99 179
62 99 180
63 99 179
62 99 180
62 99 178
62 99 177
62 99 180
62 99 178
62 99 181
62 99 177
62 99 179
63 99 179
62 99 180
62 99 178
62 99 180
62 99 178
63 100 179
62 99 176
62 99 175
63 100 180
62 99 178
62 99 179
62 99 178
62 99 180
61 99 180
62 99 181
62 99 181
62 99 179
62 99 180
62 99 179
62 99 179
61 98 173
62 99 178
62 99 178
62 99 179
62 99 179
62 99 177
62 99 179
62 99 181
62 99 178
62 99 178
62 99 179
62 99 178
62 99 179
62 99 178
63 99 179
62 99 177
62 99 177
61 98 175
62 99 180
62 99 176
62 99 178
62 99 179
63 100 181
62 99 176
62 99 176
62 99 176
62 99 176
62 99 176
62 99 176
61 98 175
61 98 175
62 99 178
62 99 177
61 98 173
62 99 177
62 98 176
62 99 176
62 99 178
62 99 178
62 99 178
62 99 174
62 99 177
62 99 176
61 98 170
61 99 177
62 99 177
63 99 174
62 98 172
62 99 178
62 99 175
62 98 173
63 100 178
61 98 173
63 99 174
62 99 179
62 99 171
62 98 167
61 98 172
62 98 174
61 97 167
62 98 173
61 98 166
62 98 172
61 98 168
62 98 172
62 98 169
62 98 174
61 96 161
61 97 166
60 96 164
60 96 168
61 97 168
61 96 162
60 95 165
59 94 158
62 89 133
78 89 94
84 87 62
94 93 60
83 85 59
78 81 58
71 74 52
84 87 64
89 90 60
84 88 65
78 84 60
89 93 66
93 96 66
82 86 61
104 107 76
85 89 64
95 98 71
98 101 72
108 110 77
113 116 80
103 105 72
120 122 83
127 127 87
116 117 80
114 116 80
113 116 80
119 120 80
124 124 83
133 133 84
130 131 88
121 123 81
131 131 89
134 134 86
134 134 89
138 138 89
143 141 92
141 139 91
138 137 88
152 150 95
146 144 92
144 142 91
143 141 89
143 142 90
144 142 91
152 149 88
152 150 91
155 151 96
154 151 94
156 153 93
159 155 94
157 154 96
158 155 95
162 157 97
165 160 96
160 156 96
156 153 98
166 162 98
162 159 93
162 157 97
171 165 104
167 162 100
167 162 96
168 163 97
169 165 106
168 163 97
168 163 97
172 166 99
168 163 99
172 166 96
168 163 97
170 165 99
174 169 100
173 167 104
175 168 105
169 164 99
172 167 100
172 167 97
171 166 101
173 167 95
175 169 99
175 169 103
172 167 99
172 166 97
172 166 100
173 168 103
174 167 99
174 167 98
176 169 99
171 166 95
174 168 102
176 169 101
170 163 93
176 168 98
170 164 93
169 163 92
168 162 90
169 162 95
176 169 101
171 164 95
173 165 95
170 164 90
171 164 95
168 162 95
164 158 91
165 160 86
170 163 93
166 160 88
167 161 87
170 163 93
163 157 90
161 156 87
168 161 95
168 160 93
165 159 91
164 158 92
169 162 90
165 158 87
163 156 86
165 158 89
166 159 87
155 149 83
160 152 84
149 144 70
153 147 80
159 152 84
159 153 84
153 146 79
164 157 87
148 143 75
152 147 66
152 145 74
145 140 73
154 148 75
145 139 70
149 144 67
145 138 68
149 142 71
141 136 63
137 131 63
133 129 58
124 120 57
130 125 57
145 152 48
170 192 0
173 196 0
171 192 0
173 196 0
173 196 0
171 193 0
175 198 0
172 195 0
176 198 0
172 195 0
172 196 0
173 196 0
171 195 0
174 197 0
172 194 0
173 196 0
171 193 0
171 194 0
171 195 0
172 196 0
172 196 0
170 193 0
171 195 0
174 197 0
171 194 0
173 195 0
174 197 0
170 193 0
173 196 0
174 196 0
174 197 0
172 195 0
172 196 0
173 196 0
170 193 0
170 193 0
174 197 0
172 196 0
174 197 0
171 195 0
173 196 0
173 196 0
174 197 0
169 193 0
173 195 0
170 194 0
169 192 0
174 197 0
170 194 0
170 193 0
171 194 0
171 194 0
174 196 0
172 196 0
170 193 0
173 196 0
169 193 0
174 197 0
172 195 0
173 197 0
170 194 0
170 194 0
172 195 0
173 196 0
168 193 0
171 194 0
171 195 0
171 195 0
171 195 0
174 197 0
171 194 0
172 196 0
170 194 0
169 192 0
172 195 0
172 196 0
171 194 0
170 193 0
170 194 0
173 196 0
172 196 0
171 195 0
172 195 0
166 190 0
168 192 0
171 195 0
170 194 0
172 194 0
174 197 0
172 195 0
171 194 0
171 194 0
170 194 0
172 196 0
170 194 0
173 196 0
169 192 0
174 197 0
168 192 0
172 195 0
169 192 0
140 165 103
77 110 157
63 99 167
62 98 164
62 99 171
63 99 165
63 99 176
62 99 170
62 99 170
62 98 171
62 99 172
63 100 177
62 99 174
62 99 178
61 98 175
62 99 170
62 98 170
62 99 177
63 100 180
62 99 178
62 99 173
63 99 174
62 99 175
62 99 177
63 100 176
62 99 173
62 99 178
61 98 176
62 99 175
62 99 176
62 99 180
63 100 177
61 98 172
63 99 179
62 99 176
63 99 176
62 98 175
62 98 172
62 99 177
62 99 178
62 99 176
62 99 179
62 99 179
62 99 179
62 99 178
62 99 176
62 99 179
63 100 181
62 99 179
63 100 181
62 99 179
62 99 178
62 99 177
61 98 176
62 99 178
61 98 176
62 99 181
62 99 179
61 99 177
62 99 179
62 99 180
62 99 179
62 99 176
62 99 181
62 99 180
63 100 180
62 99 179
62 99 177
62 99 178
62 99 178
63 100 180
62 99 179
62 99 178
62 99 179
62 99 179
63 100 179
62 99 181
62 99 177
61 98 176
63 99 178
62 99 179
63 100 179
62 99 178
62 99 180
62 99 180
62 99 176
62 99 179
62 99 180
62 99 179
62 99 180
62 99 177
62 99 177
61 99 178
62 98 174
62 99 178
62 99 179
62 99 175
62 99 177
62 99 178
62 99 180
62 99 176
62 99 178
61 99 176
62 99 180
62 99 181
63 100 179
62 99 179
62 99 176
61 98 175
62 99 176
62 99 175
62 99 177
62 99 178
62 99 180
63 100 178
62 99 176
62 99 178
62 99 174
61 98 174
62 99 175
62 98 175
62 99 175
61 97 172
62 99 172
61 98 173
62 99 178
62 99 178
62 98 170
62 99 174
63 99 178
63 100 178
62 99 172
62 99 175
61 98 168
63 99 178
62 98 173
63 99 174
61 98 172
61 98 168
61 97 165
62 99 174
61 98 170
62 98 172
61 96 161
62 98 169
62 98 170
61 96 166
62 98 168
62 97 171
62 97 169
60 96 168
62 98 166
61 95 160
61 97 167
60 95 165
60 94 160
60 93 157
69 91 128
83 89 76
92 93 63
78 82 57
84 86 57
73 76 55
78 82 61
92 93 64
82 84 59
84 88 66
84 90 66
94 96 69
97 99 72
81 86 64
103 105 73
100 104 74
113 114 81
98 101 71
114 115 76
99 103 75
102 105 72
115 116 82
112 114 77
113 114 77
120 122 84
120 121 84
128 127 85
123 124 84
115 117 80
126 126 84
134 134 86
137 137 89
134 134 87
139 138 94
122 123 82
144 143 93
138 137 88
145 143 94
142 141 93
147 144 91
141 140 88
147 144 92
153 150 94
156 152 96
151 148 96
157 153 97
152 149 94
152 150 95
157 154 98
155 152 91
161 157 98
158 154 93
164 159 99
162 158 96
161 158 96
161 157 97
164 159 97
166 161 97
167 162 95
164 160 100
163 159 98
168 163 99
165 160 94
165 160 96
169 164 99
164 160 93
171 166 103
170 165 98
170 164 95
171 166 100
169 164 94
171 165 97
177 170 104
167 163 95
172 166 99
172 167 96
174 167 99
173 168 102
175 168 96
173 167 101
169 164 97
173 167 93
171 166 97
173 166 95
174 168 98
175 169 99
171 166 96
174 168 98
170 164 96
171 165 97
174 169 103
169 163 93
170 163 94
168 162 93
164 159 87
172 166 95
173 167 99
173 167 96
168 162 93
168 163 97
174 168 99
173 166 98
164 158 88
167 160 87
169 162 88
169 163 99
167 160 87
169 163 92
166 160 94
163 157 87
165 157 88
164 157 89
167 160 92
167 160 89
159 154 84
162 156 84
165 158 86
161 155 82
165 158 91
155 148 80
155 148 81
154 149 79
155 148 75
151 145 79
155 149 74
154 148 77
154 148 75
146 140 69
151 145 73
153 146 82
150 144 72
148 141 68
148 142 74
136 130 60
141 136 68
146 140 68
136 130 64
131 126 58
139 133 63
143 138 62
127 122 53
146 152 41
170 191 0
172 194 0
169 191 0
170 192 0
173 195 0
173 197 0
173 196 0
171 195 0
174 197 0
172 195 0
172 196 0
173 197 0
175 198 0
173 197 0
173 196 0
173 196 0
175 198 0
173 196 0
173 196 0
168 192 0
174 197 0
173 196 0
172 195 0
173 196 0
173 196 0
171 195 0
175 198 0
174 197 0
175 198 0
172 195 0
171 194 0
169 192 0
174 197 0
171 195 0
172 196 0
172 196 0
172 196 0
173 196 0
170 194 0
173 196 0
171 196 0
174 197 0
174 196 0
171 195 0
174 196 0
173 196 0
174 197 0
170 193 0
171 195 0
173 197 0
170 194 0
171 194 0
169 192 0
173 197 0
171 194 0
168 191 0
170 194 0
174 196 0
171 194 0
174 197 0
173 197 0
173 196 0
174 197 0
171 195 0
172 196 0
169 192 0
170 193 0
171 194 0
173 196 0
171 194 0
170 193 0
174 197 0
173 196 0
173 197 0
173 196 0
172 195 0
173 196 0
167 190 0
172 195 0
172 196 0
172 195 0
169 192 0
171 195 0
172 195 0
171 195 0
171 195 0
168 191 0
173 197 0
171 193 0
172 195 0
172 196 0
171 194 0
172 196 0
166 190 0
171 194 0
172 195 0
171 195 0
171 194 0
170 195 0
172 195 0
164 187 54
100 128 133
62 98 165
63 99 169
63 99 167
62 99 173
62 99 171
63 99 167
62 98 171
62 99 174
61 98 170
62 99 174
62 99 173
62 99 174
61 98 172
62 99 175
62 99 176
62 99 174
62 99 176
62 99 173
61 98 176
64 100 180
62 99 174
62 99 176
62 99 176
62 99 176
62 99 175
62 99 178
61 99 178
62 99 175
61 99 177
62 99 176
62 99 178
62 99 177
63 100 179
62 99 178
62 99 179
62 99 178
63 100 178
62 99 176
62 99 177
62 99 174
61 98 177
62 99 179
62 99 177
62 99 179
62 99 179
63 99 177
62 99 180
62 99 179
62 99 176
62 99 180
62 99 176
62 99 179
62 99 180
62 99 177
62 99 175
62 99 179
61 99 179
62 99 180
62 99 180
62 99 179
62 99 176
63 100 179
63 99 180
62 99 176
62 99 180
62 99 179
62 99 178
62 99 178
62 99 179
62 99 177
62 99 178
62 99 177
62 99 180
62 99 179
62 99 178
63 100 180
62 99 176
62 99 178
61 99 179
62 99 180
62 98 175
62 99 179
63 100 180
62 99 179
62 99 181
62 99 180
62 99 176
62 99 174
61 99 177
61 98 174
62 99 176
62 99 181
62 99 181
63 100 179
62 99 178
62 99 178
62 99 176
63 99 178
62 99 178
61 98 176
62 99 177
63 100 180
62 99 176
61 98 176
62 99 179
62 99 176
61 98 178
62 99 178
62 98 175
62 99 174
62 99 176
62 99 180
62 99 178
62 99 178
62 99 175
62 99 175
61 98 169
62 99 175
62 99 173
61 99 177
62 99 176
62 99 178
62 98 175
62 99 173
62 98 172
63 99 176
62 99 176
62 98 171
62 99 178
62 99 176
62 99 177
62 99 176
62 98 173
62 98 172
61 97 169
62 99 174
62 99 171
62 98 173
62 98 176
61 97 170
61 97 172
61 97 170
61 98 169
62 98 173
61 97 170
61 97 173
61 97 169
62 97 167
61 95 156
61 97 166
61 96 166
61 96 160
61 96 164
60 94 160
61 96 162
61 95 164
62 92 149
63 79 100
78 82 64
73 78 57
75 78 54
67 73 54
64 71 54
87 89 63
73 78 58
94 97 68
81 83 61
92 94 66
86 91 65
85 89 66
108 109 76
109 111 74
108 108 75
105 106 72
95 99 73
100 104 71
98 102 70
99 102 71
120 121 80
104 107 73
118 120 83
119 120 81
132 131 87
121 122 79
126 127 85
126 127 82
138 137 90
130 130 84
137 136 91
132 131 85
134 133 87
131 131 83
145 142 88
146 144 90
144 142 92
141 140 89
145 143 93
142 140 90
150 148 90
151 148 93
158 153 95
157 153 95
153 151 95
155 152 93
157 154 93
160 156 97
159 156 94
156 152 93
162 158 95
159 155 93
161 158 94
161 157 94
162 158 96
164 159 96
160 156 95
162 157 89
165 161 96
169 164 96
166 162 96
165 161 99
169 163 99
167 163 96
168 163 90
171 165 96
171 166 102
173 167 98
168 163 96
171 165 99
171 166 99
174 168 99
170 166 98
172 166 100
167 163 95
171 165 91
169 164 94
178 171 104
172 166 98
171 165 98
174 168 98
171 165 99
171 166 96
172 167 98
172 165 94
173 167 100
171 165 98
171 166 97
171 165 93
173 166 93
168 162 94
170 165 97
170 163 95
167 162 96
171 164 93
168 162 90
169 162 93
168 162 90
173 165 95
171 163 94
169 163 95
166 160 90
163 157 84
162 157 87
166 160 87
168 162 90
167 160 81
161 155 84
169 162 90
169 163 94
158 152 86
169 162 87
160 153 80
166 159 85
163 157 91
155 149 77
154 150 83
156 152 74
147 141 72
162 155 84
158 152 78
154 149 80
156 150 82
155 148 76
152 146 73
145 140 68
153 147 80
154 147 76
151 144 74
153 146 76
149 143 75
150 144 65
140 134 69
134 129 60
144 138 72
144 138 64
134 129 58
137 132 59
128 123 54
146 157 37
171 192 0
172 192 0
173 196 0
173 194 0
171 192 0
171 193 0
174 197 0
172 196 0
174 197 0
170 194 0
171 195 0
173 196 0
171 194 0
172 195 0
175 198 0
174 196 0
173 197 0
172 196 0
174 197 0
173 196 0
171 196 0
175 198 0
173 196 0
172 195 0
171 194 0
172 195 0
173 196 0
173 197 0
174 198 0
174 198 0
173 196 0
173 196 0
175 198 0
174 197 0
174 197 0
170 193 0
172 196 0
171 195 0
173 196 0
174 198 0
171 194 0
172 195 0
171 195 0
175 198 0
171 195 0
172 194 0
170 194 0
170 192 0
173 196 0
170 194 0
171 195 0
170 194 0
172 195 0
171 195 0
173 196 0
173 197 0
173 196 0
171 194 0
171 195 0
172 195 0
175 197 0
175 198 0
171 195 0
175 198 0
172 195 0
172 195 0
174 197 0
169 192 0
172 195 0
171 195 0
172 194 0
174 197 0
171 195 0
169 192 0
172 195 0
171 194 0
171 194 0
173 196 0
172 196 0
173 196 0
171 194 0
173 196 0
170 194 0
171 194 0
170 195 0
170 194 0
172 195 0
171 194 0
171 195 0
170 194 0
170 194 0
170 194 0
168 190 0
172 195 0
173 196 0
170 193 0
172 195 0
171 194 0
173 196 0
171 194 25
137 161 110
66 101 166
62 98 162
62 98 165
62 99 167
62 99 174
62 99 168
62 98 169
62 98 167
63 100 175
62 98 172
63 99 176
63 99 173
63 99 174
61 98 171
63 99 174
61 98 172
62 98 171
62 99 175
63 99 175
62 99 178
62 99 173
61 98 169
62 99 177
62 99 179
63 99 173
62 99 174
62 99 176
62 99 177
62 99 173
61 99 178
62 99 176
63 100 178
62 99 176
62 99 177
62 99 174
63 100 177
62 99 169
62 99 175
63 100 181
62 99 179
62 99 175
63 100 179
62 99 178
62 99 177
62 99 178
62 99 180
63 99 179
62 99 179
62 99 178
62 99 180
61 98 179
62 99 178
62 99 179
62 99 180
62 99 179
62 99 177
62 99 180
62 99 178
62 99 176
62 99 178
62 99 178
62 99 179
62 99 177
62 99 181
62 99 180
62 99 177
62 99 177
62 99 180
62 99 180
62 99 178
62 99 179
63 99 180
62 99 180
62 99 177
62 99 177
61 98 174
63 99 177
63 100 179
62 99 177
61 98 175
62 99 177
62 99 177
62 99 177
62 99 177
62 99 179
61 98 174
62 99 177
62 99 180
62 99 180
62 99 178
62 99 176
62 99 180
62 99 178
62 99 176
63 100 178
62 99 178
62 99 176
62 99 178
62 99 176
62 99 180
62 99 177
62 99 177
62 99 179
62 99 175
62 99 177
62 99 176
62 99 181
62 99 175
62 99 177
62 99 172
62 99 175
61 98 175
62 99 175
62 99 177
62 99 176
62 99 177
62 99 181
62 99 178
62 99 171
62 99 175
62 99 176
61 98 179
62 99 177
62 99 176
62 99 174
62 99 175
61 98 169
62 99 174
63 99 176
61 98 173
62 99 170
62 98 169
62 99 173
62 99 170
61 98 171
61 98 170
62 99 179
61 98 167
62 98 170
63 99 174
62 99 174
63 99 171
62 98 170
62 98 171
62 97 168
62 98 172
61 97 167
62 97 169
61 96 163
61 96 163
61 97 166
61 96 169
62 97 168
61 96 166
60 94 157
61 97 168
59 94 158
61 95 159
72 93 132
78 85 82
65 69 47
69 73 52
75 79 57
83 86 62
71 75 53
70 76 56
81 86 61
84 88 63
88 91 63
81 85 57
96 99 71
84 89 64
88 92 67
92 96 70
97 101 72
104 106 71
108 110 72
105 108 73
100 103 72
111 113 78
113 114 81
114 117 82
111 112 72
110 113 78
120 120 77
120 121 83
132 131 86
118 120 81
129 129 80
131 130 84
143 142 91
137 136 86
143 142 90
129 129 80
143 141 91
142 140 89
147 145 91
137 136 88
142 140 86
151 148 88
150 147 90
146 143 88
149 147 90
158 154 92
151 149 93
150 147 95
156 153 96
158 154 96
152 150 93
151 148 89
159 156 98
162 157 94
153 150 89
160 156 90
170 164 99
166 161 95
162 158 96
167 162 96
172 166 99
171 166 95
165 160 95
166 161 92
168 162 94
168 163 98
169 163 98
169 163 101
170 164 97
165 161 93
175 169 102
169 164 94
175 168 99
165 159 86
171 165 98
171 166 99
174 168 100
171 166 99
168 163 94
170 165 97
173 167 99
172 166 96
170 165 95
172 165 99
173 167 100
171 164 89
172 166 95
169 163 90
169 163 95
169 164 90
170 164 95
174 167 92
167 161 90
171 164 94
169 164 95
171 165 95
164 158 88
168 162 95
166 160 92
172 165 95
172 165 95
167 159 87
168 162 89
169 162 93
166 160 86
167 161 92
165 158 84
160 155 86
172 165 95
170 163 95
169 163 90
165 158 85
159 152 77
159 152 80
161 154 83
157 151 80
153 148 80
165 158 85
161 155 80
157 151 83
161 153 83
157 151 78
152 145 73
162 155 80
153 148 70
150 145 74
148 142 65
149 143 71
158 151 76
151 145 68
145 139 75
146 140 70
142 135 66
140 135 59
144 138 71
129 124 61
137 132 57
138 132 65
132 128 54
135 131 49
150 162 30
171 192 0
172 193 0
172 194 0
171 192 0
172 195 0
172 193 0
171 195 0
173 196 0
172 195 0
174 197 0
173 196 0
171 195 0
173 197 0
173 196 0
173 196 0
172 196 0
172 196 0
173 196 0
171 195 0
171 195 0
171 193 0
174 197 0
172 195 0
172 195 0
173 197 0
173 197 0
170 194 0
170 193 0
173 196 0
172 195 0
171 194 0
173 197 0
171 194 0
171 195 0
174 197 0
173 197 0
172 195 0
171 195 0
168 191 0
172 195 0
173 195 0
172 195 0
174 197 0
171 195 0
171 195 0
172 196 0
173 196 0
174 197 0
169 193 0
173 196 0
171 194 0
172 194 0
171 194 0
173 196 0
171 194 0
174 197 0
171 195 0
171 195 0
171 194 0
170 193 0
170 194 0
168 192 0
172 195 0
171 194 0
170 194 0
168 192 0
170 194 0
172 196 0
173 196 0
172 195 0
170 193 0
174 197 0
173 195 0
173 196 0
168 192 0
170 193 0
171 194 0
173 197 0
172 195 0
169 193 0
173 196 0
171 194 0
172 194 0
170 193 0
168 191 0
173 196 0
173 197 0
172 196 0
170 194 0
172 196 0
169 193 0
171 194 0
167 191 0
172 196 0
171 195 0
171 195 0
167 191 0
171 194 0
171 195 0
163 186 60
103 132 144
62 98 166
62 98 165
62 98 162
61 97 163
62 98 168
62 99 174
62 98 165
62 98 167
62 99 174
62 99 173
62 98 169
62 99 172
62 98 170
63 99 176
62 98 166
62 99 174
62 99 173
62 99 172
62 99 175
63 99 175
62 99 175
61 98 171
62 98 172
62 99 172
62 99 175
63 99 177
62 99 177
63 100 177
61 99 178
62 99 180
62 99 174
62 99 178
62 99 177
62 99 174
62 99 177
62 99 179
61 99 179
60 97 172
62 99 177
62 99 179
62 99 180
63 100 178
62 99 176
62 99 179
62 99 177
63 99 179
62 99 177
62 99 174
61 98 177
62 99 178
62 99 177
61 99 178
62 99 178
62 99 178
62 99 178
62 99 176
61 98 176
62 99 180
62 99 178
61 99 180
62 99 178
62 99 178
62 99 179
62 99 177
61 98 176
62 99 179
62 99 180
62 99 180
62 99 180
62 99 177
61 99 177
61 98 178
62 99 179
62 99 179
62 99 177
62 99 179
62 99 178
62 99 178
63 99 177
61 98 175
62 99 178
62 99 178
63 100 178
62 99 177
62 99 176
62 99 176
62 99 180
62 99 179
62 99 175
62 98 173
62 99 175
62 99 178
61 99 176
62 99 179
63 99 177
61 98 176
62 99 175
62 99 175
62 98 170
62 99 176
62 99 180
62 99 178
62 99 178
61 98 175
62 99 177
62 99 174
62 99 173
62 98 173
62 99 175
62 99 178
63 100 178
62 99 178
63 100 180
62 99 174
62 99 176
62 99 173
62 98 174
62 99 176
62 98 172
62 99 173
63 99 179
63 99 176
62 99 176
62 99 175
63 99 176
62 98 175
63 99 175
62 98 169
62 99 174
62 99 173
62 99 173
61 98 166
62 98 172
63 99 173
63 99 172
62 98 171
61 98 172
62 98 171
62 98 170
62 98 167
62 99 176
61 98 171
62 98 168
61 98 169
62 98 171
61 96 160
63 99 169
62 98 168
61 96 162
62 97 170
61 97 166
61 97 165
61 96 164
62 97 170
60 95 162
60 93 157
60 94 159
60 94 155
61 93 153
68 85 113
73 77 59
62 67 48
67 72 52
85 88 64
69 74 57
82 85 60
77 80 58
81 86 64
75 80 59
66 74 57
90 94 69
74 80 59
90 94 69
94 99 70
105 107 76
99 103 73
93 98 69
101 104 71
96 99 64
97 100 70
117 117 79
116 117 77
104 107 72
118 119 79
124 125 81
118 118 75
123 124 85
129 127 78
115 118 77
130 130 83
130 130 85
136 135 84
132 131 81
130 130 84
145 143 92
145 143 91
140 139 89
143 141 88
141 139 87
140 139 87
152 149 94
159 155 97
156 153 91
146 143 87
152 148 92
149 146 87
150 148 91
152 149 90
159 155 95
160 157 96
158 155 93
161 157 93
164 160 96
156 153 95
165 161 92
161 156 92
161 157 96
165 161 95
163 158 97
161 157 92
170 163 94
172 166 99
165 161 93
170 164 100
168 162 95
166 162 98
172 166 97
171 165 97
165 161 93
173 167 101
171 166 98
171 165 94
174 168 102
171 165 91
167 162 89
173 167 98
168 163 96
171 165 91
169 163 92
173 167 94
170 165 95
168 162 93
172 166 95
171 165 96
175 168 97
174 167 96
168 162 95
166 160 85
174 167 99
171 165 93
174 167 95
168 163 93
171 164 87
173 166 98
168 162 92
170 163 92
169 162 93
162 156 85
166 160 90
165 159 87
163 157 87
163 158 88
168 162 93
165 158 87
170 164 88
170 163 93
154 149 86
162 156 84
167 160 89
163 156 84
163 157 78
162 155 85
165 158 87
167 160 85
163 155 84
161 155 85
154 148 72
157 150 84
155 149 75
154 149 74
157 151 84
151 145 77
156 149 75
158 152 79
151 144 68
144 138 74
154 148 80
152 146 72
145 140 65
132 127 62
140 134 68
158 150 80
146 140 66
150 144 68
133 127 59
143 137 66
129 124 51
134 133 49
153 166 32
176 198 0
168 191 0
173 196 0
173 195 0
171 194 0
172 194 0
174 197 0
173 196 0
172 196 0
175 198 0
173 196 0
169 193 0
173 196 0
172 196 0
171 194 0
170 194 0
172 195 0
171 195 0
174 197 0
172 196 0
175 198 0
171 193 0
173 196 0
174 197 0
171 195 0
173 196 0
173 196 0
172 196 0
175 198 0
171 194 0
175 197 0
172 196 0
172 196 0
173 196 0
170 194 0
171 195 0
172 195 0
171 195 0
172 195 0
171 194 0
174 196 0
170 193 0
172 195 0
173 197 0
172 195 0
170 193 0
173 196 0
172 196 0
173 196 0
173 197 0
173 196 0
170 194 0
172 195 0
171 194 0
175 197 0
172 196 0
171 195 0
171 195 0
167 191 0
174 197 0
167 190 0
172 195 0
170 194 0
167 191 0
174 196 0
169 193 0
171 195 0
170 194 0
170 192 0
170 193 0
172 195 0
172 195 0
173 196 0
170 193 0
170 193 0
173 196 0
167 191 0
170 194 0
172 196 0
171 194 0
171 194 0
171 194 0
166 189 0
172 195 0
171 194 0
172 195 0
174 197 0
175 198 0
172 195 0
170 193 0
172 195 0
169 193 0
169 192 0
168 192 0
173 196 0
172 196 0
168 192 0
169 192 0
173 197 0
135 160 102
74 107 164
62 99 167
62 98 165
62 98 168
62 98 169
62 98 167
61 98 169
62 99 171
62 99 171
62 99 170
62 99 173
62 98 168
62 99 172
62 98 171
62 99 173
62 98 170
62 99 179
61 98 175
62 98 168
62 99 175
63 99 172
62 99 173
63 99 174
62 99 176
62 98 172
62 99 177
62 99 175
62 99 173
61 98 176
62 98 175
62 99 179
62 99 175
61 98 173
62 99 175
63 99 178
62 99 178
62 99 174
62 99 177
62 99 178
63 100 179
62 99 179
62 99 177
62 99 179
62 99 179
62 99 178
62 99 175
61 98 177
61 99 177
62 99 181
63 100 180
62 99 177
62 99 180
62 99 179
62 99 175
62 99 179
62 99 179
62 99 176
62 99 176
62 99 181
63 100 180
62 99 180
63 100 179
62 99 176
62 99 177
63 99 175
62 99 178
62 99 177
62 99 178
62 99 177
62 99 178
62 99 178
62 99 179
62 99 176
61 98 178
62 99 177
62 99 177
62 99 178
61 98 179
61 98 175
62 99 178
62 99 178
62 99 177
63 99 179
62 99 177
62 99 178
62 99 177
62 99 179
62 99 177
63 99 177
62 99 175
62 100 181
62 99 176
62 99 179
62 99 177
62 99 179
62 99 174
62 99 178
61 98 176
62 99 175
62 98 173
62 99 178
62 99 180
61 98 177
62 99 177
62 99 177
62 99 174
61 98 175
62 99 176
62 99 175
63 99 179
62 99 177
62 99 172
62 99 175
62 98 174
62 99 175
62 99 176
62 99 178
62 99 178
62 99 174
62 98 173
62 99 179
63 99 178
62 99 175
62 99 175
62 99 176
63 100 178
62 99 174
62 99 173
61 98 175
62 99 172
62 98 170
61 98 172
62 98 177
62 98 172
61 98 169
63 99 174
63 99 172
62 99 172
62 98 172
62 98 169
62 98 168
62 98 175
63 99 170
61 98 166
63 99 174
62 98 170
62 98 167
63 99 172
61 96 169
61 98 169
62 98 167
62 97 166
61 97 162
61 96 162
61 97 165
61 97 162
61 96 166
61 96 165
59 93 154
60 95 165
64 92 141
67 74 74
64 69 49
81 84 59
64 69 51
69 73 53
53 61 45
78 82 60
69 75 54
81 86 62
75 79 56
70 76 57
88 92 68
70 76 58
92 95 65
83 87 61
85 89 62
98 101 70
101 103 70
104 107 71
115 116 77
110 113 73
112 114 78
122 122 80
115 116 74
118 120 74
116 118 81
130 128 76
126 127 86
130 130 84
124 125 82
136 135 80
143 141 91
129 129 84
136 134 83
134 132 84
140 138 87
142 141 88
144 141 91
146 143 87
145 143 88
146 143 90
140 139 86
153 150 88
154 151 94
159 156 95
154 150 94
151 147 82
162 157 93
158 154 90
166 161 95
165 160 96
161 157 92
162 157 89
158 155 93
160 156 96
162 158 94
166 161 96
166 160 96
160 156 93
164 160 94
160 156 90
168 162 96
168 163 98
169 164 99
168 162 91
170 164 94
169 163 94
169 164 94
174 168 99
170 164 96
169 163 94
171 165 95
172 166 96
173 166 97
176 169 98
167 162 90
175 169 94
174 168 99
168 162 95
170 164 93
176 168 97
172 166 98
173 166 93
172 166 93
174 167 95
172 166 93
172 166 90
168 162 92
168 163 86
170 163 94
170 164 92
165 160 84
168 162 87
171 164 93
163 157 88
170 163 92
168 162 88
170 163 88
172 165 96
167 160 90
160 155 85
170 163 92
159 152 81
162 156 89
171 164 95
160 154 83
168 161 91
161 155 88
166 159 89
163 157 83
157 151 80
167 160 90
167 161 89
162 156 80
156 151 80
164 157 83
159 152 82
148 142 70
157 151 75
149 143 73
153 147 79
154 147 77
155 149 76
150 144 69
149 143 75
146 141 72
148 142 72
147 142 69
152 146 75
139 134 65
143 137 64
140 133 62
130 124 59
133 129 60
140 134 58
132 127 45
133 128 59
132 134 42
156 169 32
172 195 0
174 196 0
172 195 0
171 194 0
172 193 0
173 195 0
172 196 0
171 195 0
172 195 0
175 198 0
174 197 0
173 197 0
169 193 0
171 194 0
172 196 0
174 198 0
173 196 0
174 197 0
173 195 0
174 197 0
172 195 0
173 196 0
174 197 0
171 195 0
173 197 0
171 194 0
170 194 0
172 195 0
169 192 0
172 196 0
172 195 0
171 194 0
174 197 0
173 197 0
170 192 0
171 195 0
175 198 0
173 196 0
171 195 0
173 196 0
171 195 0
169 193 0
172 196 0
171 194 0
171 195 0
171 195 0
170 194 0
174 197 0
174 197 0
173 196 0
170 193 0
173 197 0
171 195 0
171 195 0
174 197 0
168 191 0
171 195 0
169 193 0
169 192 0
172 196 0
171 195 0
169 193 0
173 196 0
172 195 0
172 196 0
172 194 0
171 194 0
171 195 0
173 197 0
173 196 0
168 192 0
171 195 0
171 195 0
171 194 0
170 193 0
171 194 0
169 193 0
171 195 0
168 191 0
172 195 0
172 195 0
169 192 0
172 196 0
173 195 0
172 195 0
169 193 0
168 191 0
172 196 0
171 195 0
169 192 0
170 193 0
170 193 0
168 192 0
166 189 0
170 194 0
174 196 0
172 196 0
171 193 0
159 183 54
96 124 148
62 98 161
61 97 163
62 99 171
62 99 170
62 98 166
63 99 172
61 98 166
62 99 170
62 98 164
62 99 176
63 99 168
62 99 172
62 99 172
62 98 174
63 99 171
63 99 178
62 99 176
62 99 176
62 99 172
62 99 171
61 98 174
62 99 174
62 99 173
62 99 174
61 98 168
62 99 179
62 99 176
62 98 174
63 99 178
62 99 177
62 99 176
63 99 175
62 99 175
62 99 177
62 99 170
63 100 178
62 99 175
62 99 177
62 99 178
62 99 179
63 100 180
62 98 174
62 99 177
63 100 181
62 99 176
63 100 177
61 98 178
62 99 178
62 99 178
62 99 180
62 99 180
62 99 178
62 99 176
62 99 178
62 99 176
62 99 179
62 99 178
62 99 177
62 99 177
62 99 177
62 99 180
62 99 177
62 99 178
62 99 180
63 100 179
63 100 180
63 100 180
62 99 179
62 99 179
62 99 177
62 99 173
62 99 179
62 99 176
62 99 178
62 99 177
62 99 176
62 99 178
63 100 180
62 99 179
62 99 176
62 99 178
62 99 178
62 99 177
62 99 175
62 99 179
62 99 174
62 99 178
62 99 177
61 98 175
62 99 178
62 99 178
62 99 174
62 99 178
62 99 175
63 99 178
62 99 174
62 99 173
62 99 177
63 99 176
63 99 179
61 98 175
62 99 178
62 99 172
63 100 179
62 99 179
62 99 174
62 98 174
63 99 177
63 99 176
61 98 174
61 99 178
62 99 175
62 98 175
62 99 175
61 98 175
62 99 173
62 99 173
61 98 175
62 99 177
62 99 175
63 99 173
61 98 172
62 99 175
62 99 175
62 99 177
62 99 176
62 99 176
62 99 174
63 100 175
62 98 174
61 98 173
62 98 173
62 99 176
62 99 171
62 99 172
61 98 168
62 99 174
63 99 176
63 99 175
61 98 171
62 98 163
62 98 167
61 97 166
62 98 170
61 98 171
61 97 164
62 97 162
62 98 168
62 97 166
62 97 166
62 98 166
62 98 168
60 95 155
62 98 172
61 96 163
61 97 165
60 95 159
60 95 162
60 95 155
59 92 150
59 89 143
64 83 114
72 73 51
55 61 48
75 77 53
70 73 52
74 79 57
82 85 61
79 84 60
83 87 61
76 81 60
77 80 58
75 80 55
90 93 64
94 98 68
88 92 68
90 94 66
101 104 70
101 104 72
119 120 85
114 115 78
107 109 69
100 103 71
111 113 71
126 126 82
127 126 83
113 114 74
124 124 81
133 132 82
124 124 80
144 141 87
124 126 82
124 125 79
141 139 86
140 138 82
136 135 79
131 131 81
143 141 86
146 143 84
140 138 86
140 138 85
153 150 96
146 144 89
149 146 93
150 147 88
155 151 97
156 152 90
152 149 88
154 150 84
152 149 88
157 153 92
158 154 93
155 150 88
161 156 87
168 163 101
158 154 89
160 156 94
156 153 84
165 160 93
172 166 95
174 167 97
171 166 98
169 163 93
168 162 93
169 163 100
165 160 91
165 160 94
169 163 92
170 165 96
168 162 87
168 163 90
172 166 100
175 168 95
166 160 90
169 164 90
174 167 99
168 163 95
175 168 97
173 166 93
170 163 93
175 168 101
174 167 97
170 165 95
170 164 92
167 161 88
174 167 97
171 163 92
170 164 94
172 165 96
167 161 83
168 162 88
170 163 91
170 164 89
167 160 87
172 165 99
170 163 93
168 162 90
168 161 90
171 165 90
168 161 91
165 159 87
164 158 90
170 163 90
170 163 88
169 163 89
165 159 86
167 160 84
159 153 80
165 158 88
164 158 83
164 156 90
158 152 77
164 158 84
162 156 83
161 155 80
162 155 84
159 152 79
154 147 72
154 148 75
154 148 79
149 144 67
154 146 80
146 140 64
159 153 75
148 142 69
150 144 72
157 151 77
148 142 70
146 140 67
145 138 67
143 138 65
145 139 66
157 149 77
132 126 60
127 121 56
133 128 60
137 132 54
134 128 58
141 145 45
161 176 25
170 193 0
173 195 0
172 193 0
173 195 0
172 195 0
171 193 0
172 196 0
174 197 0
170 193 0
173 196 0
171 195 0
172 195 0
172 196 0
169 193 0
173 196 0
172 195 0
173 196 0
171 194 0
169 193 0
172 196 0
172 195 0
172 195 0
173 197 0
173 196 0
172 195 0
170 194 0
172 194 0
170 193 0
170 194 0
172 195 0
171 194 0
171 195 0
172 196 0
173 196 0
174 197 0
172 196 0
173 196 0
172 196 0
172 195 0
173 197 0
171 194 0
173 195 0
174 197 0
172 196 0
172 196 0
173 197 0
173 196 0
172 196 0
173 195 0
170 195 0
174 196 0
171 194 0
172 196 0
174 197 0
172 195 0
171 195 0
171 194 0
171 195 0
172 195 0
173 196 0
168 191 0
171 194 0
171 194 0
172 195 0
170 193 0
173 196 0
173 196 0
172 194 0
172 196 0
174 197 0
168 192 0
174 197 0
171 195 0
170 192 0
171 195 0
171 194 0
170 194 0
173 196 0
172 195 0
173 196 0
167 191 0
170 193 0
169 192 0
171 195 0
169 193 0
171 195 0
175 198 0
170 193 0
172 196 0
172 194 0
173 195 0
173 196 0
172 195 0
170 193 0
170 193 0
169 192 0
169 193 0
170 193 0
140 164 102
65 100 158
62 98 167
62 98 165
62 99 165
61 97 162
62 99 166
63 99 173
62 98 169
63 99 173
62 98 170
62 99 174
62 99 172
62 98 169
62 98 168
62 99 175
62 99 175
62 99 174
62 99 172
62 99 175
62 99 171
63 99 176
63 99 175
61 98 171
62 99 173
62 99 173
62 99 175
62 99 176
63 99 175
63 99 179
63 100 180
62 99 176
62 99 177
62 99 177
62 99 174
62 99 178
61 98 176
63 100 180
62 99 177
62 99 179
62 99 175
62 99 174
61 98 178
62 99 178
61 99 179
62 99 178
62 99 175
61 98 172
62 99 177
62 99 177
63 100 179
63 99 178
62 99 179
62 99 177
61 98 177
62 99 179
63 99 179
62 99 178
61 98 175
62 99 178
63 100 178
62 99 173
62 99 179
62 99 177
62 99 178
62 99 177
62 99 175
63 100 179
62 99 180
61 98 177
62 98 174
62 99 177
62 99 179
62 99 179
62 99 178
62 99 177
62 99 180
62 99 177
62 99 177
61 98 175
61 98 172
62 99 179
62 99 177
62 99 177
62 99 175
61 98 173
62 99 176
62 99 177
62 99 175
62 99 176
62 99 178
62 99 174
61 98 178
62 99 178
62 98 175
62 99 177
62 99 176
62 99 176
62 99 177
63 100 180
62 99 176
62 99 179
62 99 177
62 99 173
61 98 174
62 99 178
61 99 178
62 98 172
62 99 178
61 98 174
62 99 177
63 100 178
62 99 177
62 99 174
62 98 175
62 99 177
61 98 173
61 98 174
62 98 173
62 99 178
62 98 174
62 99 174
62 99 176
61 98 176
62 99 172
62 99 173
62 98 171
62 98 173
62 98 173
62 99 174
63 100 179
62 99 170
62 98 171
62 98 170
62 99 177
61 98 171
62 99 175
62 98 172
62 99 172
62 98 168
63 100 178
62 99 174
62 99 172
62 99 173
62 98 170
61 97 164
61 97 166
62 98 173
62 98 174
62 98 170
62 98 168
62 98 168
62 98 169
62 98 168
61 97 166
62 98 170
62 98 170
61 98 171
60 94 159
61 97 165
60 94 159
59 93 155
58 92 156
63 88 131
62 70 66
56 61 42
66 70 49
65 70 50
71 76 55
66 70 52
62 68 51
67 72 50
79 83 60
88 92 62
79 83 58
77 84 60
92 96 68
83 88 61
104 106 74
99 101 69
97 100 69
107 109 71
104 107 76
104 107 70
116 117 80
119 120 76
111 113 74
108 109 75
99 102 67
128 127 80
119 119 77
125 125 80
118 119 71
133 131 83
133 132 83
137 136 82
130 130 85
136 135 83
131 131 83
143 140 89
149 146 94
145 143 86
145 143 84
148 145 90
152 150 90
146 143 87
149 147 87
157 152 87
153 149 88
154 150 91
156 153 96
155 151 89
153 149 89
159 154 87
166 160 96
155 152 89
167 162 97
168 162 94
158 154 91
162 158 94
162 158 92
160 155 91
171 165 100
170 164 94
165 160 93
167 162 94
161 156 90
169 164 94
169 164 97
174 167 100
161 157 92
169 164 95
167 162 90
167 161 95
167 161 93
171 164 89
174 167 97
169 163 94
172 166 93
174 166 95
175 167 97
162 157 85
174 167 96
172 166 96
168 163 92
175 168 97
174 168 95
170 163 90
168 162 90
167 161 90
173 166 95
169 163 85
162 157 83
171 164 95
174 166 96
170 163 91
167 160 90
167 160 89
171 165 93
169 162 91
172 165 95
164 158 88
167 161 87
165 160 87
167 161 89
164 157 90
171 165 91
163 156 83
162 155 85
169 162 91
169 162 90
163 157 82
161 155 79
168 160 87
154 148 78
159 153 82
157 151 70
167 160 83
150 144 75
158 152 81
156 150 79
155 149 80
162 155 82
156 150 77
152 146 74
152 146 73
149 143 73
150 145 72
150 144 67
152 145 73
142 136 73
146 141 66
147 142 72
147 141 70
136 130 60
141 135 65
138 131 61
129 123 51
139 133 67
131 128 54
140 144 44
163 178 36
171 193 0
172 194 0
169 191 0
169 192 0
170 192 0
169 192 0
174 197 0
172 196 0
173 195 0
171 195 0
171 195 0
173 196 0
171 195 0
171 195 0
173 196 0
170 194 0
173 196 0
170 194 0
170 194 0
173 196 0
172 196 0
172 196 0
169 194 0
171 195 0
174 198 0
174 197 0
172 196 0
172 196 0
173 196 0
171 194 0
172 195 0
171 194 0
173 196 0
174 196 0
172 196 0
172 195 0
172 195 0
172 195 0
174 198 0
169 192 0
173 196 0
172 195 0
173 197 0
172 196 0
171 195 0
172 195 0
171 195 0
172 194 0
172 196 0
171 195 0
169 193 0
173 196 0
171 194 0
172 195 0
172 195 0
172 195 0
172 196 0
172 195 0
175 197 0
173 196 0
172 195 0
173 196 0
170 194 0
169 192 0
169 192 0
171 195 0
170 193 0
172 195 0
173 197 0
173 197 0
169 192 0
168 191 0
169 193 0
172 195 0
171 193 0
168 192 0
174 195 0
172 194 0
170 194 0
170 194 0
165 189 0
170 193 0
170 193 0
172 196 0
170 193 0
171 194 0
170 193 0
171 195 0
171 194 0
170 193 0
172 195 0
171 195 0
167 190 0
170 193 0
169 192 0
169 192 0
166 190 0
169 192 0
105 133 137
62 98 159
61 97 159
61 98 170
62 98 165
63 99 163
62 99 171
62 98 165
62 98 172
63 100 175
62 99 172
61 98 170
62 99 174
63 100 177
62 99 175
62 99 172
62 99 174
61 98 173
62 99 175
61 98 173
63 99 171
62 99 176
62 99 177
62 99 175
62 99 173
62 99 174
62 99 171
63 99 175
62 99 176
62 99 175
62 99 176
62 98 173
63 99 179
62 99 175
62 98 175
62 99 173
63 100 179
62 99 178
63 99 177
62 99 175
62 99 175
62 99 176
62 99 177
62 99 179
62 99 178
63 99 177
62 99 172
62 99 177
61 98 176
61 98 174
62 99 179
62 99 179
62 99 178
61 98 175
62 99 178
63 100 179
62 99 179
62 99 175
62 99 176
62 99 179
62 99 179
62 99 177
62 99 176
61 98 177
62 99 177
62 99 181
62 99 177
62 99 179
62 99 175
62 99 179
62 99 179
62 99 177
62 99 174
62 99 180
62 99 177
62 99 175
62 99 176
62 99 177
62 99 176
62 99 176
62 99 179
62 99 180
61 98 176
62 99 178
62 99 178
62 99 177
62 99 175
62 99 178
61 98 175
62 99 179
62 99 175
62 99 170
61 98 173
62 99 175
61 98 176
62 99 176
62 99 177
62 99 180
62 99 178
61 98 175
62 99 178
62 99 179
62 99 175
62 99 174
63 100 177
62 99 177
62 99 177
62 99 175
62 98 174
63 100 179
62 99 174
62 99 174
62 99 179
62 99 172
62 99 175
63 99 176
62 99 175
63 99 175
62 99 176
62 99 175
62 99 176
62 99 174
62 99 172
63 99 173
62 99 169
62 99 173
62 99 174
62 99 174
62 98 173
61 98 170
62 99 177
63 99 175
62 99 178
62 99 176
62 99 171
63 99 174
63 99 175
63 99 170
61 98 175
61 98 169
61 98 171
63 99 170
62 98 167
62 99 173
62 98 175
61 98 170
61 97 168
61 97 164
62 97 167
62 98 165
62 98 169
62 98 166
62 98 170
62 98 167
62 98 167
60 96 168
62 98 165
61 96 165
61 95 158
61 96 163
59 93 154
60 94 154
59 92 154
61 91 149
65 78 90
58 63 42
56 61 44
64 70 52
63 68 50
66 71 52
55 63 48
76 81 62
83 86 57
92 95 65
90 93 65
72 77 52
91 94 63
93 96 69
102 103 63
101 105 74
95 97 64
107 107 73
105 107 69
105 106 65
106 108 73
109 110 70
112 113 74
130 129 83
112 114 75
122 123 80
118 118 73
125 125 81
138 136 84
147 145 89
131 130 77
134 132 84
137 135 82
138 137 84
140 138 87
150 147 86
150 147 91
144 142 87
147 145 85
149 146 87
148 145 85
145 142 81
151 148 88
158 154 93
154 151 86
150 147 87
158 152 94
155 151 89
158 154 92
163 158 90
165 160 92
159 155 90
159 154 93
167 161 91
160 156 93
165 161 97
166 161 97
162 158 91
166 160 91
165 159 92
166 160 93
167 161 91
173 166 93
166 161 88
171 165 97
171 164 94
172 167 94
168 163 87
170 164 93
174 168 101
168 162 86
169 163 93
169 164 94
173 166 96
175 168 98
172 165 95
169 163 94
172 166 97
170 164 88
171 164 95
173 167 95
171 164 97
168 162 89
173 166 93
167 161 91
168 161 90
172 165 90
166 160 85
169 163 91
173 166 93
164 159 85
169 163 89
168 161 88
168 162 88
163 157 80
164 158 87
165 159 86
170 164 90
165 158 87
166 160 89
165 158 84
171 163 90
160 154 83
162 156 83
164 158 88
161 154 84
159 153 77
160 154 80
163 156 85
151 146 71
156 150 74
161 155 83
159 154 75
164 157 80
153 147 73
156 150 77
160 154 75
157 151 75
152 148 74
147 141 71
151 144 76
153 147 73
155 148 81
147 141 74
145 139 72
149 144 72
144 138 66
153 147 73
142 136 63
144 137 71
144 137 68
133 127 62
131 126 51
132 127 57
137 131 60
134 132 57
142 147 51
163 182 22
173 193 0
171 192 0
173 195 0
169 192 0
172 194 0
169 192 0
171 195 0
172 196 0
168 191 0
171 195 0
172 196 0
172 196 0
173 196 0
170 194 0
171 195 0
172 196 0
173 197 0
171 195 0
173 196 0
172 196 0
172 195 0
172 196 0
174 197 0
173 197 0
172 195 0
172 195 0
174 197 0
171 195 0
173 197 0
172 196 0
170 194 0
174 197 0
168 192 0
172 195 0
173 197 0
173 196 0
172 196 0
173 196 0
171 194 0
171 194 0
173 196 0
169 193 0
172 196 0
173 196 0
174 196 0
172 195 0
169 193 0
170 193 0
168 191 0
172 195 0
171 194 0
171 195 0
174 197 0
171 195 0
171 195 0
174 197 0
169 192 0
171 195 0
172 196 0
174 197 0
171 193 0
172 195 0
168 191 0
171 195 0
171 194 0
173 196 0
171 194 0
168 191 0
172 195 0
174 196 0
167 191 0
169 193 0
169 192 0
172 196 0
168 190 0
171 194 0
170 193 0
172 194 0
172 194 0
169 191 0
171 194 0
168 191 0
173 196 0
170 193 0
167 190 0
171 195 0
170 193 0
172 195 0
171 194 0
168 192 0
171 194 0
172 194 0
168 190 0
169 192 0
171 194 0
171 194 0
170 194 0
148 172 78
73 106 158
62 98 163
62 98 167
61 98 165
62 99 171
63 99 172
62 99 171
62 99 173
62 99 174
62 99 172
62 98 169
63 99 165
62 99 170
62 98 169
62 98 167
62 99 175
62 99 173
63 99 174
63 100 176
63 99 175
62 99 177
62 99 175
62 99 172
62 98 172
62 99 172
62 99 173
63 99 176
62 99 176
62 99 177
62 99 174
62 99 174
62 99 177
62 99 175
62 99 177
62 99 174
63 100 180
62 99 175
61 98 173
62 98 173
61 98 176
62 99 178
62 99 178
62 99 177
62 99 175
62 99 174
62 99 179
62 99 176
62 99 178
63 100 180
62 99 178
62 99 178
62 99 178
62 99 177
62 99 177
63 99 178
63 100 180
62 99 181
62 99 174
62 99 177
62 99 180
63 99 175
62 99 176
62 99 177
62 99 177
62 99 176
62 99 178
62 99 178
63 100 177
62 99 175
63 99 177
63 100 181
62 99 175
63 100 178
62 99 179
63 99 177
62 99 175
62 99 176
62 99 178
62 99 180
62 98 174
63 99 175
62 99 176
62 99 175
62 99 177
62 99 175
62 98 176
63 99 175
62 99 177
62 99 177
62 99 177
63 99 177
63 100 177
62 99 177
62 99 176
62 99 177
62 99 179
62 99 176
62 99 175
62 99 178
62 99 180
62 98 173
62 99 176
62 99 176
62 99 179
61 99 177
62 99 178
62 99 176
62 99 175
62 99 175
62 99 175
61 98 174
62 99 176
62 99 177
62 99 174
62 99 177
62 99 175
62 99 175
62 99 177
63 100 178
62 99 175
61 98 170
63 100 178
62 99 177
62 98 167
61 98 173
61 98 170
62 99 178
62 99 173
62 99 174
63 100 176
62 99 172
62 99 178
63 99 170
63 100 178
62 99 173
62 99 170
62 98 173
61 98 169
62 98 172
62 99 173
62 99 177
62 98 170
63 99 174
62 99 175
62 98 170
62 98 165
61 98 171
61 98 171
62 98 169
62 98 167
62 98 168
62 98 171
62 97 165
61 97 167
61 97 166
62 97 166
61 96 163
61 96 163
62 97 160
60 94 156
61 97 164
59 94 155
59 94 160
61 94 153
53 77 110
64 70 61
57 63 46
60 66 48
67 71 49
58 64 45
65 70 50
79 83 60
64 71 51
72 77 54
84 88 62
93 95 63
79 84 59
84 90 58
83 87 61
92 95 64
86 90 61
98 102 71
111 112 72
114 115 75
103 106 69
117 117 74
115 115 70
112 114 76
112 114 74
125 125 79
126 126 79
122 123 80
135 134 81
126 126 81
137 136 82
134 134 84
131 131 83
137 136 84
143 141 81
140 138 88
133 132 81
154 150 91
135 134 84
142 140 91
147 145 88
150 147 91
157 153 92
154 151 89
142 140 86
152 148 88
153 150 90
153 149 85
153 150 89
160 156 90
157 153 88
160 155 90
161 157 89
165 160 91
164 159 90
161 156 88
158 154 91
161 157 92
166 161 91
167 162 94
171 165 99
161 157 88
161 156 83
165 160 90
166 161 90
167 161 88
168 162 89
166 161 94
171 165 95
168 163 90
169 163 89
166 161 90
171 165 93
166 162 88
170 163 94
173 166 91
170 164 92
170 164 90
171 164 85
169 164 95
169 164 91
175 168 95
172 165 94
172 165 93
170 164 96
172 165 92
169 162 86
172 166 93
167 162 80
170 164 90
170 163 90
170 162 89
167 162 90
171 163 91
165 159 90
170 162 90
168 161 86
163 156 87
167 160 83
162 157 85
165 159 84
169 163 87
162 155 82
165 159 89
161 155 84
161 155 85
168 161 89
164 158 84
164 158 88
163 156 81
164 157 81
161 155 80
159 152 84
156 150 78
158 151 77
154 149 70
164 157 86
158 152 74
158 152 80
157 150 80
157 151 78
157 150 75
141 136 65
147 142 68
148 142 64
143 139 63
145 139 64
129 124 51
146 140 70
148 141 66
143 137 65
144 138 58
142 135 65
128 122 53
125 120 48
126 126 44
148 157 39
164 184 16
173 195 0
171 192 0
169 191 0
169 189 0
172 194 0
171 193 0
173 196 0
171 195 0
175 198 0
171 194 0
173 196 0
172 196 0
172 196 0
173 196 0
170 193 0
173 196 0
173 196 0
172 195 0
172 196 0
174 197 0
173 196 0
170 194 0
171 194 0
171 195 0
172 195 0
173 195 0
171 195 0
174 197 0
172 196 0
171 195 0
174 197 0
169 192 0
171 194 0
171 195 0
171 195 0
169 192 0
172 195 0
173 196 0
171 195 0
171 194 0
174 197 0
171 194 0
174 197 0
172 196 0
172 196 0
173 196 0
171 194 0
174 196 0
173 195 0
169 193 0
173 197 0
171 194 0
172 196 0
172 195 0
171 195 0
171 195 0
169 193 0
172 194 0
173 196 0
173 196 0
172 195 0
172 196 0
169 194 0
172 196 0
173 196 0
171 195 0
168 191 0
170 193 0
173 196 0
173 196 0
173 195 0
171 195 0
172 195 0
168 192 0
171 195 0
170 193 0
172 195 0
168 192 0
173 196 0
170 193 0
171 194 0
172 194 0
171 194 0
170 193 0
172 196 0
171 195 0
172 195 0
171 194 0
168 191 0
168 191 0
172 195 0
171 195 0
168 191 0
171 194 0
171 195 0
169 192 0
165 189 31
112 138 126
62 98 165
62 98 165
63 99 168
63 99 169
61 98 166
62 98 166
62 98 166
62 99 171
61 97 162
61 98 166
63 99 172
62 98 169
63 99 178
62 98 175
62 99 174
62 98 168
62 99 171
61 98 169
62 98 169
62 99 176
63 100 176
63 99 173
62 98 174
62 98 171
62 99 177
62 99 171
62 99 177
63 100 178
62 99 176
62 99 175
62 99 172
62 99 176
62 99 175
62 99 173
63 99 176
62 99 176
62 99 174
62 99 175
62 99 178
62 99 177
63 100 177
63 100 177
62 99 176
62 99 176
63 99 176
62 99 176
63 100 178
61 98 174
62 99 176
61 98 178
62 99 176
62 99 179
62 99 177
62 99 180
62 99 179
62 99 181
62 99 174
62 99 177
63 99 180
62 99 179
62 99 176
62 99 180
62 99 179
63 99 178
62 99 177
62 99 174
62 99 174
61 99 179
62 99 178
62 99 177
62 99 174
62 99 176
62 99 172
62 99 180
62 99 177
61 99 179
61 98 174
63 100 178
62 99 179
62 99 177
61 99 178
63 99 176
62 99 177
63 100 177
62 99 175
63 99 174
62 99 179
62 99 173
63 99 176
61 98 174
61 98 176
63 100 178
62 99 179
62 99 177
62 99 174
62 99 176
62 99 176
62 99 177
62 99 175
62 99 176
62 99 178
62 99 176
61 98 172
62 99 177
62 99 175
62 99 178
61 98 175
62 99 178
62 98 171
62 99 177
62 99 176
62 99 176
63 100 175
62 99 175
61 98 175
62 99 174
62 99 176
62 99 174
62 99 178
62 98 174
62 99 171
63 99 173
62 99 176
62 99 174
62 99 176
62 99 174
62 99 174
62 99 175
62 99 175
62 99 175
61 98 173
62 99 172
62 98 171
62 99 174
62 99 169
61 98 172
61 98 171
61 98 170
62 99 174
62 99 174
62 99 173
62 99 175
61 97 167
62 98 170
63 99 172
62 99 173
62 98 167
63 99 170
61 97 168
62 98 167
61 97 164
62 98 168
62 98 163
60 96 167
62 97 166
61 97 164
62 98 165
61 97 166
61 96 160
61 96 158
60 94 157
60 94 158
60 95 157
60 94 161
62 92 149
58 73 96
64 68 50
57 61 44
60 64 46
59 66 48
70 74 49
86 88 57
70 73 51
85 89 64
76 81 56
75 79 55
75 79 52
81 86 62
92 96 67
84 90 60
84 88 58
85 90 61
97 100 67
107 109 70
113 113 74
116 116 72
105 107 66
118 119 72
99 103 67
130 129 78
121 122 77
130 129 82
130 128 76
122 123 75
133 132 79
132 131 75
131 131 78
129 128 82
128 127 77
142 141 88
139 138 81
151 148 90
142 140 81
145 142 85
146 142 82
143 141 89
141 139 82
146 143 85
153 150 89
155 151 89
157 152 90
153 149 84
163 158 92
152 148 86
163 158 95
160 155 95
157 153 90
161 157 89
165 160 93
163 158 95
160 156 88
166 161 92
167 162 92
172 165 97
163 157 90
162 158 86
171 165 99
167 162 93
167 162 87
164 159 88
166 161 91
171 164 96
169 163 93
168 163 90
175 168 97
172 166 93
168 162 93
174 167 90
167 162 87
169 164 86
167 161 90
168 163 90
161 156 78
170 164 86
172 164 90
170 164 94
172 165 88
165 160 86
172 165 97
173 166 95
167 161 87
172 165 88
167 161 84
166 160 88
165 159 82
167 161 87
169 163 88
168 161 87
171 164 93
164 157 84
162 155 84
164 158 88
165 158 87
167 160 84
164 157 86
158 153 83
163 157 80
165 158 84
158 152 75
156 151 79
158 151 74
165 159 85
165 159 84
158 152 75
160 153 77
155 149 80
152 147 74
152 145 70
158 151 75
155 149 80
152 146 74
153 147 72
140 136 67
145 140 66
154 149 73
159 152 75
154 147 72
156 149 74
144 138 64
139 134 56
144 138 62
141 135 63
147 141 70
133 127 57
133 128 52
131 125 57
135 129 58
136 130 58
138 133 58
134 137 42
158 171 36
171 194 0
171 193 0
168 190 0
171 193 0
172 195 0
171 193 0
170 193 0
172 196 0
169 193 0
171 195 0
174 197 0
173 196 0
174 198 0
171 195 0
175 198 0
172 196 0
171 194 0
172 195 0
173 197 0
171 195 0
169 193 0
171 194 0
173 197 0
172 195 0
169 193 0
173 197 0
172 196 0
173 196 0
171 195 0
171 195 0
171 194 0
171 195 0
167 191 0
170 193 0
173 196 0
169 193 0
172 196 0
171 194 0
172 196 0
165 189 0
173 196 0
172 195 0
172 196 0
173 196 0
174 197 0
168 191 0
171 194 0
169 193 0
171 195 0
170 194 0
171 195 0
169 192 0
170 194 0
172 195 0
168 192 0
170 194 0
173 197 0
168 192 0
169 193 0
173 196 0
172 195 0
174 197 0
173 196 0
173 197 0
169 192 0
169 192 0
170 193 0
173 195 0
174 197 0
173 197 0
171 194 0
173 197 0
172 196 0
172 196 0
171 195 0
172 195 0
170 194 0
170 194 0
170 193 0
170 194 0
171 194 0
170 193 0
171 194 0
165 189 0
170 193 0
169 191 0
170 193 0
169 193 0
172 196 0
170 193 0
168 192 0
171 194 0
172 195 0
169 192 0
168 192 0
169 192 0
168 191 0
160 183 65
82 113 152
62 98 160
61 97 158
62 98 165
62 98 163
62 98 163
62 98 163
62 98 169
62 99 171
62 99 170
63 99 169
62 98 169
62 98 166
61 98 167
62 99 173
61 98 165
61 98 167
62 99 174
62 98 171
62 99 172
62 99 173
61 98 170
62 98 169
62 99 176
63 100 173
62 99 175
62 99 171
62 99 173
62 99 176
62 99 174
62 99 177
63 99 175
62 99 174
62 99 175
62 98 174
62 99 174
62 99 175
62 99 178
62 99 172
62 99 175
62 99 174
63 99 178
62 99 174
62 99 179
61 98 176
62 99 176
63 99 178
62 99 173
62 99 178
61 98 172
62 99 177
62 99 177
62 99 178
62 99 177
62 99 178
62 99 179
63 100 179
62 99 175
62 99 179
62 99 178
62 99 178
62 99 176
62 99 177
62 99 178
63 99 178
61 98 177
62 99 174
62 99 178
63 99 175
62 99 175
63 99 178
62 99 175
62 99 175
62 99 177
62 99 175
62 99 178
63 99 174
63 99 176
62 99 178
62 99 177
62 99 178
62 99 174
62 99 176
62 99 174
62 99 175
62 99 173
63 99 179
62 99 179
62 98 174
61 98 176
62 99 179
62 99 175
62 99 174
62 99 177
62 98 168
63 100 175
62 98 172
63 99 174
63 99 171
62 99 175
62 99 178
62 99 180
62 99 174
63 99 175
62 99 175
62 99 175
62 99 178
62 99 173
62 99 180
62 98 170
62 99 177
62 98 171
62 98 175
62 99 176
62 99 178
62 99 171
63 100 176
62 99 173
62 99 177
62 99 172
62 99 178
62 99 174
63 99 173
62 99 173
61 98 170
62 98 168
62 98 172
62 99 174
62 99 176
62 99 174
62 99 175
62 99 173
62 99 172
61 98 168
62 98 168
62 98 168
61 97 167
63 99 175
62 98 169
61 98 169
62 99 173
63 99 167
62 99 170
62 98 166
61 97 163
62 98 166
62 98 170
62 98 168
62 98 170
61 98 170
62 98 170
61 97 167
61 97 162
61 98 169
61 97 166
61 97 166
61 97 166
62 97 164
61 96 162
60 96 161
59 93 155
60 94 156
60 95 160
61 96 162
61 96 165
57 90 149
56 79 120
52 58 42
56 62 45
56 61 38
54 61 45
57 64 45
80 82 54
67 72 51
74 78 51
70 76 52
103 105 71
77 83 60
78 83 56
86 90 61
90 93 60
87 92 64
100 103 65
96 98 60
109 110 72
116 116 76
108 110 66
109 110 68
108 111 72
106 107 66
119 120 73
124 125 80
125 126 79
131 130 79
134 133 83
136 135 77
128 127 74
142 140 85
128 128 74
146 144 88
138 135 81
144 142 83
143 141 81
125 125 76
146 144 86
146 143 84
144 141 83
153 149 85
152 147 85
156 152 92
150 147 89
152 148 83
152 149 86
164 158 91
160 156 91
149 145 83
150 147 83
157 153 84
159 154 86
172 166 97
165 160 91
162 157 91
168 162 95
164 158 88
163 158 87
165 160 93
171 164 97
166 161 87
164 159 92
166 161 92
169 163 93
170 164 89
166 160 89
169 163 90
174 167 92
168 163 92
171 164 94
171 166 93
168 162 89
173 165 95
170 164 95
177 170 99
170 164 91
170 164 88
168 162 90
168 161 90
171 164 88
164 159 89
171 165 89
176 168 92
169 164 93
170 165 87
175 167 97
168 162 87
168 161 88
170 163 87
170 163 87
168 162 85
168 161 84
165 159 86
169 162 87
164 158 77
170 163 90
168 161 89
162 155 79
171 163 87
166 160 84
165 159 86
158 153 76
159 153 90
166 160 79
162 154 82
165 158 87
161 153 83
155 150 77
165 158 87
157 151 74
152 148 69
158 151 80
157 151 78
161 154 77
155 148 70
149 143 69
152 146 74
159 152 79
153 146 77
145 140 64
147 141 72
148 141 71
146 140 75
152 146 69
150 144 75
143 137 64
140 135 62
140 134 65
133 127 56
138 133 58
126 120 52
130 125 59
144 139 62
140 145 39
155 169 30
168 190 11
171 192 0
173 195 0
175 195 0
171 194 0
173 194 0
172 194 0
169 193 0
175 198 0
173 197 0
173 196 0
173 197 0
171 195 0
174 197 0
173 196 0
173 195 0
172 195 0
169 192 0
171 195 0
171 195 0
171 195 0
171 195 0
171 195 0
173 196 0
173 195 0
173 196 0
170 193 0
171 195 0
170 193 0
173 196 0
173 196 0
172 196 0
173 197 0
173 196 0
172 196 0
173 196 0
173 196 0
170 194 0
170 194 0
172 195 0
172 195 0
172 196 0
170 193 0
172 195 0
170 194 0
171 194 0
173 197 0
172 196 0
172 195 0
175 198 0
171 194 0
168 191 0
169 193 0
172 195 0
171 195 0
168 192 0
172 194 0
170 193 0
172 195 0
168 192 0
171 194 0
173 197 0
171 194 0
174 197 0
170 194 0
171 194 0
171 195 0
171 195 0
173 197 0
168 192 0
170 193 0
171 195 0
168 191 0
171 194 0
174 196 0
168 192 0
169 193 0
168 191 0
173 196 0
171 194 0
166 190 0
169 192 0
170 194 0
169 192 0
169 191 0
174 196 0
174 197 0
170 194 0
168 191 0
170 193 0
172 195 0
169 192 0
170 192 0
168 191 0
170 194 0
171 194 0
172 195 18
127 152 115
64 100 163
62 98 164
62 98 164
62 98 165
62 99 170
62 99 169
62 98 168
62 98 164
61 98 162
62 98 162
62 98 167
62 98 165
62 99 171
62 98 169
62 99 174
62 98 170
62 99 173
61 98 168
62 99 174
62 98 166
61 98 172
62 99 176
63 100 179
62 99 172
62 99 175
62 99 175
63 100 176
62 99 172
62 99 176
63 99 175
62 99 177
63 100 177
62 99 176
62 99 175
62 99 177
62 99 176
61 98 170
62 99 174
62 98 170
62 99 175
61 99 176
62 99 173
62 99 176
62 99 175
62 99 176
63 100 175
62 99 175
62 99 173
62 99 172
62 99 181
62 99 173
62 99 178
62 99 173
62 99 178
62 99 179
62 99 178
62 99 177
62 99 178
61 98 178
62 99 177
62 99 176
62 99 172
62 99 178
62 99 174
62 99 175
63 100 180
62 98 176
62 99 177
62 99 174
62 99 178
62 99 176
62 99 179
62 99 174
62 99 176
62 99 179
62 99 171
61 98 172
62 99 178
62 99 177
62 99 175
62 99 179
62 99 175
62 99 177
62 98 173
62 99 176
63 99 177
63 99 176
62 99 178
62 99 178
62 99 177
62 99 176
62 99 181
62 99 178
62 99 175
62 99 175
61 98 173
62 99 175
62 99 179
62 99 175
62 99 169
62 99 176
62 99 175
62 99 177
62 99 177
62 99 177
62 99 174
62 99 175
62 99 171
62 99 175
61 98 170
62 98 175
63 100 176
62 99 171
63 99 175
62 99 173
62 99 176
62 99 174
62 99 177
63 99 173
61 98 174
63 99 171
62 98 172
62 99 177
63 99 176
62 99 172
62 99 173
62 98 172
62 98 172
62 99 175
63 100 175
62 98 172
62 99 175
62 99 174
63 99 176
62 99 175
61 98 167
62 99 173
62 98 170
63 99 174
62 98 168
61 97 166
62 99 171
62 98 167
62 98 170
62 99 170
61 97 165
63 99 166
62 98 166
61 97 165
61 97 164
62 98 162
62 99 170
62 98 167
62 98 168
63 99 173
62 98 170
62 97 160
62 98 167
61 96 159
60 95 158
60 95 159
60 94 155
61 96 164
61 95 160
61 95 153
60 93 153
58 85 129
53 64 71
48 54 41
53 59 44
61 67 51
52 60 44
64 69 47
67 73 49
61 68 49
66 73 50
74 78 52
72 77 56
72 79 56
96 99 63
93 96 63
93 96 62
87 89 57
93 96 64
106 108 71
102 104 66
111 112 68
107 109 70
114 114 73
108 109 66
110 112 69
110 111 74
123 123 76
120 120 77
130 128 76
120 121 74
131 129 76
131 131 81
127 126 76
139 138 83
144 141 85
135 133 84
131 130 74
126 125 78
150 147 90
141 139 79
151 147 81
142 140 80
159 154 87
149 146 85
143 141 83
158 153 88
155 151 88
154 150 84
150 147 83
159 155 90
161 156 91
157 152 89
152 148 78
158 153 84
163 158 86
162 157 88
158 154 86
164 159 93
168 163 94
165 160 89
162 157 89
165 160 90
165 159 87
169 163 88
164 158 89
168 163 95
170 163 92
170 164 84
165 160 87
167 162 87
164 159 87
164 159 86
168 163 85
175 168 96
166 161 89
172 165 90
173 166 93
169 163 84
174 167 94
169 163 89
171 165 89
167 162 82
166 161 87
167 161 84
170 163 90
167 161 82
168 162 88
168 161 89
171 164 90
163 156 80
169 163 90
171 164 93
165 159 84
166 160 86
160 154 76
166 160 84
162 155 80
165 159 84
172 164 87
160 154 84
167 161 85
165 158 81
160 155 78
165 157 88
163 156 80
160 154 78
162 156 80
165 159 81
166 159 89
154 147 78
152 146 70
162 156 76
154 147 75
151 145 73
159 151 82
155 149 74
149 143 67
146 141 65
156 149 80
150 144 72
148 143 72
150 144 75
148 142 66
144 138 65
141 136 58
150 144 67
141 135 60
150 144 60
144 138 62
129 124 54
136 131 59
123 119 42
129 124 49
138 137 51
150 157 48
162 179 19
169 190 0
166 187 0
171 192 0
170 192 0
171 193 0
171 195 0
173 194 0
172 195 0
169 192 0
171 194 0
173 196 0
171 193 0
173 196 0
173 197 0
173 196 0
172 196 0
171 194 0
173 196 0
174 197 0
173 197 0
171 195 0
173 196 0
174 197 0
171 195 0
171 195 0
171 194 0
171 194 0
172 195 0
170 192 0
173 196 0
173 197 0
172 195 0
171 195 0
172 196 0
172 196 0
170 193 0
167 191 0
173 196 0
172 195 0
173 196 0
175 197 0
172 195 0
172 195 0
172 196 0
171 194 0
172 196 0
170 194 0
171 195 0
171 195 0
173 196 0
173 196 0
171 194 0
169 193 0
170 194 0
170 194 0
168 192 0
169 192 0
175 198 0
171 194 0
171 195 0
171 195 0
171 195 0
171 195 0
170 194 0
171 194 0
168 191 0
171 194 0
170 194 0
170 193 0
171 194 0
173 195 0
170 194 0
170 194 0
172 195 0
172 195 0
171 195 0
170 194 0
173 196 0
172 195 0
170 193 0
171 194 0
173 196 0
171 195 0
170 193 0
168 192 0
171 194 0
170 192 0
169 193 0
173 196 0
169 193 0
171 194 0
170 193 0
172 195 0
169 193 0
170 194 0
166 190 0
165 189 44
89 119 137
62 99 166
62 98 163
62 99 170
62 98 170
63 99 168
62 98 163
61 98 166
62 98 164
62 98 165
61 98 166
61 98 164
63 99 173
62 99 172
63 99 170
62 98 170
62 98 172
62 99 172
63 100 174
62 98 167
63 100 175
61 98 174
62 99 170
62 98 171
63 99 173
62 99 173
62 98 170
62 99 174
61 98 170
62 99 173
62 99 171
62 99 176
62 99 172
62 99 173
62 99 177
62 99 174
62 99 172
62 99 173
62 99 176
63 99 174
62 99 174
62 99 176
62 99 173
62 99 176
62 99 176
62 99 176
61 99 180
62 99 178
62 99 174
61 98 172
62 99 176
62 99 173
62 99 172
62 99 177
62 98 169
62 99 175
62 99 175
62 99 171
62 99 178
62 99 175
62 99 177
62 98 173
62 99 178
62 99 177
62 99 170
62 98 173
62 99 178
62 99 178
63 100 180
62 99 176
61 98 176
62 99 180
62 99 178
62 99 176
62 99 173
62 99 175
62 99 173
62 99 175
62 99 177
63 99 176
61 98 176
62 99 173
62 99 176
62 99 175
64 100 180
62 99 178
62 99 178
62 99 173
63 100 180
61 98 174
61 99 176
62 99 179
62 98 170
63 99 177
62 99 177
62 99 177
62 99 177
61 98 175
62 99 176
62 99 173
62 99 178
62 98 174
62 99 175
62 99 176
62 99 175
62 99 179
62 98 175
62 98 171
63 100 178
62 99 175
62 99 179
62 99 175
62 99 174
62 99 175
62 99 175
62 99 177
62 99 172
62 99 174
61 98 173
61 98 172
62 99 176
62 99 173
62 99 173
62 99 174
62 99 175
62 99 172
62 99 172
62 99 174
62 99 177
62 99 174
62 99 176
62 98 173
63 99 172
61 98 168
62 99 175
62 98 169
62 99 172
62 98 173
62 99 177
63 99 169
61 97 166
61 98 170
62 99 172
63 99 170
62 99 173
63 99 172
62 98 169
63 99 175
61 97 169
62 97 164
62 98 168
61 97 165
61 97 164
61 97 163
61 97 169
62 98 164
62 98 168
60 96 163
61 97 163
62 98 165
60 96 162
60 95 158
60 95 159
58 92 148
61 96 156
61 95 155
59 92 150
58 90 144
61 80 112
56 62 44
54 59 42
59 65 47
57 64 49
55 61 46
54 62 46
69 75 54
78 82 57
74 79 53
87 90 61
82 84 56
85 90 58
74 79 52
99 100 63
100 101 68
82 87 56
95 97 63
100 101 63
109 111 66
117 118 75
119 119 73
111 113 66
119 119 70
113 115 70
110 111 70
112 114 66
124 122 76
119 120 73
131 130 82
130 129 74
137 134 77
126 126 74
136 135 84
130 129 77
143 141 80
149 145 85
143 141 79
151 148 88
142 139 78
148 144 82
151 148 84
149 145 84
147 143 82
148 145 80
157 152 86
154 150 85
159 155 84
159 154 90
155 151 82
158 154 87
159 153 85
157 153 85
162 157 89
158 153 84
165 159 87
161 157 87
159 154 81
169 163 92
167 162 89
169 163 93
162 157 87
168 161 91
168 162 93
171 165 91
166 160 88
172 164 95
169 163 90
163 158 83
169 163 85
171 164 93
170 164 86
168 162 89
171 165 90
165 160 83
165 160 89
165 160 83
163 158 83
165 160 86
169 163 90
172 165 90
169 162 84
168 162 87
163 157 80
169 163 86
169 162 88
170 163 85
169 162 84
166 160 82
166 160 84
162 156 77
172 164 88
168 160 85
169 162 90
164 158 84
166 160 87
167 161 87
168 162 87
165 158 84
159 153 75
160 154 80
158 152 80
160 153 82
160 154 80
163 157 79
160 154 76
164 157 82
156 151 74
162 155 80
155 148 74
158 151 76
151 145 70
153 147 72
156 150 71
156 151 69
152 146 73
162 155 80
154 148 74
150 144 70
149 143 69
146 140 73
147 140 68
153 146 71
138 133 62
150 144 70
148 142 68
135 129 65
137 131 62
141 135 65
134 128 60
129 123 54
126 121 56
144 146 51
148 158 37
165 184 22
172 192 0
171 193 0
170 192 0
170 192 0
171 192 0
172 194 0
172 193 0
173 196 0
171 194 0
172 195 0
172 195 0
170 194 0
174 197 0
169 192 0
173 196 0
170 194 0
175 198 0
173 196 0
173 197 0
170 193 0
171 195 0
173 196 0
173 196 0
172 196 0
173 195 0
173 195 0
172 195 0
169 192 0
171 194 0
170 194 0
173 196 0
171 193 0
173 196 0
171 195 0
170 193 0
170 194 0
172 196 0
168 191 0
169 193 0
173 197 0
173 196 0
170 193 0
170 193 0
172 196 0
172 195 0
173 196 0
173 197 0
172 196 0
169 193 0
170 193 0
172 195 0
174 197 0
170 193 0
171 194 0
171 194 0
170 192 0
172 195 0
172 195 0
170 193 0
171 194 0
173 196 0
171 195 0
172 196 0
166 188 0
170 194 0
172 196 0
172 195 0
170 193 0
173 197 0
173 195 0
170 194 0
172 195 0
171 194 0
167 190 0
172 195 0
171 194 0
165 188 0
171 194 0
168 191 0
173 196 0
169 193 0
167 191 0
168 191 0
170 193 0
171 194 0
171 195 0
173 196 0
170 193 0
170 193 0
170 194 0
167 191 0
172 195 0
169 193 0
168 191 0
168 192 0
169 192 0
154 177 74
69 103 156
62 97 157
62 98 162
62 97 158
61 97 159
62 99 168
63 99 170
61 98 167
62 98 163
62 98 163
62 98 165
63 99 171
61 98 165
62 99 169
62 99 171
62 99 167
62 98 165
62 99 171
62 99 174
63 99 169
61 98 170
62 98 171
62 98 167
62 99 177
62 99 172
62 98 172
62 99 176
63 99 177
62 99 175
62 99 170
61 98 175
62 99 173
62 99 175
62 99 175
62 98 173
62 99 173
62 99 177
63 99 173
61 98 174
62 99 179
62 99 176
62 99 174
62 99 178
62 98 173
62 99 179
62 98 174
62 99 176
63 100 178
62 99 174
61 98 173
62 99 176
62 99 178
62 98 176
62 99 178
62 99 176
61 98 173
62 99 176
62 99 180
62 99 178
62 99 177
62 99 175
62 99 173
62 99 173
63 100 178
62 99 175
62 99 175
63 100 181
62 99 177
62 99 176
62 99 178
62 99 177
62 99 176
62 99 179
62 99 176
62 99 179
62 99 175
62 99 175
62 99 176
61 99 180
62 99 177
62 99 176
62 99 174
62 99 176
62 99 175
62 99 175
62 99 176
62 98 169
62 99 172
63 99 177
62 99 178
62 99 177
62 98 173
63 100 177
62 99 176
62 99 179
62 99 177
62 99 176
62 99 174
62 99 173
62 99 177
62 99 178
62 99 175
62 99 175
62 99 176
62 99 175
62 99 180
63 100 177
62 99 176
62 99 174
62 98 174
62 99 175
62 99 175
62 99 173
63 99 177
63 99 178
62 99 174
63 99 174
62 99 178
62 98 168
61 97 165
62 99 175
62 99 174
62 98 170
62 99 170
62 99 175
62 99 174
61 98 170
62 98 172
62 98 170
62 98 172
62 99 173
62 98 169
63 100 178
62 98 171
62 98 173
62 98 170
62 98 170
62 99 171
61 98 169
61 97 160
62 99 173
62 98 170
61 98 164
62 99 169
62 99 168
62 98 168
62 98 162
62 98 169
61 98 163
63 99 172
61 97 168
61 97 161
62 99 172
62 98 169
62 98 168
61 96 159
61 97 161
61 97 167
61 97 161
62 97 162
61 96 160
60 95 160
60 95 154
60 95 160
60 95 154
60 94 158
59 93 143
59 93 146
66 88 128
49 56 48
46 53 41
54 60 43
44 54 43
56 61 42
75 78 54
64 70 43
67 71 48
70 75 51
78 82 55
74 80 55
86 90 60
77 82 58
94 96 62
83 88 59
81 87 62
94 98 60
92 95 61
102 104 66
111 112 67
105 107 68
108 110 66
110 111 70
121 121 78
121 121 71
115 116 71
126 126 74
124 124 70
117 118 74
130 129 75
132 131 75
132 131 79
126 126 78
134 133 77
136 134 77
143 140 80
150 147 88
148 145 87
146 143 79
141 138 81
145 142 82
152 149 85
147 143 82
158 153 91
149 145 80
160 154 79
155 150 85
154 150 84
153 149 84
154 150 86
156 151 85
152 148 83
158 153 86
162 157 89
163 157 91
161 156 87
163 158 85
168 162 94
161 157 84
161 156 84
159 155 83
166 161 86
167 160 90
165 160 82
164 159 83
167 160 86
170 164 88
166 160 87
165 160 83
166 160 86
175 167 95
172 165 91
163 157 87
168 161 83
170 164 93
171 165 92
170 164 88
170 164 89
167 161 87
166 159 84
170 163 90
169 163 87
174 167 93
171 164 90
166 160 85
167 161 86
165 159 84
168 162 91
167 160 87
164 158 80
169 162 84
165 159 87
165 159 88
160 154 75
164 158 84
168 162 86
165 159 84
164 158 80
166 159 82
162 155 84
163 156 78
163 156 80
162 156 79
164 157 83
164 158 82
164 157 77
157 151 77
157 151 81
161 154 81
153 147 77
161 154 74
163 156 80
153 146 69
153 147 73
154 148 75
149 144 69
146 140 64
155 148 75
151 145 75
150 145 65
139 134 62
139 134 63
142 136 60
145 140 61
140 134 57
140 133 61
136 130 59
135 129 60
133 128 60
133 127 59
142 139 59
139 143 47
145 156 36
167 187 11
171 195 0
169 190 0
168 190 0
170 191 0
168 190 0
171 194 0
173 196 0
169 193 0
171 195 0
174 197 0
172 195 0
172 196 0
171 194 0
174 197 0
172 195 0
173 196 0
171 195 0
171 194 0
174 197 0
171 195 0
173 196 0
171 195 0
174 197 0
170 193 0
168 192 0
171 194 0
172 196 0
172 195 0
175 198 0
171 195 0
172 196 0
172 195 0
173 196 0
169 192 0
170 193 0
172 196 0
172 195 0
172 196 0
170 194 0
172 195 0
171 195 0
172 195 0
175 198 0
173 196 0
172 194 0
173 196 0
173 197 0
171 194 0
171 194 0
168 193 0
170 194 0
172 196 0
169 193 0
169 192 0
171 195 0
171 194 0
171 194 0
172 195 0
174 197 0
170 194 0
171 194 0
166 189 0
172 195 0
169 193 0
170 194 0
172 195 0
169 192 0
166 189 0
169 191 0
169 192 0
172 196 0
171 195 0
170 194 0
168 191 0
171 194 0
171 194 0
172 195 0
170 193 0
172 195 0
170 192 0
171 194 0
170 194 0
171 194 0
170 193 0
167 191 0
169 192 0
168 191 0
170 193 0
172 196 0
168 191 0
170 193 0
172 195 0
169 193 0
170 193 0
173 196 0
166 188 0
109 136 130
62 99 165
62 99 167
62 98 162
61 97 159
62 99 166
63 99 162
62 98 161
62 98 165
63 99 172
62 98 164
62 98 169
63 99 173
62 99 173
62 99 173
62 99 171
62 99 174
62 98 168
62 99 169
62 98 166
62 98 171
63 99 170
62 98 171
63 99 175
62 99 172
63 99 173
62 99 176
61 98 173
62 99 172
63 99 173
62 99 172
63 99 176
63 99 172
63 99 172
61 98 174
62 99 176
62 99 174
62 99 179
62 99 174
63 99 177
62 99 173
62 99 175
62 99 173
62 99 174
62 98 169
62 98 172
63 100 178
62 99 177
62 99 178
62 99 176
62 99 175
62 99 176
62 99 171
62 99 178
62 99 176
62 99 175
61 97 170
62 99 174
62 99 177
63 100 178
63 99 177
62 99 177
62 99 173
61 98 173
62 99 176
62 99 176
62 99 179
63 100 177
62 99 176
62 99 177
62 99 177
62 99 178
62 99 175
62 99 172
62 99 174
62 99 177
62 99 177
62 99 174
62 99 175
62 99 177
62 99 174
62 99 174
62 99 173
62 99 177
62 99 176
62 99 175
62 99 178
62 99 175
63 99 177
62 99 177
62 99 175
62 99 178
62 99 178
61 98 174
62 99 177
62 99 177
62 99 177
62 99 174
61 98 175
63 100 178
62 99 175
62 99 174
62 99 175
62 99 176
62 98 174
62 99 172
62 99 178
62 98 174
62 99 176
62 98 169
62 99 174
62 98 169
62 98 174
62 98 174
62 99 177
62 99 177
63 99 176
62 98 172
63 99 177
62 99 175
63 99 173
63 99 176
63 100 177
62 99 171
62 99 178
62 98 171
62 98 170
62 99 170
61 98 176
62 98 168
62 99 173
62 99 171
62 99 170
61 98 168
62 98 171
62 98 169
63 99 173
63 99 176
62 98 169
62 98 169
63 99 173
62 99 174
63 99 173
62 99 174
62 99 170
63 99 172
61 97 169
62 98 166
62 98 170
61 98 169
62 97 166
61 97 163
62 98 172
62 98 169
61 97 163
62 98 166
59 94 156
61 97 161
60 95 159
61 96 162
61 97 159
60 95 154
61 96 164
61 97 160
61 96 158
61 96 161
61 96 156
61 95 155
61 96 164
58 88 141
45 57 68
59 64 43
51 56 38
63 67 45
57 61 39
68 73 49
55 61 40
56 62 43
64 69 46
75 81 56
72 77 50
76 81 54
84 89 64
95 97 62
88 90 56
100 101 64
102 105 67
88 92 59
91 95 64
94 96 54
110 111 69
112 113 67
107 108 68
127 127 78
131 129 73
130 129 74
119 121 72
119 119 71
115 116 69
134 132 81
132 131 76
128 127 72
125 125 74
132 131 77
146 143 84
148 144 81
137 135 75
139 137 74
143 140 79
153 148 88
145 142 84
146 144 79
151 148 78
147 143 77
156 151 86
150 146 86
152 148 81
148 144 79
158 153 87
155 151 82
159 154 85
153 149 84
164 158 94
157 152 86
163 157 93
165 159 85
165 159 93
168 161 91
162 156 82
164 159 86
170 163 94
168 161 88
166 161 91
162 157 85
166 161 84
167 161 87
157 151 76
168 162 85
163 158 78
163 157 86
164 157 83
170 163 90
169 163 89
166 159 85
164 159 86
167 160 84
172 164 89
169 163 83
172 165 90
163 157 79
172 164 93
171 165 87
162 156 80
166 159 88
169 162 85
170 162 86
166 160 82
167 161 85
165 159 85
170 164 92
167 160 82
170 163 91
165 158 86
167 160 84
160 154 78
159 154 80
163 157 83
159 153 75
164 157 84
163 158 79
168 160 86
157 151 73
162 156 79
159 154 78
160 154 78
157 151 75
154 148 70
160 154 73
159 153 78
157 151 72
160 153 82
146 140 66
153 147 72
151 145 67
152 147 64
155 149 75
161 155 75
144 138 67
154 147 67
148 141 70
143 138 61
141 136 63
150 143 67
141 135 62
138 133 59
140 135 63
145 139 67
144 138 61
139 132 63
143 137 57
138 138 47
141 148 42
156 171 32
169 187 25
173 194 0
170 192 0
171 194 0
170 192 0
172 195 0
172 194 0
172 193 0
172 196 0
172 195 0
171 194 0
173 197 0
173 196 0
171 195 0
174 197 0
175 198 0
172 196 0
170 194 0
172 197 0
171 195 0
170 194 0
174 197 0
173 196 0
173 195 0
171 195 0
169 192 0
172 195 0
173 197 0
172 195 0
169 193 0
168 192 0
172 196 0
171 194 0
172 196 0
173 197 0
169 193 0
169 192 0
172 195 0
172 195 0
172 195 0
169 193 0
171 194 0
172 195 0
172 196 0
170 193 0
171 194 0
171 194 0
172 195 0
170 193 0
170 194 0
169 193 0
171 195 0
168 190 0
171 194 0
172 195 0
171 195 0
173 196 0
170 194 0
173 195 0
170 194 0
168 193 0
169 192 0
167 191 0
171 196 0
171 195 0
169 192 0
169 192 0
171 195 0
169 192 0
171 195 0
169 192 0
172 195 0
173 195 0
171 194 0
172 195 0
167 190 0
172 195 0
170 193 0
166 190 0
164 188 0
171 195 0
171 193 0
174 197 0
170 193 0
172 195 0
168 192 0
167 190 0
169 192 0
173 196 0
171 194 0
169 193 0
170 193 0
166 190 0
171 194 0
171 194 0
169 193 0
164 187 51
89 119 152
62 98 163
62 98 163
62 98 165
63 99 167
62 98 163
62 98 161
62 99 166
62 99 172
63 99 167
62 99 172
62 99 171
62 98 166
63 99 172
62 98 171
62 98 168
62 99 172
62 99 175
62 99 171
63 99 169
62 98 173
62 99 173
62 98 171
62 99 169
62 98 167
62 99 177
62 98 174
62 99 172
62 98 170
62 99 179
61 98 167
63 99 174
61 98 170
62 99 176
62 99 175
62 99 172
62 99 172
63 99 172
63 99 175
62 99 174
62 98 171
62 99 178
61 98 171
62 99 176
62 99 176
63 99 174
62 99 175
62 99 176
63 99 175
62 99 175
62 99 176
63 100 178
62 99 175
62 99 177
62 99 176
62 99 176
61 98 177
63 100 178
61 98 173
62 99 175
61 98 170
62 98 173
63 99 180
63 99 176
61 98 177
62 99 177
62 99 177
62 99 178
62 99 174
62 99 176
61 98 172
61 98 174
63 99 178
62 99 173
62 99 177
62 99 171
62 98 172
62 99 178
62 99 180
62 99 179
62 99 180
62 99 175
62 99 176
62 99 173
62 99 172
62 99 178
62 99 174
62 98 174
62 99 177
62 98 170
62 98 172
62 99 176
63 100 179
61 98 173
62 98 168
62 99 172
63 99 173
62 99 178
61 98 169
62 99 175
62 99 173
62 98 165
61 98 171
63 99 176
62 98 170
62 99 173
61 98 167
62 98 169
62 99 178
62 99 172
63 100 176
62 99 171
63 99 171
62 99 170
62 99 174
62 99 174
62 98 173
62 99 174
63 100 177
62 98 174
62 99 176
62 99 173
62 99 175
62 98 169
62 99 174
62 99 174
61 98 175
62 99 172
63 99 173
62 98 164
62 99 175
62 99 168
62 98 164
62 99 171
62 99 171
62 99 170
62 98 170
62 99 165
62 98 172
62 99 171
62 98 170
62 98 171
62 98 166
62 99 172
62 99 172
62 99 173
61 98 165
63 99 172
61 97 163
62 98 165
62 98 169
61 97 161
61 97 166
63 99 170
61 97 165
61 97 166
61 97 162
63 99 172
61 97 163
61 96 160
62 97 164
61 97 161
62 98 164
62 97 160
61 96 160
61 96 160
60 94 153
59 93 147
59 92 151
58 92 150
60 81 115
39 47 32
47 54 34
58 63 41
65 70 46
52 59 39
64 68 43
64 70 51
77 80 52
79 84 53
82 86 50
86 90 57
89 91 54
84 86 57
81 85 53
89 92 58
99 101 63
100 101 62
97 100 61
108 108 65
106 107 62
108 110 69
115 116 68
104 106 64
115 115 65
119 118 63
123 122 68
116 117 74
127 126 71
115 117 69
132 131 76
135 134 76
135 134 75
128 127 73
138 136 81
135 133 75
136 134 78
139 137 77
142 139 78
141 138 75
137 135 73
145 143 85
140 138 78
153 149 81
149 145 82
153 148 81
159 153 84
156 151 79
155 150 85
161 156 88
159 154 85
151 148 78
163 157 88
166 161 89
166 161 83
161 156 86
160 155 85
161 156 90
162 157 87
166 160 89
168 160 91
169 161 91
166 161 82
163 158 85
168 162 90
169 162 92
168 162 81
169 163 81
165 158 80
167 160 89
170 163 88
169 163 83
170 164 88
167 161 87
173 166 94
170 163 90
167 160 83
166 159 84
167 161 85
169 162 84
169 162 87
168 162 83
166 160 86
173 166 93
169 162 87
170 163 80
167 160 84
166 159 81
167 161 81
165 159 79
160 155 71
167 160 80
157 151 75
169 162 92
159 154 73
165 159 83
160 154 83
160 152 75
156 149 79
157 152 75
159 153 84
162 155 80
164 158 80
161 154 79
159 153 76
157 151 71
160 154 77
151 145 70
155 148 79
152 146 75
157 151 69
146 140 64
153 147 67
152 146 71
156 150 68
139 135 56
158 152 75
145 140 58
154 148 72
150 144 67
153 146 67
150 144 65
145 140 58
142 135 64
139 134 59
143 137 61
140 134 58
137 131 57
129 124 51
117 113 41
145 145 54
151 161 42
165 181 28
172 191 11
172 192 0
174 196 0
172 193 0
170 192 0
171 191 0
171 193 0
171 192 0
172 196 0
173 196 0
173 196 0
171 194 0
171 194 0
171 194 0
171 194 0
170 195 0
173 196 0
174 197 0
171 194 0
173 196 0
174 197 0
171 193 0
174 197 0
171 195 0
172 196 0
173 196 0
171 195 0
169 194 0
171 194 0
174 197 0
173 196 0
171 195 0
171 195 0
170 193 0
169 193 0
170 194 0
170 194 0
170 195 0
172 195 0
173 195 0
172 194 0
170 193 0
169 193 0
168 190 0
172 195 0
171 195 0
169 193 0
172 196 0
170 195 0
172 194 0
173 196 0
169 192 0
170 194 0
170 194 0
172 196 0
171 194 0
172 195 0
172 195 0
171 194 0
171 194 0
172 195 0
173 196 0
171 195 0
171 195 0
173 197 0
170 195 0
171 194 0
173 196 0
171 194 0
172 195 0
171 194 0
171 194 0
169 192 0
169 192 0
173 196 0
170 193 0
167 190 0
174 196 0
167 192 0
171 194 0
166 189 0
171 195 0
167 191 0
172 196 0
168 192 0
166 189 0
169 192 0
169 191 0
167 190 0
169 192 0
166 190 0
172 195 0
170 194 0
170 192 0
169 192 0
169 191 0
150 173 74
65 100 165
62 98 160
61 98 161
62 99 165
62 99 168
62 98 161
61 97 160
62 98 167
62 98 162
62 98 168
62 98 164
62 98 161
63 99 172
62 99 173
62 99 171
61 97 160
61 98 169
62 98 170
62 98 165
62 98 172
61 97 169
62 99 169
62 99 169
62 99 173
62 99 175
62 99 171
63 99 177
62 99 173
63 100 174
61 98 173
62 99 171
63 99 173
61 98 171
62 99 173
62 98 166
62 99 173
62 99 180
62 99 175
63 99 175
62 99 177
62 99 175
62 99 173
62 99 175
63 99 174
63 100 177
62 99 177
62 99 173
63 100 176
62 99 177
62 99 178
63 99 173
62 99 179
63 100 180
62 98 174
63 99 175
62 99 177
62 99 175
62 99 176
62 99 175
63 100 179
62 99 178
62 99 176
63 100 176
62 99 179
61 98 176
62 99 175
62 98 175
62 98 174
62 99 175
63 99 178
62 99 174
62 99 175
62 98 169
63 100 178
62 99 179
63 99 176
62 99 174
62 99 179
62 99 177
62 99 173
62 99 174
62 99 179
62 99 173
62 98 175
62 99 173
62 99 172
62 99 178
62 99 174
62 99 173
62 99 174
62 99 172
63 99 173
61 98 171
61 98 169
62 99 176
62 99 178
63 99 172
62 99 173
62 99 176
62 99 176
62 99 173
62 99 174
62 99 171
63 99 175
63 99 177
62 99 175
63 99 175
62 99 173
62 99 177
62 99 172
62 99 171
63 100 177
62 99 171
63 99 172
62 99 172
63 99 174
62 99 174
63 99 173
62 98 165
63 99 177
62 98 170
62 98 173
62 99 173
62 99 172
62 98 167
63 100 178
62 98 167
62 98 167
62 99 175
62 98 171
62 99 173
62 98 170
62 98 172
62 99 171
61 97 165
63 99 172
62 98 168
62 99 168
63 99 173
62 98 170
62 99 168
62 98 166
62 98 167
62 99 172
62 99 172
62 98 168
62 98 168
63 99 170
63 99 170
62 98 170
62 98 168
63 99 170
62 98 168
62 98 168
63 99 170
60 96 159
62 98 164
62 97 165
62 98 170
61 97 164
61 97 160
61 95 159
61 97 163
59 94 154
61 96 162
60 94 154
61 96 158
60 95 158
60 93 150
59 92 146
63 88 135
45 52 41
46 53 40
50 57 33
53 58 35
65 69 38
70 74 42
54 60 42
67 72 46
62 69 48
77 82 52
73 78 51
82 85 55
80 83 55
78 82 54
96 97 59
92 95 55
104 106 66
110 110 69
100 101 61
108 109 70
92 96 59
115 116 66
115 116 69
108 109 61
134 131 73
132 130 74
122 121 69
129 127 73
134 131 72
132 131 78
132 131 80
135 133 73
134 133 77
129 129 71
135 133 79
140 138 79
141 138 74
141 139 73
139 137 74
159 154 88
148 144 82
151 147 80
154 150 83
143 140 75
149 146 77
144 141 74
149 145 80
152 148 75
152 149 82
151 147 82
160 154 84
158 154 81
158 153 81
166 160 92
159 154 86
163 158 82
159 155 83
154 150 78
164 159 84
164 157 82
166 159 85
164 159 84
161 155 83
169 162 87
167 162 91
163 157 86
165 159 83
169 162 84
162 156 76
171 164 86
165 159 82
166 161 82
165 158 80
160 156 78
169 163 86
172 164 86
166 159 82
172 165 86
166 160 83
166 160 80
161 156 77
166 160 80
163 158 84
165 158 87
169 162 88
171 164 90
161 155 75
162 156 80
162 156 77
169 162 87
161 155 78
165 158 84
163 156 80
163 156 76
161 155 73
165 159 82
159 153 73
162 155 80
164 157 80
154 148 68
167 161 84
160 153 80
157 150 74
160 154 79
155 149 69
154 147 75
163 157 78
153 148 68
150 143 67
158 152 75
161 154 70
151 145 64
146 140 70
156 150 69
149 143 65
154 148 69
155 149 71
157 149 74
154 147 79
143 139 61
143 136 64
150 143 64
142 137 59
143 138 60
133 129 45
136 131 57
143 137 60
129 124 52
130 130 47
139 143 39
148 158 37
159 176 25
171 192 11
170 193 0
171 193 0
172 193 0
171 194 0
173 196 0
169 190 0
172 194 0
170 193 0
172 196 0
175 198 0
173 197 0
170 194 0
172 195 0
170 193 0
173 196 0
172 196 0
173 197 0
167 191 0
172 196 0
172 195 0
171 195 0
172 196 0
174 197 0
171 194 0
172 196 0
174 197 0
171 195 0
172 196 0
173 196 0
173 195 0
172 195 0
169 192 0
173 196 0
170 192 0
173 196 0
170 193 0
171 195 0
166 190 0
170 194 0
171 195 0
170 194 0
170 195 0
171 196 0
172 195 0
172 196 0
170 194 0
170 194 0
167 192 0
168 191 0
169 193 0
173 196 0
168 191 0
170 194 0
172 196 0
173 196 0
172 196 0
171 194 0
169 193 0
172 195 0
168 192 0
169 192 0
169 192 0
168 190 0
173 196 0
168 191 0
169 193 0
170 193 0
169 192 0
167 191 0
168 190 0
170 193 0
170 194 0
171 194 0
170 193 0
169 192 0
167 190 0
169 191 0
172 195 0
170 193 0
169 193 0
170 193 0
170 194 0
167 190 0
170 194 0
172 195 0
168 192 0
171 193 0
168 192 0
169 192 0
171 194 0
169 192 0
171 194 0
168 193 0
167 190 0
167 190 0
118 145 130
62 98 158
61 98 164
62 98 162
62 98 169
62 98 159
62 98 162
63 99 172
62 98 168
63 99 168
62 98 167
61 97 164
61 98 168
61 97 165
61 98 168
62 99 170
62 98 172
62 98 170
63 99 171
62 98 162
62 99 171
62 98 168
61 98 169
62 99 176
62 98 169
62 99 170
62 99 170
62 99 172
62 99 170
63 100 179
62 99 172
62 99 175
62 99 171
62 99 174
62 99 176
63 99 176
62 99 177
62 99 173
62 99 174
62 99 173
62 99 177
62 98 173
62 99 175
63 99 177
62 99 175
63 100 177
62 99 177
62 99 174
62 99 175
62 98 174
62 98 170
62 99 177
63 99 173
61 98 174
63 99 178
62 99 176
62 99 175
62 99 175
62 99 176
62 99 175
62 99 178
62 99 177
62 99 174
63 99 174
62 98 173
63 99 172
62 99 175
63 99 173
63 100 178
62 99 177
62 99 176
61 98 173
61 98 172
62 99 173
62 99 178
62 99 171
62 99 175
62 99 177
62 99 179
61 98 172
62 99 175
61 98 174
62 99 177
63 99 175
62 99 176
63 99 174
62 99 175
62 99 176
62 99 176
62 99 176
62 99 175
62 98 172
62 99 174
62 99 170
63 99 177
61 98 173
63 99 177
62 99 175
61 99 179
62 98 173
62 99 176
62 99 172
62 99 177
62 98 170
62 98 169
62 99 175
62 99 180
62 99 174
62 99 172
61 98 174
62 98 171
62 99 173
62 99 173
63 100 175
62 99 174
63 100 176
62 98 169
62 98 168
63 99 177
62 99 175
63 99 174
62 99 175
62 99 174
63 99 179
62 99 175
62 99 171
63 99 170
62 99 170
62 99 171
62 98 171
62 99 174
62 99 173
61 98 166
62 99 172
63 99 172
62 98 166
62 99 168
62 98 167
63 99 173
62 99 170
62 99 173
61 97 161
63 99 169
61 98 165
62 99 170
62 98 168
61 98 165
62 99 169
62 98 167
62 97 165
62 99 174
62 98 168
61 97 158
62 98 169
62 98 165
61 98 167
62 98 169
62 98 169
61 97 162
62 98 166
61 97 166
61 96 160
60 95 161
61 96 156
61 97 162
60 95 156
61 95 159
59 93 148
60 95 158
61 96 156
61 94 153
56 86 138
59 72 81
44 52 34
45 51 35
62 66 41
52 58 39
57 64 45
71 74 43
69 73 46
69 73 44
90 91 55
72 77 50
88 92 51
87 92 59
92 95 57
83 87 55
82 86 53
99 100 62
98 99 62
104 105 58
103 104 57
121 120 64
120 119 70
110 111 69
111 112 64
108 109 65
125 124 70
131 130 77
128 127 72
136 134 79
131 130 71
128 127 74
133 132 73
140 138 84
129 128 71
136 135 76
140 138 77
139 135 73
141 138 82
136 134 77
148 144 76
144 141 77
153 149 83
150 146 84
152 149 84
152 148 81
150 147 78
150 146 78
157 152 89
148 145 76
154 150 81
151 147 81
159 154 80
165 159 87
154 150 80
157 151 83
159 154 85
158 154 82
166 159 84
162 155 83
162 157 88
163 159 86
161 156 72
167 161 84
165 160 85
170 164 87
164 158 78
166 160 84
165 159 85
165 159 84
165 158 80
160 155 76
164 157 76
168 162 86
164 159 81
163 157 81
168 162 80
167 160 86
169 162 88
170 163 86
168 161 84
167 160 80
158 152 77
164 158 79
164 157 77
167 161 85
160 155 76
167 161 81
161 155 75
162 156 81
165 159 80
166 160 85
160 154 75
167 159 87
160 154 80
156 151 76
161 155 74
165 159 82
163 156 78
156 150 73
164 157 77
167 160 84
156 150 72
154 149 71
161 155 75
158 152 79
160 153 77
153 147 66
153 148 67
154 148 69
156 150 75
149 144 61
152 146 69
150 144 70
153 147 68
143 137 64
146 141 59
144 138 64
150 143 66
145 139 64
144 138 64
145 139 57
147 141 69
146 141 61
135 129 58
139 134 61
130 125 52
141 136 59
140 134 56
130 129 45
146 152 37
155 170 28
162 182 19
173 195 0
170 192 0
166 187 0
172 195 0
171 193 0
171 194 0
172 193 0
170 191 0
174 197 0
172 195 0
175 198 0
172 195 0
171 194 0
174 196 0
172 195 0
172 195 0
174 197 0
171 194 0
172 195 0
172 195 0
172 195 0
170 193 0
171 194 0
171 195 0
171 194 0
172 195 0
173 196 0
170 194 0
170 194 0
172 196 0
171 195 0
172 195 0
175 197 0
170 193 0
173 196 0
173 196 0
170 194 0
172 195 0
171 195 0
171 193 0
172 196 0
173 197 0
170 194 0
173 196 0
168 191 0
173 197 0
170 193 0
173 196 0
170 194 0
174 197 0
171 194 0
170 193 0
169 193 0
166 190 0
170 194 0
173 197 0
171 194 0
172 195 0
170 194 0
170 195 0
169 191 0
171 195 0
172 195 0
169 192 0
169 192 0
173 196 0
169 193 0
170 193 0
172 195 0
167 191 0
171 194 0
167 190 0
171 194 0
167 191 0
168 192 0
173 196 0
170 194 0
170 193 0
169 192 0
171 195 0
167 190 0
171 194 0
171 194 0
170 193 0
170 193 0
170 192 0
169 192 0
169 193 0
169 191 0
168 191 0
169 193 0
171 193 0
170 192 0
168 192 0
169 192 0
168 191 31
93 121 144
61 97 158
62 98 162
61 97 158
62 98 162
62 98 159
62 98 164
62 98 166
62 98 166
62 98 159
62 98 163
62 98 166
62 98 168
62 99 172
62 99 173
61 97 163
61 98 166
61 98 169
61 98 168
62 99 173
63 99 171
62 98 170
62 98 169
63 99 173
62 98 172
62 98 169
62 99 172
62 99 171
62 99 172
62 99 173
62 98 172
62 99 176
63 100 177
62 99 168
63 100 175
62 99 171
63 100 177
62 99 175
62 99 174
62 99 177
63 99 177
62 99 174
62 99 175
62 99 175
62 98 169
62 99 171
62 99 178
63 99 174
62 99 178
62 99 173
62 99 172
62 99 177
62 99 172
61 98 172
62 98 172
62 99 176
63 99 175
62 99 178
63 99 175
63 99 179
62 98 172
62 98 171
62 99 175
62 99 172
62 99 173
62 99 171
62 99 175
62 99 174
63 99 175
62 99 175
62 99 175
63 100 177
63 100 177
62 99 178
62 98 169
62 99 178
63 100 178
62 99 176
61 98 172
63 99 175
62 99 175
62 99 173
62 99 173
62 99 174
62 99 174
61 98 175
62 99 174
62 99 170
62 99 170
62 99 172
63 99 175
62 99 178
62 98 169
62 98 171
63 100 178
63 99 172
62 99 176
62 99 176
62 99 177
62 99 173
62 99 179
62 99 176
62 99 175
62 99 171
63 100 178
61 98 172
63 99 176
62 98 172
61 98 175
63 99 172
62 99 174
62 99 175
62 99 171
62 99 175
63 99 174
62 99 168
62 99 172
62 98 168
63 100 173
62 99 171
62 99 174
62 98 170
62 99 178
62 99 168
62 99 168
62 98 169
62 99 173
62 98 168
61 98 167
62 99 175
62 98 169
62 99 172
62 98 166
62 99 171
62 98 168
62 98 165
62 98 171
62 98 168
62 98 167
63 99 174
63 99 170
61 97 162
62 99 169
62 98 168
62 99 168
63 99 166
62 98 167
62 98 164
62 99 171
62 98 165
62 98 171
62 99 168
62 98 166
62 98 166
62 98 172
62 98 168
63 99 172
61 97 163
61 98 164
61 97 163
61 96 163
62 97 162
60 95 161
61 96 158
60 96 159
61 96 159
60 94 153
60 94 155
60 94 156
60 94 151
61 94 152
59 93 149
55 73 104
44 49 28
47 53 33
60 66 41
66 69 37
53 60 40
73 76 46
73 77 47
72 76 51
75 80 51
77 82 46
71 76 46
85 89 55
88 89 53
77 83 55
94 95 63
104 106 62
102 104 59
110 110 65
108 109 69
109 109 62
117 116 65
108 110 61
98 101 62
118 119 70
112 112 65
122 121 66
120 120 66
123 122 67
125 123 68
139 137 69
123 122 66
136 134 76
139 137 76
136 134 69
136 134 79
150 146 80
139 136 72
139 137 69
135 133 73
153 149 82
148 145 80
150 146 84
153 148 80
145 143 78
155 151 80
155 151 79
153 149 83
158 153 89
158 152 80
160 155 82
152 148 74
157 152 86
154 149 81
161 155 84
160 156 83
158 153 80
153 148 74
161 156 83
160 155 77
162 156 78
166 160 84
171 165 89
161 155 85
168 161 86
169 162 87
165 159 84
168 162 89
159 154 82
156 151 71
164 157 78
171 163 86
166 160 83
161 156 73
168 162 81
163 157 77
169 161 87
171 165 84
161 156 80
170 164 89
172 165 85
166 159 82
168 162 82
167 161 79
167 160 84
164 159 81
169 162 80
167 160 86
159 154 80
162 156 76
164 157 80
161 155 78
159 152 73
165 158 83
167 160 79
161 155 75
161 155 75
160 154 76
165 158 80
157 151 79
161 155 76
162 156 76
154 149 65
159 153 73
154 148 75
158 151 72
148 143 65
152 146 69
155 149 67
153 147 67
149 144 67
153 146 66
143 138 58
151 144 70
156 149 72
152 146 72
146 139 62
150 144 68
140 134 60
135 131 57
139 132 61
147 140 71
138 132 58
136 130 57
138 132 60
137 132 54
135 130 48
137 133 57
136 136 45
146 155 34
149 163 28
167 186 11
170 192 0
171 192 0
171 194 0
169 191 0
169 190 0
170 192 0
171 192 0
171 194 0
170 194 0
173 196 0
171 195 0
174 197 0
173 196 0
172 195 0
173 197 0
171 193 0
172 196 0
173 197 0
174 197 0
174 197 0
173 196 0
172 195 0
170 193 0
173 196 0
174 197 0
169 192 0
171 193 0
173 196 0
171 194 0
169 192 0
170 194 0
171 194 0
170 194 0
174 197 0
169 193 0
168 191 0
171 195 0
172 195 0
171 195 0
170 194 0
171 195 0
169 193 0
168 192 0
171 195 0
170 194 0
171 195 0
170 193 0
170 193 0
172 195 0
171 195 0
168 191 0
167 191 0
173 196 0
172 195 0
169 193 0
173 196 0
172 195 0
169 192 0
169 192 0
171 194 0
170 193 0
166 191 0
171 195 0
170 193 0
172 195 0
169 193 0
171 195 0
170 193 0
170 193 0
170 193 0
169 193 0
167 190 0
170 195 0
169 192 0
168 192 0
172 194 0
170 194 0
167 190 0
170 194 0
170 193 0
168 191 0
170 193 0
169 192 0
170 193 0
168 191 0
171 194 0
166 190 0
170 193 0
171 195 0
173 196 0
166 189 0
168 191 0
171 195 0
169 191 0
168 191 0
141 165 88
62 98 163
63 99 166
62 99 166
61 97 157
63 99 167
62 98 161
62 98 159
61 97 159
62 98 168
61 98 168
62 99 167
62 98 167
61 98 164
61 98 168
61 98 167
62 99 167
61 98 170
62 98 166
62 99 169
62 98 169
61 98 166
62 99 174
62 99 174
62 99 174
63 100 179
63 99 177
62 98 174
62 99 173
62 99 166
62 98 170
63 100 175
62 99 172
62 99 175
61 98 170
62 98 169
62 99 171
62 99 175
62 99 175
63 99 175
62 99 173
63 99 175
61 98 171
62 99 175
62 99 175
62 99 173
62 99 175
62 98 168
62 98 175
63 100 179
61 98 172
62 99 176
61 98 176
62 99 175
62 99 176
62 99 175
62 99 173
61 98 171
63 99 176
62 99 176
61 98 173
63 99 175
62 99 175
62 98 174
62 99 174
63 100 174
63 99 174
62 99 174
62 99 178
62 99 174
62 99 175
62 99 176
62 99 175
62 99 174
62 98 172
62 99 177
62 99 175
62 99 174
63 99 171
62 99 175
63 100 177
62 99 173
62 99 171
62 99 169
62 99 175
62 99 174
63 99 175
62 99 175
62 99 172
62 99 176
62 99 175
62 99 175
62 99 175
63 100 176
63 99 175
62 99 174
62 99 174
62 99 172
62 99 175
62 99 175
61 98 168
62 99 177
62 99 174
62 99 172
61 98 168
62 98 172
62 99 171
62 99 171
63 99 174
63 99 172
61 98 174
62 99 175
62 98 172
62 99 174
62 99 173
62 99 174
62 99 173
62 98 168
62 99 173
62 98 170
62 99 171
60 97 167
63 99 174
61 98 172
62 98 169
62 99 172
64 100 176
62 98 168
63 99 175
62 98 168
62 99 173
61 98 169
63 99 170
62 98 170
62 98 169
62 99 173
62 98 169
63 99 171
61 98 171
63 99 173
62 99 168
62 99 170
62 98 169
61 98 172
62 99 168
62 99 169
63 99 171
62 98 167
62 99 171
61 97 164
63 100 169
62 98 164
61 97 161
62 98 166
62 98 158
62 98 167
61 97 160
61 97 160
62 98 166
61 97 165
62 99 166
62 98 165
61 96 162
61 96 161
61 96 164
60 96 158
61 96 159
61 95 157
60 95 158
60 95 158
59 93 149
60 94 152
59 92 151
54 80 121
49 57 42
49 55 29
55 59 30
49 56 33
60 66 44
57 64 45
63 68 42
60 66 41
78 81 43
81 84 51
81 85 51
84 88 53
89 93 62
87 90 55
93 96 53
92 95 54
86 90 56
98 99 50
111 112 64
104 106 56
110 110 62
112 112 64
114 115 67
111 112 64
114 116 65
124 123 72
136 132 75
128 127 75
130 128 68
133 132 68
115 115 68
138 135 73
141 138 77
129 127 70
140 136 75
141 138 72
143 140 73
141 137 72
146 143 81
142 139 79
153 149 84
148 145 78
138 136 74
147 143 79
155 149 78
156 152 78
158 153 83
152 148 82
150 145 78
160 155 78
158 153 85
155 151 81
158 153 83
161 156 81
154 148 77
159 154 82
168 161 89
161 155 79
156 151 75
164 159 79
156 151 78
169 163 87
166 159 82
166 159 86
163 158 84
163 157 84
164 157 81
170 164 86
166 160 85
163 157 84
167 160 90
171 164 86
169 162 89
169 163 89
159 153 73
167 159 81
168 162 83
171 164 84
167 160 84
167 161 81
166 160 86
165 158 80
172 164 85
164 157 84
167 160 81
163 158 74
164 157 82
161 156 76
161 154 75
162 155 81
159 153 77
162 156 77
162 155 77
159 152 77
162 156 78
159 153 80
156 150 72
162 155 78
157 151 75
157 150 71
155 150 75
158 152 75
151 147 67
152 145 74
158 151 79
164 157 83
154 149 74
155 149 72
154 147 66
151 145 70
148 143 59
143 138 62
151 143 72
146 140 64
155 148 71
144 138 65
149 143 64
146 140 61
149 143 67
141 134 65
146 141 68
145 139 60
147 140 64
137 132 61
138 133 54
127 122 53
139 133 56
135 138 41
159 168 44
159 175 34
167 188 0
171 191 0
167 188 0
173 194 0
169 191 0
168 188 0
173 193 0
173 195 0
172 192 0
174 197 0
173 196 0
171 195 0
171 194 0
171 195 0
174 197 0
168 192 0
173 197 0
173 196 0
171 194 0
172 195 0
172 196 0
171 194 0
171 195 0
171 193 0
172 196 0
171 195 0
173 196 0
170 193 0
169 193 0
173 196 0
169 193 0
173 197 0
171 194 0
169 191 0
169 193 0
168 191 0
170 194 0
173 196 0
170 193 0
169 193 0
170 193 0
170 194 0
170 193 0
171 194 0
172 196 0
167 191 0
170 194 0
169 192 0
171 195 0
168 191 0
172 195 0
172 195 0
168 192 0
169 192 0
168 191 0
174 197 0
172 194 0
171 195 0
168 192 0
172 195 0
169 192 0
171 194 0
171 194 0
169 192 0
170 194 0
170 194 0
172 195 0
169 192 0
169 192 0
168 193 0
173 196 0
172 195 0
165 189 0
171 194 0
170 194 0
169 192 0
171 195 0
172 195 0
172 196 0
169 192 0
171 194 0
168 191 0
170 193 0
171 194 0
171 193 0
171 195 0
168 192 0
168 190 0
171 194 0
172 196 0
170 193 0
170 192 0
170 193 0
167 190 0
164 187 0
166 189 0
126 151 102
62 98 160
62 98 157
62 98 156
62 98 163
61 97 154
61 98 162
62 98 162
62 99 167
61 97 162
62 99 168
61 98 166
63 99 168
62 98 167
62 98 169
62 98 169
62 99 169
63 99 171
62 98 169
62 99 170
62 98 167
62 98 169
62 98 171
62 99 171
63 99 168
62 99 169
62 99 175
62 98 171
62 98 169
62 98 169
62 99 170
63 99 174
62 98 171
62 99 175
62 99 171
62 99 179
62 99 174
62 99 173
62 99 171
62 99 174
63 99 174
63 99 176
62 99 174
62 99 175
63 99 172
62 98 174
62 99 173
62 99 178
62 98 170
62 99 176
61 98 170
62 99 175
62 99 177
62 98 170
62 99 176
62 99 175
62 99 173
62 99 173
62 99 176
62 99 175
62 98 173
62 98 171
61 98 170
62 99 174
62 99 172
62 99 175
62 99 172
61 98 175
62 99 171
63 99 174
62 99 170
62 99 172
62 99 176
62 99 171
62 99 171
62 98 172
62 99 177
62 99 176
61 98 176
62 99 177
63 99 174
63 99 177
62 99 174
61 98 168
62 99 173
62 99 174
62 98 171
62 99 177
62 99 175
62 99 170
62 99 176
63 99 174
62 99 176
61 98 172
62 99 176
62 99 176
62 98 168
62 99 174
63 100 177
62 99 175
63 99 176
62 99 170
62 99 173
62 99 175
61 98 174
62 99 177
61 98 172
62 98 168
62 99 173
63 99 173
62 99 170
62 99 169
63 99 172
62 99 175
62 99 170
62 99 172
62 99 174
62 99 172
62 99 174
63 99 172
62 99 172
63 99 171
62 99 174
62 99 172
62 98 171
62 98 168
62 99 172
62 99 167
62 99 170
63 99 173
62 98 166
62 99 171
62 98 170
62 98 164
63 99 177
62 99 173
62 99 171
63 99 175
62 98 165
63 99 167
62 99 172
62 99 169
62 98 165
62 98 168
63 99 168
63 99 171
62 99 170
63 99 170
63 99 172
61 98 167
62 99 168
62 98 167
62 98 168
61 98 164
61 98 166
62 98 166
62 98 163
61 97 163
61 97 166
61 97 159
61 96 156
62 98 165
61 96 160
62 98 161
61 96 161
61 97 159
61 96 160
60 95 157
60 95 156
61 96 157
60 95 150
60 94 154
58 90 140
59 89 142
49 59 55
54 58 34
40 48 35
61 66 38
69 74 42
54 61 33
64 69 40
67 73 42
80 85 56
78 83 54
83 86 52
75 78 49
79 82 45
92 94 46
92 95 55
105 105 56
100 102 62
94 97 50
108 108 61
96 98 54
110 110 66
104 105 56
120 118 59
111 112 60
117 117 69
118 117 60
123 123 66
129 127 70
128 126 70
125 124 69
128 126 69
131 129 72
137 135 75
130 127 65
144 140 82
138 135 74
142 139 77
139 136 77
144 140 72
141 139 65
150 146 78
142 139 75
145 141 77
149 146 73
156 150 83
148 145 76
151 147 75
156 150 79
157 152 79
151 146 79
158 152 80
161 156 83
155 151 70
160 154 78
155 150 77
165 159 83
160 155 79
165 159 78
163 157 82
158 153 80
165 160 80
155 150 78
165 159 87
167 161 81
164 158 79
158 153 77
159 153 75
161 156 82
160 154 76
162 157 83
166 160 80
161 155 79
166 160 82
159 153 81
167 160 80
167 160 87
167 161 82
165 158 75
162 156 75
163 157 78
168 162 83
164 158 78
167 160 77
163 157 79
162 155 79
160 154 74
167 160 82
166 159 84
161 155 61
163 157 77
159 154 73
167 159 84
167 160 83
164 158 83
160 154 74
161 155 79
157 151 72
161 154 80
155 149 75
153 147 68
159 152 74
153 147 64
157 151 74
163 155 82
157 150 72
155 148 69
150 145 63
153 147 68
151 145 66
150 144 64
149 143 62
149 142 67
146 141 59
150 144 66
141 135 59
147 142 61
143 137 64
145 139 61
140 136 54
136 132 47
144 138 59
141 135 61
139 133 59
139 134 65
128 123 53
128 124 45
131 134 36
139 144 36
150 161 34
168 185 16
172 195 0
169 190 0
172 193 0
169 190 0
171 192 0
171 192 0
167 186 0
170 191 0
171 192 0
171 194 0
172 195 0
174 197 0
172 195 0
173 196 0
175 197 0
173 196 0
172 195 0
172 196 0
172 196 0
173 197 0
172 196 0
171 195 0
171 195 0
172 195 0
170 194 0
173 196 0
173 197 0
173 196 0
171 195 0
171 195 0
169 193 0
174 197 0
172 195 0
173 196 0
172 195 0
175 197 0
172 195 0
172 196 0
172 196 0
172 196 0
172 195 0
174 197 0
171 195 0
172 195 0
173 197 0
174 197 0
170 194 0
173 196 0
172 195 0
169 193 0
171 194 0
172 195 0
164 188 0
175 198 0
172 195 0
168 192 0
170 194 0
169 192 0
169 193 0
172 195 0
172 194 0
173 196 0
171 194 0
172 196 0
171 194 0
169 193 0
172 195 0
169 193 0
169 193 0
168 191 0
169 192 0
170 194 0
167 191 0
174 196 0
170 194 0
167 189 0
170 193 0
171 194 0
169 192 0
166 189 0
169 193 0
172 195 0
170 194 0
166 188 0
171 194 0
167 192 0
171 194 0
168 190 0
172 195 0
169 193 0
168 191 0
170 193 0
170 192 0
169 192 0
165 190 0
169 193 18
99 127 131
63 99 167
61 97 156
61 97 155
62 98 164
61 97 157
62 98 163
61 98 159
62 98 160
62 98 167
62 99 170
61 98 164
62 98 164
63 99 172
63 99 170
62 99 168
62 98 167
62 98 171
62 98 170
62 98 166
63 99 174
62 99 170
62 99 169
61 98 169
62 99 172
62 99 174
61 98 175
62 98 168
62 98 169
62 99 175
61 98 172
62 99 175
62 98 168
62 99 176
62 99 171
62 98 173
62 99 176
62 98 168
62 99 175
62 99 175
62 98 167
62 99 169
63 99 177
62 99 174
62 99 173
61 97 165
63 99 179
62 99 173
62 99 173
63 100 178
62 99 171
62 98 173
63 99 177
62 98 170
61 98 169
62 99 174
62 98 174
62 99 174
63 100 179
62 99 176
62 99 179
63 99 176
62 99 173
61 98 174
62 99 173
62 99 172
62 98 169
63 99 174
61 98 174
62 98 175
63 99 173
62 99 175
62 99 172
62 99 173
62 99 176
63 100 180
63 100 178
61 98 173
62 99 172
62 99 174
62 99 175
62 98 167
61 98 174
62 99 178
62 99 173
62 99 176
61 98 169
62 99 177
62 98 172
62 99 174
62 99 176
61 98 174
62 99 171
62 98 172
62 99 174
62 98 173
62 99 173
62 98 174
62 99 174
63 99 179
61 98 167
62 99 172
62 99 171
63 99 172
62 99 171
62 99 172
62 99 176
62 99 174
61 98 173
62 99 173
62 99 174
62 99 173
62 99 173
61 98 166
62 98 174
62 99 172
63 100 177
62 98 170
62 98 167
62 99 171
62 99 170
62 99 172
62 98 168
63 99 172
63 99 174
63 100 177
62 98 167
62 99 170
62 99 169
61 98 169
62 98 171
62 98 171
61 98 167
62 98 168
63 99 173
62 98 167
62 98 169
62 98 166
62 99 171
61 98 165
62 98 165
61 98 163
61 97 167
62 99 171
62 99 172
62 98 163
61 98 168
62 99 171
62 98 167
62 98 166
62 98 168
62 98 171
61 97 164
62 99 171
61 98 168
63 99 168
61 97 161
62 98 165
61 97 158
61 97 166
61 97 167
62 98 170
61 97 163
61 96 156
62 97 158
61 96 162
62 98 163
62 97 157
62 97 164
60 94 154
58 92 150
60 94 149
61 96 159
56 87 132
47 63 81
51 55 36
53 60 32
47 53 35
51 54 33
62 66 39
62 67 36
71 74 42
77 80 47
87 89 45
72 76 44
85 88 52
84 87 48
93 95 51
98 99 56
91 93 45
102 104 60
90 93 53
103 104 58
113 112 63
109 109 61
110 111 58
113 113 62
107 108 55
125 123 70
117 117 61
127 126 72
122 120 62
135 132 75
138 136 82
131 129 65
130 127 68
139 137 77
138 134 75
130 128 65
137 135 67
138 136 69
144 140 76
148 144 73
152 148 77
153 148 81
137 134 76
150 145 79
152 148 75
147 144 74
153 149 79
156 151 80
151 147 73
149 144 78
152 148 74
160 154 81
157 151 80
160 155 76
164 158 87
161 155 79
160 154 81
160 155 74
155 151 73
159 153 77
155 150 75
162 156 82
163 158 81
157 152 76
161 156 76
168 162 84
158 152 69
165 159 84
169 162 84
166 160 86
170 164 85
166 159 81
163 157 80
168 162 81
165 158 85
168 161 84
171 163 88
163 156 80
164 159 83
162 156 78
159 153 75
163 157 76
162 156 79
165 158 79
164 158 83
156 150 72
162 156 71
166 159 80
165 159 80
164 157 77
169 161 80
164 159 76
166 159 80
158 151 75
167 160 86
167 160 84
161 155 79
155 150 75
158 152 66
157 151 72
156 149 72
152 147 65
160 153 74
143 138 60
153 147 69
154 148 65
157 150 69
152 146 70
158 152 69
153 146 65
150 144 68
146 141 61
148 142 68
147 141 63
146 141 68
142 137 53
149 143 67
146 141 64
140 133 66
141 134 58
132 127 48
141 135 53
137 132 59
125 119 51
131 126 53
121 117 44
135 134 49
130 132 45
149 155 41
151 166 19
165 183 16
169 191 0
171 194 0
170 192 0
171 192 0
170 190 0
173 194 0
169 189 0
169 189 0
170 189 0
172 196 0
171 195 0
174 197 0
169 193 0
172 196 0
172 196 0
174 196 0
170 193 0
174 197 0
171 195 0
173 196 0
167 191 0
168 191 0
171 194 0
173 196 0
172 195 0
171 194 0
174 197 0
171 195 0
172 196 0
170 194 0
173 196 0
171 195 0
173 196 0
172 195 0
172 196 0
174 197 0
172 195 0
168 192 0
173 196 0
171 194 0
170 193 0
173 196 0
171 195 0
170 194 0
168 192 0
172 195 0
168 191 0
173 196 0
172 195 0
172 195 0
171 194 0
168 191 0
173 196 0
169 192 0
170 193 0
171 194 0
170 192 0
171 195 0
168 191 0
171 194 0
172 195 0
170 194 0
169 192 0
171 194 0
170 193 0
171 195 0
170 193 0
170 194 0
166 189 0
169 193 0
168 192 0
168 192 0
172 195 0
171 193 0
169 193 0
172 195 0
168 191 0
169 193 0
173 195 0
168 191 0
170 192 0
170 193 0
170 194 0
171 194 0
166 189 0
163 187 0
168 191 0
167 190 0
168 191 0
172 195 0
170 193 0
170 194 0
165 188 0
169 192 0
168 191 0
163 186 47
78 110 153
62 98 160
61 97 160
62 98 162
62 98 162
61 97 160
62 98 166
62 98 169
62 99 170
62 98 166
62 99 170
63 99 170
62 98 165
62 99 174
62 98 170
61 98 168
63 99 171
61 98 169
62 99 169
62 98 170
62 99 167
62 98 166
62 98 168
62 98 167
63 99 174
62 99 170
63 100 177
62 98 168
62 98 172
62 98 172
62 98 169
62 98 167
63 99 171
62 99 172
62 99 171
62 99 175
63 99 176
62 99 175
62 99 172
63 99 172
62 99 173
62 99 173
62 99 176
62 99 173
62 99 176
62 98 169
62 98 172
63 99 175
62 99 171
62 99 176
62 99 177
61 98 170
62 99 175
62 99 174
63 99 174
62 99 174
63 100 174
62 99 174
62 99 174
62 99 175
62 99 172
62 99 176
61 98 175
63 99 176
63 100 178
62 99 176
62 99 174
61 98 170
62 99 173
62 99 174
62 99 175
62 99 176
62 99 174
62 98 173
63 99 172
62 99 174
62 98 172
62 98 171
62 99 173
62 99 177
62 99 174
62 99 173
62 99 175
62 99 176
62 99 174
63 99 172
62 98 169
62 99 175
63 99 174
62 99 175
62 99 171
62 99 176
62 99 175
62 99 173
62 98 173
62 99 177
62 99 175
62 98 170
62 99 172
62 99 172
62 99 175
62 98 170
62 99 173
63 99 170
62 99 178
62 99 170
62 99 174
62 99 170
62 99 171
62 99 173
62 99 173
62 99 173
62 99 172
62 99 172
62 99 168
62 99 171
63 100 175
61 98 174
62 98 170
62 99 168
62 99 172
62 99 170
62 98 169
62 99 171
63 99 173
62 99 174
62 99 173
62 99 173
62 99 171
62 98 163
63 99 173
63 99 171
63 99 174
62 99 169
62 98 171
62 99 170
63 99 173
62 99 165
61 98 172
61 98 166
63 99 172
62 99 166
62 98 163
62 98 168
62 98 168
62 98 168
62 98 165
62 98 164
62 98 169
62 98 170
62 98 171
61 97 162
61 97 163
61 97 155
62 98 165
62 98 167
62 99 169
62 98 170
61 97 162
61 96 161
61 96 160
62 98 162
60 96 161
61 97 159
61 97 159
61 96 157
60 95 154
61 96 156
62 97 166
61 95 158
60 95 157
60 94 154
59 92 146
58 91 143
52 72 100
46 50 26
50 56 33
54 59 31
51 57 33
72 74 34
71 73 35
76 78 42
69 74 39
62 67 39
69 75 49
87 89 53
76 80 47
93 94 48
99 100 54
86 90 49
103 104 57
105 106 59
103 105 60
94 96 57
105 106 66
115 114 58
124 123 69
112 112 60
116 118 62
119 118 70
129 128 66
112 113 56
133 132 71
124 123 70
131 129 73
126 124 67
140 136 74
139 136 70
141 137 67
139 135 73
142 139 67
142 139 69
147 144 72
137 134 77
146 142 80
141 138 71
145 141 75
145 140 69
145 141 75
151 147 82
150 146 75
154 149 77
158 152 81
157 150 84
147 143 74
159 153 86
153 148 70
154 149 75
165 159 86
161 156 85
157 152 79
160 156 82
164 158 82
160 154 81
155 150 78
165 160 83
163 157 86
165 158 86
155 150 66
170 163 84
159 153 74
162 156 78
165 158 78
158 154 75
165 159 81
159 154 75
163 156 76
167 161 84
164 157 79
167 160 87
165 159 80
160 154 77
166 159 83
166 159 78
169 161 84
161 155 74
162 156 76
158 152 73
160 154 77
164 157 76
159 153 73
164 158 73
161 155 77
162 155 74
161 154 75
164 158 75
165 158 76
161 155 75
163 156 75
158 151 77
160 155 74
156 149 73
162 156 68
153 147 67
158 152 70
156 149 75
151 146 67
146 140 65
151 145 67
161 154 77
149 143 61
155 149 68
157 151 69
155 149 69
149 143 66
152 145 69
149 144 60
147 141 62
147 141 67
147 141 63
136 131 48
138 132 56
140 134 49
134 129 49
130 124 52
140 135 53
123 117 51
130 125 45
131 126 52
141 141 48
139 142 41
157 169 36
162 177 28
165 184 11
165 186 0
170 190 0
169 190 0
171 193 0
172 193 0
170 192 0
171 193 0
170 192 0
167 188 0
173 196 0
175 198 0
172 196 0
172 195 0
172 195 0
171 193 0
173 196 0
169 192 0
171 195 0
170 194 0
171 193 0
173 196 0
170 194 0
171 196 0
169 193 0
173 197 0
172 196 0
170 194 0
173 196 0
171 194 0
173 196 0
173 196 0
172 195 0
172 196 0
169 193 0
172 195 0
169 193 0
175 197 0
172 196 0
169 193 0
173 196 0
172 195 0
174 197 0
172 195 0
171 195 0
170 193 0
170 193 0
172 195 0
171 195 0
173 196 0
171 195 0
167 190 0
170 193 0
171 194 0
170 193 0
168 192 0
172 194 0
169 192 0
172 195 0
171 194 0
170 193 0
168 191 0
165 188 0
168 191 0
172 195 0
168 191 0
173 196 0
171 194 0
171 194 0
169 192 0
164 188 0
170 193 0
170 192 0
170 193 0
168 192 0
173 197 0
169 192 0
171 194 0
165 189 0
169 193 0
167 191 0
164 188 0
168 191 0
169 192 0
165 189 0
168 192 0
169 193 0
168 192 0
166 189 0
169 192 0
168 191 0
169 192 0
170 193 0
163 187 0
170 192 0
166 189 0
142 167 99
62 98 157
61 97 158
62 98 161
62 98 160
63 99 162
62 98 161
62 98 161
61 98 163
61 97 158
62 99 167
63 99 166
63 99 168
61 97 159
62 98 168
62 98 167
63 99 168
62 98 166
62 98 169
62 98 164
62 99 169
62 99 169
62 99 170
62 99 169
61 97 162
62 98 171
62 99 171
63 99 172
62 99 170
62 99 169
62 98 173
62 99 170
61 98 172
61 98 174
62 99 175
61 98 172
62 99 171
62 99 172
62 99 174
62 99 171
61 98 170
62 98 171
61 98 171
63 100 178
62 99 176
62 99 173
62 99 172
62 99 174
62 99 175
62 98 171
62 99 170
63 100 179
62 99 176
61 98 173
62 99 177
63 99 171
63 100 179
62 99 173
62 98 174
62 99 172
63 99 174
62 99 170
63 100 176
61 98 170
61 98 171
62 99 177
62 99 172
62 99 175
62 99 175
62 99 177
62 98 171
62 99 174
63 100 177
62 99 174
62 99 177
62 99 178
62 99 175
62 99 171
62 99 176
62 99 170
62 99 176
62 99 169
61 98 171
62 99 174
62 99 169
62 99 175
62 99 179
61 98 169
62 99 176
62 99 172
63 99 174
62 98 172
62 99 172
62 99 176
62 99 170
62 98 171
62 99 173
63 99 173
62 99 176
63 99 174
63 99 173
62 99 173
62 98 169
62 98 168
62 99 175
62 98 168
62 99 175
62 99 172
62 99 170
61 98 168
62 98 169
62 99 171
61 98 162
62 99 177
62 98 168
62 99 173
63 99 172
63 99 174
63 100 175
63 99 170
62 99 174
62 99 173
62 98 165
62 98 166
62 98 167
63 99 169
63 99 174
62 99 174
62 99 170
62 99 174
63 99 173
63 99 172
62 99 170
61 98 169
61 98 167
62 99 167
62 98 166
62 98 164
62 98 165
62 99 168
62 99 169
61 97 163
62 98 164
61 97 157
62 98 165
62 99 171
62 98 167
62 98 167
62 98 161
62 98 164
62 98 163
62 98 170
62 98 169
61 97 162
62 97 159
62 98 158
62 98 167
62 98 164
62 98 158
62 98 166
61 97 167
61 97 156
61 98 166
61 97 166
61 97 160
62 98 165
61 97 161
60 94 158
61 95 151
59 93 148
60 94 151
60 95 155
59 93 149
60 93 148
60 94 153
58 83 123
48 55 47
54 59 34
44 52 34
60 65 28
67 70 36
62 66 31
77 81 46
70 75 39
86 89 39
69 74 41
69 75 43
87 89 50
87 88 47
103 104 58
96 97 55
92 94 51
91 93 53
102 103 55
92 95 51
103 105 58
103 103 57
116 116 61
120 119 70
117 117 65
112 113 65
130 127 64
115 115 60
126 124 68
136 133 66
140 136 78
126 124 65
126 126 70
136 133 73
130 128 55
134 131 64
143 140 73
136 135 73
145 142 72
138 135 77
147 143 75
142 139 66
146 142 72
155 149 78
148 144 74
150 145 81
149 144 76
153 148 77
153 148 71
149 146 71
154 149 78
159 153 77
159 154 86
161 155 81
152 147 77
156 152 76
162 155 80
155 150 76
158 153 74
162 157 80
160 155 78
161 156 77
168 162 83
164 157 82
165 158 83
167 161 84
161 156 77
162 155 75
155 150 69
164 158 80
165 158 77
160 154 75
163 157 85
162 155 78
167 160 82
165 158 84
163 156 76
162 156 73
171 163 82
167 159 78
166 160 83
156 151 71
164 156 78
160 155 74
162 155 75
166 159 78
161 154 78
160 154 73
161 154 78
156 151 63
164 156 80
162 156 75
160 153 70
161 155 71
162 156 71
156 152 67
159 153 71
153 147 70
155 149 69
160 153 66
161 153 77
151 146 63
152 146 70
153 147 66
150 144 71
154 149 67
159 153 71
153 147 68
148 142 61
152 145 65
146 140 60
144 138 62
145 140 61
151 146 61
134 129 54
142 136 57
147 141 62
140 134 62
134 129 53
134 129 52
134 129 54
136 131 52
130 124 49
125 121 45
129 127 47
141 145 47
149 155 39
148 161 25
162 177 32
166 188 0
170 191 0
173 194 0
169 190 0
168 186 0
168 188 0
168 189 0
168 191 0
168 189 0
171 192 0
173 196 0
174 197 0
170 193 0
172 196 0
173 196 0
172 195 0
172 195 0
171 195 0
171 194 0
173 196 0
172 196 0
171 194 0
173 196 0
172 195 0
170 194 0
175 197 0
172 194 0
172 195 0
173 197 0
173 196 0
170 194 0
174 198 0
173 195 0
170 193 0
170 194 0
171 195 0
170 194 0
174 197 0
169 192 0
173 197 0
168 192 0
172 196 0
172 195 0
167 190 0
173 196 0
170 193 0
171 194 0
170 194 0
167 190 0
168 191 0
169 192 0
172 195 0
169 192 0
169 193 0
172 195 0
172 195 0
169 192 0
171 193 0
170 194 0
170 192 0
171 194 0
170 194 0
173 196 0
171 194 0
170 194 0
170 193 0
171 194 0
169 193 0
172 195 0
170 192 0
170 193 0
169 193 0
170 193 0
170 193 0
166 190 0
169 193 0
170 193 0
168 191 0
171 194 0
173 196 0
168 190 0
172 194 0
166 190 0
172 195 0
169 193 0
169 192 0
174 197 0
169 192 0
170 193 0
167 189 0
171 194 0
168 191 0
172 195 0
168 192 0
164 187 0
171 195 0
127 153 118
61 96 153
61 97 156
62 98 157
61 97 156
61 97 161
62 98 166
60 96 160
62 98 157
62 99 169
61 97 159
61 98 165
62 99 168
62 99 169
62 98 167
62 99 169
62 99 168
61 98 162
62 98 168
61 97 167
62 99 176
61 98 167
61 98 163
62 98 168
61 97 166
62 98 172
62 99 171
62 99 172
62 99 174
62 99 173
62 99 174
61 98 167
62 98 171
62 99 173
61 98 166
62 99 169
62 98 168
62 98 168
62 98 170
62 99 172
62 99 178
62 99 168
61 98 168
61 98 171
62 99 175
61 98 172
62 99 171
61 98 171
63 99 179
63 99 176
62 98 170
62 99 171
62 99 171
62 99 173
62 99 172
62 99 177
63 99 176
62 98 171
62 98 175
62 98 169
62 99 176
62 99 171
62 98 171
62 98 174
61 98 172
62 99 173
62 99 175
62 99 174
62 99 176
63 100 175
62 99 178
62 99 173
62 98 173
62 99 172
63 99 172
61 98 174
62 99 173
62 99 177
62 98 169
62 99 171
62 99 173
62 98 172
62 98 173
62 99 171
62 99 176
62 99 174
62 99 178
63 99 171
62 98 169
63 99 175
62 99 171
62 99 174
61 98 171
62 99 179
62 99 176
62 99 172
61 98 174
62 99 179
62 99 175
63 99 169
62 99 170
61 98 170
61 98 169
62 99 174
62 98 170
62 98 169
62 98 170
61 98 174
62 99 177
62 99 172
61 98 171
62 98 166
62 98 170
63 99 172
62 98 166
62 99 177
62 99 174
62 99 173
62 98 165
62 99 172
62 98 171
62 99 169
62 98 166
62 98 169
63 99 170
63 99 172
62 99 171
62 98 170
62 99 176
63 99 174
62 98 167
62 98 169
62 99 171
61 97 162
62 99 173
61 98 173
63 99 170
62 98 170
62 99 173
62 99 166
61 98 161
63 99 168
62 98 164
61 97 165
62 98 165
61 97 162
62 98 168
61 98 161
62 98 168
62 98 163
62 98 169
62 98 166
62 98 164
63 98 166
63 99 169
62 97 156
62 98 164
62 98 166
63 99 169
63 99 167
62 98 166
62 97 164
61 97 165
61 96 157
61 97 161
62 97 156
61 96 160
61 95 148
61 97 161
61 97 158
62 97 167
62 96 155
60 94 154
59 92 149
59 92 145
57 89 139
52 62 58
67 69 23
54 60 29
59 63 29
63 68 40
58 61 37
70 74 44
62 68 36
78 80 43
75 79 43
81 82 38
81 84 46
88 90 50
82 86 50
96 96 44
99 99 54
96 98 53
104 104 60
100 101 51
110 110 57
102 101 52
101 101 57
113 113 57
127 126 71
121 121 63
132 130 66
120 119 60
117 116 67
118 119 65
128 126 69
126 124 64
132 131 60
142 138 69
132 131 67
129 127 59
136 133 70
137 134 69
141 138 65
137 134 70
142 139 63
144 141 68
144 140 71
142 138 65
149 145 76
147 142 74
157 152 81
153 149 78
148 144 70
149 144 70
156 151 73
159 153 75
158 152 77
154 150 72
159 153 84
154 148 69
152 148 69
158 154 72
163 156 80
164 158 83
166 159 81
160 154 76
161 156 77
163 156 84
160 154 74
155 150 77
162 155 80
164 158 80
163 158 77
164 157 77
165 158 81
168 161 78
163 157 80
169 161 84
162 156 71
162 155 76
168 160 80
164 156 77
165 158 77
162 156 76
164 158 75
165 158 79
161 156 75
164 157 75
165 159 75
158 152 71
158 153 75
159 152 75
160 154 70
162 155 76
155 149 73
155 149 70
154 148 67
161 154 73
154 148 73
161 154 72
155 151 66
155 149 70
158 151 63
157 150 67
152 147 62
156 151 63
155 149 66
155 149 68
153 148 66
151 146 68
149 144 61
148 142 66
152 145 71
141 136 57
144 138 62
160 153 72
139 133 53
136 131 53
150 143 63
145 140 57
137 133 51
145 138 67
135 131 49
132 128 49
135 128 60
128 123 42
132 126 49
129 124 47
141 141 51
143 148 41
144 156 28
159 174 19
158 175 11
170 190 0
171 193 0
170 192 0
171 193 0
166 187 0
171 192 0
171 192 0
168 189 0
167 187 0
167 187 0
170 193 0
171 194 0
173 195 0
173 196 0
173 196 0
172 196 0
172 196 0
169 193 0
172 195 0
171 195 0
169 192 0
170 193 0
174 197 0
168 191 0
171 194 0
168 192 0
173 196 0
172 195 0
172 197 0
171 195 0
168 190 0
173 196 0
174 197 0
172 195 0
172 195 0
172 194 0
170 193 0
174 197 0
168 191 0
172 195 0
172 195 0
173 195 0
173 196 0
171 194 0
172 195 0
168 191 0
169 192 0
171 194 0
169 193 0
172 195 0
167 191 0
173 196 0
171 194 0
172 196 0
171 195 0
170 192 0
172 196 0
170 193 0
171 195 0
169 192 0
172 195 0
169 192 0
167 190 0
170 193 0
169 190 0
171 193 0
170 193 0
170 193 0
171 195 0
172 195 0
174 197 0
170 194 0
169 193 0
169 192 0
168 191 0
173 195 0
172 194 0
168 191 0
172 195 0
169 192 0
170 193 0
171 195 0
169 192 0
165 189 0
168 191 0
168 192 0
171 194 0
168 191 0
169 192 0
168 192 0
167 190 0
164 187 0
168 191 0
164 188 0
170 194 0
168 191 0
103 131 133
61 97 154
62 97 153
61 97 153
62 98 160
62 98 162
62 98 163
61 97 163
62 98 166
61 97 159
62 98 161
62 99 169
61 97 163
60 96 156
63 99 170
61 98 164
62 99 170
61 98 169
62 98 165
62 99 171
62 99 168
61 98 166
62 98 171
62 99 171
62 99 175
62 99 175
62 98 172
62 99 170
62 99 173
61 98 166
62 99 168
61 98 169
62 99 172
62 98 169
62 99 174
62 99 167
62 99 172
62 99 175
63 99 169
62 99 173
63 99 174
62 98 174
62 99 170
61 98 172
61 98 171
62 99 175
62 99 175
62 99 172
62 99 175
62 99 171
62 99 173
63 99 171
62 99 175
61 98 172
63 99 173
62 98 167
62 99 174
63 99 176
62 99 173
61 98 171
62 99 173
62 99 174
62 98 175
62 99 175
62 99 178
62 99 174
62 99 174
62 98 173
62 99 174
62 99 174
62 99 174
62 99 175
62 99 170
62 99 173
62 99 174
62 99 170
62 99 174
62 99 175
62 99 171
62 99 175
62 98 172
62 99 171
62 98 168
61 98 168
62 99 176
62 99 173
62 99 172
63 100 172
63 99 172
63 99 173
62 99 170
61 98 170
62 99 175
63 99 171
61 98 171
62 99 169
61 98 170
62 99 169
62 99 172
62 98 164
63 99 176
63 99 169
62 98 169
63 99 174
62 98 168
61 98 169
62 99 177
62 98 168
63 99 174
62 98 169
63 99 170
62 99 170
62 98 171
62 99 169
62 98 170
62 99 177
61 98 170
62 99 171
62 98 170
62 98 163
62 98 166
62 98 164
63 99 171
63 99 175
61 98 169
62 99 173
62 98 168
62 99 170
62 99 170
63 99 167
62 98 172
62 99 165
61 98 166
62 99 171
62 99 169
62 99 175
61 98 171
62 99 169
63 99 172
62 98 166
62 99 169
61 97 165
61 98 164
62 98 168
62 99 169
62 99 168
61 97 160
62 98 167
62 99 172
63 99 168
63 99 169
62 98 167
61 97 161
62 98 168
61 97 169
61 97 162
62 98 165
62 97 163
61 97 159
61 97 167
60 95 156
61 96 160
61 96 157
62 97 163
61 97 160
62 97 162
61 96 162
60 95 156
60 95 158
61 95 157
59 94 153
62 97 158
60 95 157
60 95 152
60 94 155
57 89 144
47 60 63
78 78 30
64 67 35
54 59 29
54 61 31
71 74 33
63 68 35
69 73 34
71 74 40
70 73 40
79 82 50
85 87 46
86 89 40
90 92 45
88 91 48
103 104 52
96 98 56
106 106 58
95 98 55
103 105 57
96 98 46
113 113 62
121 119 65
119 117 55
116 116 59
127 126 65
118 118 62
117 116 52
138 135 72
122 122 63
133 131 64
131 128 67
136 132 67
129 128 66
135 132 71
127 124 60
142 137 68
144 140 65
144 141 77
144 140 72
143 139 73
145 142 69
141 138 71
146 140 76
145 141 70
150 146 77
151 147 76
147 143 73
147 143 76
156 151 79
156 151 81
158 154 80
159 153 79
151 147 74
147 143 69
163 156 81
157 152 77
164 158 82
155 150 64
162 156 80
158 153 72
159 155 78
161 155 79
166 159 81
165 158 76
164 157 75
167 160 79
166 159 80
163 157 78
156 151 70
159 154 71
165 159 76
164 157 80
169 161 83
164 157 76
167 161 79
165 158 73
163 157 80
163 156 78
167 159 80
160 154 76
160 154 75
162 155 78
160 153 74
160 153 69
160 153 76
154 148 72
157 151 66
159 154 73
151 145 62
158 151 70
156 150 66
159 152 75
159 153 72
159 152 77
161 155 68
154 148 65
149 142 61
145 141 59
150 144 62
148 142 69
150 145 63
150 145 65
151 145 67
149 144 65
149 144 69
150 144 63
148 141 64
154 148 67
144 138 58
147 143 59
145 138 59
144 137 61
154 147 64
136 131 52
135 129 52
142 136 57
138 132 58
141 135 56
134 128 54
134 127 49
118 114 48
136 133 45
136 136 42
144 152 41
148 161 22
163 182 16
166 184 0
171 193 0
170 190 0
169 189 0
170 192 0
171 192 0
172 194 0
171 192 0
168 190 0
167 186 0
164 185 0
172 196 0
172 196 0
170 193 0
173 196 0
173 196 0
170 194 0
171 195 0
173 197 0
170 194 0
171 194 0
174 197 0
173 196 0
171 194 0
175 198 0
169 192 0
170 192 0
171 195 0
169 193 0
169 192 0
171 195 0
170 194 0
170 193 0
172 194 0
172 195 0
171 194 0
172 195 0
174 196 0
170 193 0
170 194 0
169 193 0
170 193 0
168 191 0
171 193 0
172 196 0
171 195 0
173 196 0
171 195 0
171 194 0
171 194 0
168 191 0
165 189 0
169 193 0
169 191 0
171 194 0
170 193 0
171 194 0
168 191 0
168 190 0
171 194 0
170 193 0
169 193 0
167 191 0
166 190 0
170 194 0
168 191 0
167 190 0
171 193 0
175 198 0
170 193 0
166 190 0
168 192 0
169 192 0
173 196 0
170 192 0
168 191 0
166 190 0
171 195 0
173 197 0
171 195 0
170 194 0
170 194 0
169 192 0
171 193 0
168 191 0
173 196 0
173 196 0
169 193 0
172 195 0
170 193 0
166 189 0
166 189 0
169 193 0
172 194 0
170 192 0
166 189 0
160 182 44
80 111 142
62 98 162
61 97 152
61 97 162
62 98 165
61 97 158
62 98 164
63 99 166
62 98 163
62 98 165
61 98 165
61 97 156
62 98 163
62 98 162
62 98 163
61 98 167
61 97 161
62 98 165
62 99 169
62 98 169
62 98 173
63 99 172
62 98 168
61 98 167
61 98 168
62 98 169
62 98 168
61 98 173
62 99 171
62 99 172
62 99 171
62 98 173
62 99 176
61 98 170
61 97 165
62 99 171
62 99 169
62 98 168
62 98 175
62 98 170
62 98 169
62 99 174
61 98 170
62 99 172
63 99 174
62 98 169
62 99 171
62 99 176
62 99 174
62 99 175
62 98 174
63 99 175
62 98 174
62 99 172
62 98 168
63 99 177
62 98 172
61 98 173
62 98 172
62 99 172
62 99 175
61 98 169
62 99 176
62 99 173
63 99 173
62 99 174
62 98 167
62 99 174
62 99 175
62 99 171
62 99 172
63 99 176
62 99 173
63 99 176
63 99 174
62 99 173
61 98 173
62 99 175
62 99 178
62 99 174
62 99 173
62 99 171
63 100 176
63 99 172
61 98 172
61 98 169
62 98 170
62 98 169
62 98 169
62 99 174
63 99 174
62 99 171
63 99 175
62 99 177
62 99 172
63 99 174
62 99 168
63 99 172
63 100 173
62 99 174
62 99 172
63 99 174
61 98 173
62 98 167
63 99 174
63 99 175
61 98 171
62 99 169
63 100 175
62 98 166
63 100 174
63 99 175
62 98 169
63 99 173
63 99 172
62 99 170
62 98 172
61 98 173
62 99 173
62 99 170
62 98 166
62 98 166
61 98 169
62 99 173
62 98 169
62 98 171
63 99 172
62 98 165
62 98 171
62 98 169
62 98 166
63 99 170
62 99 174
62 98 166
63 99 171
62 98 168
62 99 171
62 98 168
62 98 167
62 98 165
62 98 166
63 99 168
62 98 161
63 99 174
63 99 168
62 99 173
62 98 166
61 97 167
62 98 166
61 98 160
62 98 169
62 97 157
61 97 160
62 98 160
60 96 152
62 98 162
61 96 157
62 98 165
61 97 163
61 97 157
61 97 162
60 95 153
61 96 157
62 98 165
61 96 152
61 97 155
61 96 157
61 96 158
60 95 149
59 93 149
61 95 153
60 95 152
59 94 153
60 95 155
60 93 147
58 92 145
56 75 104
54 60 30
59 63 29
66 70 29
66 69 35
65 68 31
61 67 35
73 76 35
67 71 38
75 77 42
83 86 43
83 86 44
84 84 35
81 85 49
95 96 46
94 97 47
100 102 57
98 98 47
103 103 52
107 107 54
102 101 51
113 112 58
105 107 56
115 115 54
107 107 55
118 117 58
115 113 55
122 121 61
134 131 64
117 117 65
118 117 55
134 132 69
133 132 65
136 134 66
128 126 66
135 133 68
147 142 72
140 136 70
133 129 67
129 128 68
140 138 67
139 136 70
145 142 70
147 143 75
144 141 72
140 137 70
159 154 79
151 146 76
151 147 81
149 145 70
142 139 67
155 150 74
153 149 76
154 150 74
154 148 75
157 151 76
160 154 77
155 150 75
161 156 78
161 155 81
153 149 75
148 144 66
159 153 78
152 147 65
164 157 85
159 154 73
160 154 68
162 155 79
165 158 79
167 160 82
162 156 77
159 154 72
160 154 70
158 152 73
164 157 83
165 158 77
161 156 73
164 157 72
162 156 75
163 157 75
158 152 67
164 157 76
162 155 80
164 157 80
158 152 77
160 154 72
160 153 74
161 155 76
155 150 63
159 153 70
158 152 72
162 154 68
151 146 64
158 151 73
155 149 66
158 152 67
155 149 68
148 142 63
151 146 70
155 148 65
157 151 66
148 142 67
153 147 66
155 149 68
155 149 67
151 145 63
143 138 59
149 143 64
148 143 61
141 136 52
141 135 53
137 131 52
137 132 52
140 135 57
142 136 57
143 137 57
135 130 48
137 132 56
136 130 54
132 125 58
134 128 57
136 131 42
139 142 49
141 146 39
151 160 37
153 165 30
165 184 19
170 190 0
169 190 0
170 190 0
170 191 0
166 184 0
169 189 0
171 192 0
167 188 0
167 187 0
172 194 0
172 192 0
170 194 0
171 195 0
172 196 0
172 195 0
174 198 0
170 193 0
173 197 0
170 192 0
173 196 0
176 198 0
171 194 0
171 195 0
171 194 0
170 193 0
170 193 0
172 196 0
172 196 0
171 194 0
169 192 0
169 192 0
173 197 0
168 191 0
172 196 0
171 194 0
173 197 0
172 195 0
173 196 0
172 195 0
171 195 0
170 194 0
171 194 0
172 195 0
168 190 0
169 192 0
168 192 0
171 195 0
166 189 0
172 195 0
169 192 0
170 194 0
170 192 0
170 193 0
172 196 0
171 194 0
171 195 0
170 193 0
169 192 0
170 193 0
171 193 0
169 192 0
172 196 0
163 185 0
169 192 0
170 194 0
173 197 0
169 192 0
166 190 0
170 192 0
171 194 0
171 194 0
170 193 0
169 192 0
169 192 0
167 190 0
171 194 0
170 195 0
172 195 0
172 196 0
169 192 0
166 189 0
166 190 0
166 189 0
165 188 0
169 192 0
170 193 0
172 195 0
166 190 0
168 192 0
169 192 0
166 189 0
168 190 0
170 194 0
169 193 0
169 193 0
170 193 0
158 182 51
63 99 147
61 97 158
61 97 150
63 99 168
61 97 157
61 98 160
63 99 169
62 97 158
62 98 168
61 97 163
62 98 166
62 99 172
63 99 163
62 98 165
62 98 161
62 98 169
61 97 160
61 98 167
62 98 160
62 99 169
62 99 169
62 98 167
62 98 164
62 98 170
62 99 169
61 97 163
62 98 167
61 98 165
61 98 169
62 98 170
61 98 166
62 98 170
63 99 173
62 99 169
62 98 167
62 99 172
62 99 170
62 98 172
62 98 170
62 99 176
63 99 176
62 99 175
62 99 171
62 99 171
63 99 173
62 99 176
62 98 173
61 98 172
63 99 179
62 98 166
62 99 174
62 98 175
62 99 172
61 98 174
62 98 168
62 99 172
62 99 174
62 98 169
62 98 173
61 98 172
62 99 174
62 99 170
62 99 174
62 99 169
62 99 173
62 98 171
62 98 171
62 99 176
62 99 172
62 99 174
62 98 176
62 99 174
62 98 166
62 99 170
62 98 165
62 98 168
61 98 168
63 99 174
62 99 175
62 98 172
62 99 171
62 99 172
63 99 176
63 100 176
63 99 175
62 98 168
62 99 172
62 99 172
62 99 173
62 98 166
62 99 170
62 98 169
62 99 174
62 99 172
62 99 169
62 99 173
62 99 174
62 99 177
62 99 174
62 99 173
63 99 169
62 98 169
62 99 175
63 99 174
62 98 167
62 98 167
62 98 170
62 99 172
62 99 171
62 98 169
62 99 171
62 98 163
63 99 171
62 98 168
62 99 172
62 99 172
61 98 167
62 98 171
63 99 171
63 99 172
63 100 172
62 99 170
62 99 167
62 99 172
63 99 176
62 98 167
63 99 175
62 99 172
62 98 166
62 98 163
62 99 171
61 98 170
62 98 170
62 98 163
62 98 165
62 99 171
62 98 173
61 98 166
62 98 168
62 98 166
61 98 164
62 99 169
62 98 167
62 99 166
63 99 170
63 99 168
62 98 171
61 97 167
61 97 159
63 99 171
63 99 171
62 98 166
62 98 163
61 97 168
62 98 166
62 98 168
62 98 163
62 98 164
62 97 161
61 96 151
62 98 162
61 97 156
61 97 166
61 97 162
60 96 152
61 96 152
61 96 155
60 95 155
60 95 149
61 95 152
61 96 158
59 93 149
61 95 157
60 94 151
57 90 139
59 93 150
57 83 124
62 66 34
64 66 26
62 65 30
73 75 29
68 70 31
72 74 40
69 74 32
62 67 31
79 80 42
77 81 39
82 83 42
88 90 37
87 90 47
90 92 44
82 86 47
120 119 58
94 96 49
104 104 49
111 110 52
101 102 52
101 102 46
118 117 61
110 109 60
108 109 56
103 103 53
121 120 65
121 119 67
127 125 58
126 124 60
131 128 70
129 128 67
130 129 66
136 133 67
138 135 63
135 133 59
141 138 68
134 131 63
144 141 69
137 134 66
148 143 74
142 139 68
147 143 71
144 140 68
146 143 60
152 146 73
145 140 69
151 147 71
150 146 74
151 146 68
155 149 75
155 149 69
159 153 75
155 150 78
154 149 77
159 153 77
150 146 68
157 151 73
158 153 76
162 156 76
162 156 79
161 155 75
157 152 65
159 153 72
160 154 69
155 150 64
155 150 73
159 153 75
160 153 82
161 155 75
162 155 73
158 152 76
161 155 71
158 152 68
160 154 68
160 154 64
160 155 68
163 157 75
161 155 74
157 151 73
160 154 67
158 151 69
166 159 73
163 156 73
157 151 71
157 152 75
168 161 77
162 155 75
163 156 76
168 160 77
162 154 72
161 154 71
158 151 74
157 151 67
155 149 67
150 144 62
154 148 62
156 150 70
145 141 54
157 151 68
150 143 67
146 141 57
142 137 58
152 146 69
149 144 63
150 143 63
143 136 54
140 135 51
140 135 52
145 140 59
147 142 60
146 141 59
136 132 58
143 137 60
144 139 57
141 137 45
129 124 49
132 126 47
135 131 51
134 129 52
136 131 53
124 123 41
140 140 48
147 153 37
156 168 32
160 174 22
159 175 16
170 191 0
168 188 0
168 188 0
170 191 0
172 193 0
169 190 0
169 191 0
172 193 0
169 191 0
173 194 0
171 192 0
173 196 0
170 194 0
174 197 0
170 193 0
172 195 0
169 193 0
173 197 0
174 198 0
172 195 0
174 197 0
171 195 0
173 197 0
171 194 0
172 195 0
169 192 0
172 195 0
171 194 0
172 196 0
173 197 0
172 195 0
168 192 0
171 194 0
172 196 0
168 191 0
172 195 0
172 195 0
172 195 0
170 194 0
171 194 0
171 194 0
170 193 0
172 196 0
174 197 0
174 196 0
171 194 0
168 191 0
169 193 0
173 196 0
170 193 0
168 192 0
172 196 0
172 196 0
168 193 0
174 196 0
168 191 0
172 195 0
169 192 0
173 197 0
172 195 0
171 194 0
170 194 0
168 193 0
171 195 0
170 193 0
168 192 0
172 196 0
171 195 0
171 194 0
172 195 0
174 197 0
171 195 0
170 194 0
169 192 0
167 190 0
168 191 0
167 191 0
169 193 0
169 192 0
168 190 0
174 198 0
168 191 0
166 189 0
171 194 0
169 192 0
168 192 0
169 193 0
168 192 0
164 188 0
167 191 0
166 190 0
166 189 0
167 190 0
167 191 0
171 194 0
165 188 0
141 166 88
62 98 159
62 98 162
62 98 160
63 99 165
61 97 154
62 98 160
62 98 155
62 98 163
61 98 159
61 97 154
61 98 167
61 97 158
61 98 162
63 99 169
62 98 166
63 99 170
62 98 165
61 98 166
62 98 168
62 99 167
61 97 167
62 99 173
61 98 163
63 99 169
61 97 162
61 98 169
63 99 168
63 99 171
62 99 172
62 98 171
62 98 169
62 98 171
62 99 173
62 98 172
62 99 170
62 99 173
62 99 170
63 99 172
62 99 170
62 98 172
61 98 169
62 99 171
62 98 172
62 98 172
62 99 169
62 99 172
61 98 169
62 98 173
62 99 174
61 98 171
63 99 174
62 99 176
62 99 173
62 99 168
62 98 168
62 99 170
62 98 167
62 99 174
63 99 174
63 99 171
62 99 174
63 99 175
62 99 174
62 99 173
62 98 173
62 99 175
62 99 174
62 99 173
62 98 173
62 99 168
62 99 172
62 99 173
62 99 172
62 99 169
62 99 173
62 99 174
62 99 173
62 99 170
63 100 178
63 100 175
62 98 169
63 99 173
61 98 170
62 99 171
61 98 173
62 99 171
62 99 175
61 98 172
62 99 173
62 99 169
62 98 164
62 99 169
63 99 175
62 98 168
62 98 168
62 99 174
61 98 170
63 99 174
63 99 172
62 99 174
63 99 169
62 99 168
63 99 168
62 99 172
62 99 170
62 98 165
62 98 172
63 99 175
62 99 172
62 99 168
63 100 175
62 98 167
62 99 173
62 99 172
63 99 173
62 98 171
62 98 168
62 99 171
63 99 170
61 97 161
62 98 164
62 99 168
62 99 167
62 99 170
62 99 172
62 98 167
62 98 168
61 98 165
62 99 168
62 99 165
62 98 166
61 97 162
62 99 167
61 98 166
62 98 171
62 99 170
62 99 169
61 97 163
61 98 162
63 99 171
62 98 167
62 99 169
62 98 161
61 98 164
62 99 172
62 99 165
61 97 161
62 98 161
61 97 164
63 99 164
62 98 167
62 98 167
61 97 161
63 99 165
62 98 164
62 98 165
61 97 159
62 97 160
62 97 160
61 96 158
61 97 155
61 96 156
60 95 156
62 98 164
62 97 159
61 96 157
60 95 155
61 96 157
62 97 159
61 97 159
61 96 152
61 96 161
60 94 154
60 94 150
59 93 144
60 93 147
56 86 134
55 60 29
58 63 26
63 67 29
64 67 30
64 67 22
69 71 31
64 69 33
70 73 35
74 77 39
79 84 32
83 84 39
83 86 40
99 100 49
96 98 43
98 98 50
90 92 50
92 94 45
104 104 57
102 103 55
106 106 53
115 115 54
118 117 58
110 108 61
122 120 57
119 118 56
120 120 59
125 123 66
114 113 57
129 126 61
132 129 62
132 130 63
139 135 70
136 133 66
131 128 63
144 141 67
129 128 56
148 144 73
146 142 72
146 142 69
150 145 68
143 140 62
138 134 59
141 137 69
147 143 73
141 137 72
148 143 70
148 143 73
154 149 71
150 146 74
151 146 66
156 150 71
154 148 68
155 150 69
162 155 78
157 151 75
161 155 73
157 151 78
161 155 81
163 158 73
156 151 64
164 156 78
162 156 71
161 155 71
159 153 73
154 148 71
153 147 67
160 154 75
156 151 69
162 156 74
160 154 73
161 155 73
161 155 70
164 158 74
161 156 62
162 156 73
162 157 70
159 152 76
157 151 65
159 152 69
162 155 68
160 154 75
155 149 71
161 154 75
158 152 71
154 148 70
160 154 75
154 148 66
159 152 73
152 146 65
154 148 63
151 146 60
153 149 65
153 146 65
162 156 75
150 146 57
152 147 64
153 146 61
156 150 69
156 149 67
155 148 72
147 141 57
156 149 70
150 144 67
150 144 66
157 151 76
144 138 61
144 138 60
151 145 63
147 141 64
133 128 54
133 128 48
131 126 45
138 132 56
131 126 49
136 131 54
130 126 48
139 133 51
130 125 48
127 122 45
130 125 42
132 135 37
141 146 39
156 168 28
153 166 22
164 179 22
168 188 19
170 189 0
171 193 0
167 187 0
171 192 0
170 190 0
169 188 0
169 190 0
169 190 0
170 191 0
171 192 0
170 191 0
171 194 0
172 196 0
173 196 0
172 196 0
169 192 0
172 196 0
172 196 0
172 195 0
171 194 0
172 195 0
171 195 0
171 194 0
171 194 0
171 195 0
175 198 0
171 195 0
167 191 0
170 193 0
169 192 0
172 195 0
168 192 0
173 196 0
171 194 0
166 190 0
173 197 0
172 196 0
171 195 0
167 191 0
169 193 0
171 195 0
170 193 0
172 195 0
171 194 0
168 192 0
168 191 0
169 192 0
171 195 0
169 192 0
174 197 0
171 194 0
170 193 0
172 195 0
170 193 0
170 193 0
167 191 0
168 191 0
168 192 0
173 195 0
169 192 0
169 192 0
170 193 0
171 194 0
169 193 0
172 195 0
168 191 0
173 196 0
169 192 0
169 193 0
172 196 0
166 189 0
168 191 0
170 194 0
172 195 0
168 192 0
169 192 0
169 192 0
165 189 0
167 191 0
169 192 0
168 192 0
168 191 0
173 196 0
167 191 0
173 196 0
172 195 0
164 186 0
167 190 0
170 193 0
167 190 0
167 189 0
170 193 0
168 191 0
169 192 0
168 191 0
173 195 0
120 145 117
62 98 162
61 97 152
62 98 164
62 97 156
61 97 158
61 97 159
60 96 156
62 98 161
62 99 165
61 97 163
62 99 167
62 98 163
61 97 163
62 99 168
62 98 167
61 98 164
61 97 162
61 97 165
62 98 166
61 98 172
62 99 170
62 99 167
61 98 165
62 98 171
62 98 164
62 99 170
63 99 171
62 99 167
61 98 164
61 98 169
60 97 161
62 98 172
62 99 175
61 98 169
62 99 172
62 98 170
62 99 174
62 99 174
61 97 170
61 97 169
62 99 174
62 99 174
61 98 168
62 99 173
62 99 175
62 98 170
62 98 170
61 98 172
62 99 172
62 98 171
62 99 177
62 98 169
62 99 174
62 98 174
62 99 170
63 99 176
61 97 166
62 99 172
62 99 172
62 99 173
61 98 166
62 99 176
62 98 171
62 99 169
62 99 167
62 98 170
62 99 174
62 98 170
62 99 175
62 99 172
62 99 170
62 99 171
62 99 172
62 98 175
62 99 176
62 99 173
63 99 175
62 99 177
62 99 172
62 99 176
62 99 172
62 99 169
62 99 175
63 99 173
61 98 172
62 99 172
61 98 174
62 98 167
63 99 169
62 98 166
62 99 172
62 98 171
62 99 168
62 98 171
62 98 170
62 99 174
63 99 169
62 99 172
62 99 174
63 99 175
61 97 165
62 98 169
62 99 170
62 98 169
62 99 176
62 98 168
63 99 166
62 98 174
61 98 168
62 99 168
62 99 170
63 99 174
62 99 174
62 99 170
62 98 166
63 99 176
62 98 170
62 98 164
62 99 173
62 98 164
63 99 172
62 99 164
62 98 171
63 99 171
62 99 169
62 99 165
62 98 168
63 99 173
62 99 169
62 99 168
62 99 169
62 98 166
61 98 163
63 99 171
62 98 166
62 98 166
62 99 171
62 98 167
62 99 167
61 98 165
61 97 159
61 98 164
61 97 159
63 99 170
62 98 168
62 98 164
62 97 160
62 98 169
63 99 170
61 98 164
63 99 165
62 98 163
62 98 166
62 99 163
62 98 163
62 98 164
62 98 164
61 97 161
62 98 163
61 97 156
61 97 160
61 97 160
62 98 163
62 98 167
61 96 156
62 97 165
62 98 162
61 96 154
61 96 156
62 97 158
62 96 157
61 96 158
61 96 157
58 92 145
61 95 146
58 91 140
57 89 136
70 76 41
56 58 20
49 54 26
66 67 22
64 68 31
70 73 32
59 64 30
68 73 38
65 68 37
68 73 34
73 77 35
80 82 35
90 93 33
92 94 45
85 87 43
100 100 45
96 98 48
99 101 55
96 98 50
97 99 48
104 103 56
117 116 59
120 118 54
121 121 57
119 117 55
107 107 49
115 114 49
124 122 52
126 123 59
126 123 49
129 127 67
127 125 59
124 122 58
134 131 62
142 137 70
137 133 67
143 138 64
142 138 70
137 134 65
140 136 59
143 139 62
142 138 63
147 143 71
144 140 63
145 141 62
139 136 67
146 141 71
148 144 68
151 147 72
157 151 79
148 144 62
162 156 75
158 153 76
157 152 76
148 143 69
157 151 78
155 150 65
160 154 76
159 153 73
164 158 70
159 153 69
163 157 78
158 151 73
160 154 73
157 152 72
158 153 69
157 151 70
161 155 77
161 154 74
155 149 65
160 153 71
160 154 73
160 154 67
161 154 69
161 154 70
159 152 69
159 152 67
160 153 76
165 157 82
159 152 74
160 154 69
159 153 69
165 158 73
158 152 62
158 152 70
161 154 69
164 157 80
148 143 59
152 146 59
148 142 59
150 145 62
152 146 64
158 152 71
158 151 70
147 141 63
147 142 54
151 145 60
146 141 57
148 142 57
154 147 66
154 149 62
149 143 67
155 148 62
140 136 47
146 140 54
145 138 60
145 139 60
139 133 57
147 140 59
137 132 53
144 139 53
141 136 54
146 139 63
145 139 61
132 127 49
137 132 54
127 122 42
127 122 47
127 124 44
127 127 32
139 141 36
148 157 30
143 154 25
161 176 30
162 180 16
167 186 0
169 190 0
170 190 0
172 193 0
166 187 0
170 188 0
170 193 0
169 190 0
168 188 0
170 191 0
170 190 0
167 188 0
168 192 0
173 196 0
173 196 0
171 195 0
170 194 0
170 194 0
171 194 0
172 195 0
170 194 0
172 195 0
172 196 0
168 191 0
171 194 0
169 193 0
170 193 0
174 197 0
170 193 0
171 195 0
168 192 0
170 192 0
174 196 0
172 196 0
169 192 0
169 194 0
173 197 0
171 194 0
169 193 0
172 195 0
171 193 0
170 194 0
169 192 0
173 196 0
173 196 0
172 195 25
173 197 36
169 193 25
172 195 0
170 192 0
171 194 0
170 193 0
171 194 25
170 193 25
171 194 0
171 194 0
169 192 0
172 196 0
171 194 25
170 193 0
169 193 0
164 187 0
171 195 0
171 194 0
169 193 0
171 194 0
167 190 0
167 190 0
169 193 0
172 194 0
168 191 0
170 193 0
173 196 0
170 193 0
171 194 0
168 191 0
168 192 0
171 193 0
169 192 0
171 194 0
168 191 0
165 189 0
164 187 0
165 189 0
169 192 0
168 191 0
171 195 0
167 190 0
163 187 0
166 189 0
165 188 0
164 188 0
168 190 0
167 191 0
170 191 0
167 191 0
168 191 0
106 133 118
61 97 152
61 97 164
61 97 151
62 98 160
62 98 162
61 96 155
62 99 167
62 98 162
62 98 159
62 98 161
61 97 161
62 98 164
62 98 163
61 98 166
62 98 166
62 98 163
62 98 164
61 97 161
62 98 167
62 98 166
62 98 168
62 99 170
62 99 170
62 98 168
61 97 160
62 99 170
62 99 168
61 98 165
62 99 170
62 98 170
63 99 172
62 98 172
62 98 167
62 99 171
62 98 170
62 98 170
62 98 171
63 99 175
62 98 169
61 97 167
63 99 175
61 98 172
62 98 168
62 98 171
62 98 172
62 98 174
62 99 174
62 99 172
62 99 174
62 99 172
62 99 175
62 98 169
62 99 171
63 99 174
62 98 171
62 98 170
61 98 170
62 99 172
62 99 174
62 98 173
61 98 172
62 98 169
63 99 174
62 99 168
62 99 171
62 99 172
62 99 168
61 98 170
62 98 168
61 98 170
62 98 171
62 99 174
62 99 176
62 99 178
62 98 167
62 98 167
62 98 166
63 99 176
62 98 169
62 98 172
61 98 169
62 99 172
62 99 173
62 99 175
62 99 174
63 99 176
61 98 164
61 98 167
62 99 170
63 99 169
62 99 171
62 99 172
62 99 171
63 99 172
62 99 170
62 99 173
62 99 170
63 99 174
62 99 174
62 98 165
62 99 171
62 99 174
62 98 171
62 98 168
63 100 175
62 98 167
62 99 168
62 99 173
62 98 169
62 98 168
62 99 169
63 100 176
62 99 172
63 99 172
62 99 170
63 99 174
63 99 172
63 100 174
62 99 171
61 97 159
62 99 169
62 99 166
62 98 167
62 98 160
62 99 169
61 98 170
62 98 166
63 99 171
63 100 177
62 99 170
62 99 168
62 98 168
62 98 163
62 98 168
62 98 164
62 98 166
62 99 166
62 98 164
61 97 158
61 98 168
62 99 170
62 98 163
61 97 164
62 98 165
62 99 168
61 97 156
62 98 159
62 99 167
62 98 169
62 98 165
63 99 165
63 99 165
61 97 158
63 99 165
62 98 167
63 99 166
61 97 156
62 97 158
62 98 164
62 98 162
62 98 159
62 97 164
61 97 161
61 97 158
61 97 158
61 97 160
61 97 158
61 97 162
60 94 148
60 95 158
60 95 154
59 94 149
59 92 149
59 93 143
60 93 146
59 93 153
57 90 134
64 72 62
44 50 23
50 56 25
62 65 26
66 69 30
69 74 32
59 64 34
80 82 43
86 88 33
74 76 35
86 88 42
97 97 47
85 87 43
85 87 42
88 90 41
96 96 41
100 100 45
98 99 48
91 93 46
92 94 50
107 107 52
109 108 47
107 106 50
118 116 62
108 108 53
123 123 54
113 112 57
114 114 55
128 125 65
130 127 65
127 126 58
128 126 67
131 129 62
135 132 65
130 127 55
138 134 64
137 133 62
138 135 53
138 135 68
148 143 70
140 136 65
146 142 73
144 139 69
149 144 63
147 143 65
148 144 64
149 144 75
157 151 76
146 142 71
156 150 74
151 146 70
149 145 67
161 155 75
158 152 73
151 145 69
154 148 68
157 151 75
150 145 64
155 149 74
157 151 70
161 155 74
157 152 70
163 157 75
160 152 75
154 150 68
160 153 70
160 154 73
162 156 70
154 149 63
164 157 74
161 154 64
157 150 69
154 148 71
158 152 70
161 155 72
163 156 77
153 148 66
154 147 67
152 147 69
158 151 69
157 151 71
158 151 73
150 144 64
158 152 67
154 148 61
160 153 67
158 151 72
153 147 67
146 140 59
158 152 71
159 153 71
156 149 66
161 154 67
154 149 68
153 147 65
149 144 63
159 153 70
154 148 58
150 144 65
143 139 57
142 136 54
153 148 66
153 146 62
141 135 59
146 140 53
160 153 70
147 141 64
140 135 56
134 130 44
147 142 59
136 131 52
144 139 54
131 126 45
134 130 53
131 126 42
131 126 56
126 121 47
136 130 53
127 125 41
138 141 41
135 139 37
146 154 34
150 166 22
164 181 22
167 186 16
172 193 0
167 187 0
169 189 0
169 190 0
165 183 0
170 190 0
168 188 0
169 191 0
169 189 0
169 189 0
171 191 0
168 188 0
169 193 0
170 194 0
172 195 0
170 195 0
169 193 0
171 194 0
172 196 0
174 197 0
172 196 0
170 194 0
171 195 0
175 198 0
171 195 0
170 194 0
174 196 0
167 190 0
172 195 0
171 194 0
171 195 0
172 196 0
168 192 0
170 194 0
172 195 0
170 193 0
171 195 0
173 196 0
168 192 0
173 196 0
169 193 25
168 191 0
171 194 25
171 195 25
172 195 36
170 194 25
174 197 0
170 194 25
173 197 25
170 195 0
170 195 0
173 195 25
172 195 36
169 193 36
166 189 0
168 191 0
170 191 0
170 194 0
171 193 36
172 196 25
169 192 25
170 194 44
170 194 0
169 192 0
167 190 25
170 194 0
169 192 25
169 192 0
172 195 0
168 192 0
168 192 0
166 190 0
170 193 0
168 192 0
168 192 0
168 191 0
170 193 0
169 192 0
167 190 0
163 186 0
166 189 0
169 193 0
166 189 0
168 191 0
167 190 0
170 193 0
167 191 0
165 189 0
169 193 0
167 191 0
172 196 0
169 191 0
169 193 0
169 192 0
163 186 0
174 197 0
165 187 0
98 127 136
61 96 150
62 98 162
61 97 159
61 97 151
61 97 155
61 97 159
62 98 158
63 99 160
62 98 162
63 99 164
62 98 166
61 98 170
62 98 164
62 99 167
62 98 163
61 97 161
62 99 171
63 99 171
62 99 170
62 99 172
62 98 161
62 98 166
62 99 171
61 97 163
62 98 167
62 98 167
62 98 168
62 98 169
62 98 168
62 98 169
63 99 174
62 99 173
62 98 168
63 99 173
63 99 174
61 98 167
63 100 174
62 99 171
62 98 170
62 98 166
61 98 171
62 98 173
62 98 168
62 98 169
62 99 175
62 99 171
62 99 171
63 99 177
62 99 172
61 98 170
62 99 169
62 99 174
62 98 169
61 98 166
62 99 168
62 99 172
62 99 174
62 99 177
62 99 170
62 99 171
63 99 176
62 99 170
62 98 173
62 98 164
62 99 174
62 98 172
62 99 172
62 99 174
63 100 174
61 98 172
62 98 173
62 99 173
62 99 176
62 98 173
62 98 169
62 99 174
62 98 170
62 99 169
62 99 171
62 99 174
63 100 176
62 98 169
62 98 171
62 98 173
63 100 176
62 98 169
62 99 176
62 99 172
62 98 168
63 99 171
62 99 174
62 99 171
62 98 167
62 99 172
63 100 175
62 99 173
62 99 171
62 98 168
62 98 173
63 99 169
62 98 163
63 99 174
62 99 169
63 99 171
62 98 170
62 98 169
61 98 167
62 99 173
63 99 172
62 98 168
62 99 171
61 98 168
62 98 170
62 99 170
62 99 171
62 99 170
62 99 172
62 98 164
62 99 173
61 97 160
63 100 175
62 99 171
62 98 167
62 99 171
61 98 173
63 99 171
62 99 172
62 98 166
62 98 169
62 98 168
63 99 173
62 99 165
62 99 169
61 98 168
62 98 163
61 97 162
62 98 165
62 99 164
63 99 174
63 99 168
63 99 167
62 98 163
63 99 168
63 99 169
62 99 165
62 98 163
61 98 164
62 98 162
62 98 166
61 98 167
62 99 168
61 97 158
62 98 159
63 99 166
61 97 160
61 96 158
62 98 162
62 98 169
61 97 157
60 96 148
62 98 165
62 98 165
62 97 156
61 96 161
60 95 153
61 97 159
61 97 155
62 97 161
61 97 159
63 98 161
61 95 156
62 98 161
60 94 149
61 95 150
61 96 159
60 94 146
60 94 148
55 71 78
64 67 21
57 61 21
68 71 28
80 81 26
68 70 22
80 81 28
71 73 30
58 63 29
66 68 27
79 81 32
87 89 44
91 92 40
93 94 38
86 89 39
105 105 44
94 95 38
100 100 42
107 107 53
100 101 46
110 109 47
105 106 44
114 113 53
112 111 50
109 109 54
116 116 52
115 115 56
115 114 54
125 123 53
124 123 56
121 120 58
117 116 57
129 126 64
136 132 60
130 127 55
144 140 59
136 133 65
137 134 64
140 137 61
136 132 58
139 136 59
145 140 67
145 140 65
139 134 60
142 137 62
143 140 60
144 141 61
146 141 63
148 144 68
160 153 72
145 141 61
152 148 74
146 141 66
154 150 69
160 153 71
151 145 65
155 149 70
161 154 75
159 153 68
151 146 67
156 150 70
156 149 64
156 151 68
158 152 75
161 154 72
159 153 68
155 149 75
155 150 65
159 153 64
157 151 66
156 150 67
160 153 74
165 158 76
160 153 72
162 155 70
166 159 74
154 149 67
160 153 69
160 153 68
162 154 74
158 152 64
153 147 65
156 149 61
152 146 65
159 153 76
154 148 66
157 150 66
155 148 67
150 144 65
158 152 66
161 154 69
154 149 64
156 150 62
156 151 65
150 144 63
154 147 60
149 144 61
148 142 62
148 142 57
138 133 53
147 141 60
144 138 59
153 147 66
148 143 61
141 135 52
140 135 52
146 139 51
135 130 52
138 133 48
150 144 64
145 139 61
139 134 53
140 134 57
131 127 49
149 142 61
138 132 52
132 127 53
132 129 39
129 129 37
136 140 34
144 150 28
151 162 25
160 174 28
164 182 0
167 187 11
166 185 0
169 189 0
169 190 0
173 193 0
172 195 0
167 187 0
172 192 0
170 189 0
171 192 0
171 192 0
168 186 0
170 191 0
172 195 0
171 194 0
171 195 0
172 196 0
172 195 0
172 195 0
173 196 0
173 197 0
169 192 0
172 195 0
169 193 0
173 196 0
171 195 0
170 195 0
173 197 0
171 194 0
173 196 0
172 195 0
170 193 25
168 192 0
174 197 36
168 191 0
169 192 25
172 195 25
169 192 25
171 194 25
170 193 44
171 194 25
172 195 25
168 191 36
170 193 51
168 191 44
169 191 0
169 193 25
172 196 0
171 194 36
173 195 44
174 196 36
169 191 51
170 193 57
169 192 25
171 195 36
167 190 36
165 188 0
172 195 36
170 193 36
172 195 36
175 198 44
170 193 25
169 191 36
174 197 57
170 193 25
168 191 36
173 196 25
172 195 0
175 198 25
169 192 36
172 195 25
172 195 0
168 192 0
168 191 0
167 190 0
169 193 0
167 190 0
168 192 0
172 195 0
172 194 0
167 191 0
168 191 0
169 192 0
166 189 0
169 192 0
167 189 0
170 193 0
169 190 0
172 195 0
164 187 0
170 193 0
167 191 0
164 186 0
167 190 0
168 191 0
168 190 0
168 192 0
166 190 0
75 108 154
61 97 153
61 96 151
61 97 158
60 96 150
62 97 156
62 98 160
61 97 158
62 98 159
61 98 166
61 97 163
61 97 161
61 97 162
62 98 165
62 98 162
63 99 167
62 98 164
61 97 163
61 98 164
60 96 156
62 99 169
62 98 166
62 98 172
61 98 167
62 98 169
62 98 167
62 98 167
62 99 172
62 99 169
62 98 165
62 98 167
61 98 170
62 98 167
62 98 171
63 99 175
62 99 171
62 98 170
62 98 171
62 98 167
63 99 169
62 98 164
62 98 170
62 99 172
62 98 171
62 99 172
62 98 167
62 98 169
62 99 169
62 98 170
62 98 169
62 98 169
62 98 172
61 98 167
62 99 168
63 99 172
62 99 176
61 98 170
62 98 171
62 99 174
62 98 169
61 98 169
62 99 172
63 99 174
62 98 172
61 98 172
62 98 166
62 99 175
63 99 172
62 98 169
62 98 170
62 98 167
61 98 169
63 99 172
62 98 168
62 98 169
61 98 169
62 98 166
62 98 167
62 99 171
62 99 172
62 99 170
62 99 173
62 99 172
62 99 170
62 98 168
62 98 170
62 99 171
62 98 170
61 98 170
62 99 172
62 98 171
62 99 171
62 98 168
62 99 171
62 99 171
61 98 168
62 98 164
61 98 166
62 99 172
62 98 168
62 99 176
62 99 169
62 98 169
62 98 169
62 99 175
63 99 171
62 98 167
62 99 169
63 99 167
62 99 173
62 99 168
62 99 168
62 99 168
63 99 172
62 98 169
62 99 166
62 98 162
62 99 173
63 99 174
62 99 168
62 99 167
61 98 164
63 99 169
62 98 166
62 99 169
63 99 168
62 99 172
61 97 159
62 98 160
61 97 162
62 99 166
62 98 170
62 99 172
63 99 168
61 98 167
62 99 171
62 98 168
62 98 162
62 98 164
62 98 165
62 98 162
62 99 169
63 99 168
62 99 170
62 98 165
62 98 165
62 98 163
62 99 170
63 100 172
61 98 161
61 97 156
62 98 165
62 97 160
61 98 165
62 99 168
61 97 165
61 97 161
62 97 161
61 97 153
63 98 168
62 98 164
62 97 159
62 97 156
62 98 165
62 97 163
61 97 158
61 96 154
61 96 156
62 97 161
62 98 157
62 97 161
60 95 149
60 94 146
60 94 143
63 98 162
60 95 150
61 94 148
58 91 140
67 86 104
65 67 28
67 70 27
69 71 29
59 62 21
79 82 33
70 72 29
81 82 27
84 84 34
82 82 35
75 77 31
94 94 37
100 99 42
82 85 44
100 100 41
94 94 50
111 110 50
99 99 47
102 102 46
118 117 48
110 109 48
93 94 39
118 117 58
112 112 53
104 104 49
112 112 48
120 118 48
121 121 52
128 126 58
127 123 55
117 116 51
126 123 60
139 135 65
124 122 58
130 128 52
140 136 59
131 128 59
140 137 66
149 145 68
135 132 59
137 133 64
135 132 65
145 140 66
148 144 67
142 138 64
144 140 65
135 132 63
142 137 60
148 144 64
158 153 69
147 143 56
142 138 64
151 145 63
156 151 62
152 147 68
158 153 67
153 147 67
152 148 66
156 150 70
157 151 68
164 158 78
158 152 71
154 149 65
146 141 57
162 155 75
160 155 69
156 151 68
161 154 70
155 149 70
160 154 72
156 150 67
158 152 71
154 149 61
159 153 65
159 152 72
153 148 63
155 149 69
154 148 65
153 147 61
154 148 62
156 150 62
156 151 63
151 145 62
159 153 66
156 150 65
158 153 69
153 147 66
154 148 64
157 151 67
149 143 68
154 149 62
154 149 67
156 150 66
158 151 70
154 147 65
153 147 64
150 145 56
152 145 62
153 146 65
149 145 59
141 135 54
138 133 51
149 143 57
148 142 59
143 137 56
141 136 56
138 133 54
141 136 58
134 129 52
137 132 52
139 133 56
133 128 44
139 133 56
136 130 56
133 127 45
135 130 47
127 122 42
135 133 48
141 142 32
134 139 34
148 157 36
147 157 22
160 177 0
164 182 16
165 184 0
170 190 0
166 183 0
167 189 0
167 186 0
169 190 0
170 190 0
169 188 0
170 190 0
169 188 0
172 192 0
171 190 0
168 189 0
170 194 0
173 196 0
170 194 0
173 195 0
170 194 0
171 194 0
168 191 0
171 194 0
171 194 0
170 194 0
169 193 0
173 197 0
170 193 0
172 195 36
170 194 36
170 194 25
168 192 0
173 197 36
167 190 0
168 192 36
170 194 0
171 194 0
173 195 36
169 193 36
175 198 36
171 195 25
173 197 36
173 197 36
172 194 44
172 195 67
173 196 36
169 192 25
168 191 57
172 195 51
172 196 44
171 194 25
171 193 36
172 195 36
169 192 36
172 195 51
173 196 57
168 192 44
171 195 0
168 192 0
173 196 25
171 194 36
171 194 36
173 196 25
174 197 36
168 191 36
173 195 25
167 191 0
171 194 44
172 196 25
166 189 25
165 188 36
169 192 0
173 196 51
169 192 36
173 195 25
172 195 36
169 192 36
168 191 0
166 190 0
169 193 25
167 190 0
166 189 0
171 194 0
169 194 0
164 187 0
171 194 0
171 194 0
167 191 0
168 192 0
169 193 0
170 193 0
166 189 0
167 191 0
166 190 0
170 193 0
168 192 0
167 190 0
171 193 0
172 195 0
164 188 36
61 97 153
62 98 160
61 96 155
60 97 157
61 97 154
61 97 154
61 97 156
62 98 158
61 98 163
62 98 160
62 98 166
61 98 166
61 97 162
61 97 160
62 98 166
61 97 162
62 98 161
62 98 163
61 96 156
62 98 164
61 98 165
63 99 169
62 98 165
62 98 167
62 99 174
62 98 171
62 99 175
62 99 169
62 98 168
62 98 167
62 98 169
62 98 168
62 99 166
62 98 169
61 98 166
62 99 171
61 98 165
62 98 168
63 99 170
62 98 171
61 98 167
62 99 174
63 99 176
62 98 171
61 98 171
62 98 170
62 98 165
63 99 175
62 99 173
62 98 161
62 98 166
62 99 173
62 99 173
62 99 169
61 98 164
63 99 170
63 99 174
63 99 169
62 99 174
62 98 172
62 98 169
63 99 171
62 99 171
62 98 171
63 99 169
63 99 172
62 98 169
62 99 170
63 99 170
62 98 171
62 98 170
61 98 169
63 99 174
62 98 169
62 99 175
61 98 170
63 99 170
62 99 174
62 99 172
62 99 171
63 99 173
61 98 167
62 98 167
62 98 171
61 98 172
62 98 172
62 98 171
62 99 171
62 99 170
62 99 172
62 99 169
62 98 168
62 98 171
63 99 173
62 99 172
62 99 173
62 99 172
62 99 173
62 98 167
62 98 173
62 99 173
61 98 171
62 98 168
62 98 167
62 99 171
63 99 171
61 98 164
62 98 166
63 99 176
62 98 164
62 99 167
62 99 175
61 98 168
62 99 174
62 99 170
62 99 171
63 99 171
62 98 167
63 99 171
62 98 167
62 98 167
61 98 172
63 99 172
62 98 166
63 99 173
61 97 163
62 99 168
61 98 165
63 99 169
61 98 164
61 98 166
62 98 163
62 99 170
61 98 167
62 98 165
62 98 167
62 98 169
61 98 168
62 99 169
62 98 166
63 99 169
62 98 167
62 98 165
62 98 161
62 98 162
62 98 161
62 98 161
61 98 161
61 98 163
62 98 161
62 98 163
62 99 168
61 97 155
63 99 166
62 99 169
62 98 164
60 96 151
62 98 162
62 98 160
62 98 167
62 98 165
61 97 155
61 97 160
62 97 159
61 96 154
61 97 159
61 96 155
61 96 154
60 95 152
59 94 154
61 96 152
61 97 156
61 96 160
60 95 154
61 96 155
59 92 142
58 90 139
59 92 144
61 82 100
78 79 20
58 61 25
63 65 22
62 65 20
64 67 23
65 68 20
73 76 29
71 73 30
68 72 36
73 76 32
79 83 40
78 78 29
81 84 41
93 94 46
100 100 43
100 101 47
112 112 54
99 100 46
95 95 43
98 99 40
93 95 41
110 109 50
117 114 54
125 122 52
113 114 56
113 112 55
129 126 60
129 127 56
118 118 57
132 129 63
121 120 52
125 123 51
129 127 56
132 130 60
131 128 59
131 129 58
146 142 65
142 138 62
139 135 65
136 133 62
143 139 67
140 136 65
146 142 65
149 144 61
145 140 64
151 146 67
155 149 74
135 130 60
141 137 64
158 152 77
149 143 67
154 148 71
147 142 61
153 147 66
150 145 64
154 148 70
157 151 71
155 149 71
150 145 61
142 137 60
149 143 59
153 148 69
146 141 57
158 152 64
155 149 63
159 153 68
160 154 70
155 149 66
151 144 60
164 158 70
158 152 68
161 154 72
147 143 52
163 156 68
156 149 70
158 153 70
160 154 64
151 146 63
150 144 64
155 149 61
162 155 70
153 147 68
156 149 69
158 152 70
154 147 61
160 153 69
157 151 65
146 141 58
147 141 59
150 146 58
148 142 58
151 145 61
155 149 62
148 142 54
146 140 59
145 140 48
150 145 60
140 135 52
144 139 62
140 134 56
149 143 60
141 136 45
141 135 52
144 139 54
142 135 60
135 129 51
147 140 57
137 131 57
140 133 57
139 133 57
136 131 54
130 125 39
135 131 51
126 121 45
128 125 39
126 124 32
134 135 39
141 148 28
154 162 34
154 164 30
161 176 25
160 176 19
168 188 0
171 192 0
171 190 0
168 189 0
164 186 0
170 190 0
167 186 0
168 188 0
172 193 0
171 191 0
171 193 0
171 191 0
167 188 0
171 192 0
170 194 0
170 195 0
172 196 0
173 197 0
168 192 0
172 195 0
169 192 0
171 194 0
173 195 0
171 195 0
172 194 0
172 195 0
173 196 25
170 193 25
170 194 0
171 195 36
170 193 36
171 193 0
174 197 36
171 195 44
172 195 25
173 196 57
170 194 51
172 195 51
174 196 57
170 195 25
171 194 44
171 195 25
173 196 62
171 194 44
170 193 44
173 196 36
174 197 62
169 192 51
176 198 44
170 192 51
171 194 36
171 195 44
172 194 36
167 190 25
172 194 44
170 193 44
173 195 62
173 196 44
174 196 57
167 189 36
171 193 57
170 193 36
174 197 62
174 197 51
170 193 36
170 194 57
167 190 36
171 194 0
172 196 25
172 195 36
173 196 62
166 189 25
170 193 25
171 193 36
172 195 36
170 193 25
170 193 36
168 191 25
171 193 25
171 194 25
168 190 0
167 191 0
167 190 25
167 190 0
167 191 0
174 197 0
168 191 0
170 193 0
169 192 0
167 190 0
170 193 0
168 191 0
166 190 0
168 191 0
169 192 0
166 189 0
157 180 0
171 194 0
157 181 67
62 98 158
62 98 157
61 97 152
61 97 150
62 97 157
61 97 156
61 97 159
62 98 159
62 98 163
61 97 157
61 98 165
61 98 161
62 98 159
61 97 163
62 98 161
61 98 166
60 96 160
62 99 171
62 98 165
61 97 163
63 99 172
62 98 164
63 99 170
61 97 168
63 99 166
62 98 166
62 99 171
62 98 164
61 98 168
61 97 160
62 99 169
62 99 169
61 98 166
61 97 164
61 98 166
62 99 169
62 98 168
62 98 165
62 99 172
62 99 170
62 98 166
63 99 172
61 98 170
62 98 170
62 99 175
62 99 172
63 100 177
62 99 171
62 98 169
62 99 171
62 99 171
61 98 168
61 97 161
61 98 165
62 99 173
62 98 170
62 98 169
62 99 171
62 99 175
62 99 169
62 98 168
62 99 172
62 99 171
62 98 170
63 99 172
62 99 168
61 98 167
61 98 165
62 99 171
62 98 170
63 99 166
62 99 169
62 98 167
62 99 170
62 99 173
62 99 173
62 98 173
62 98 168
62 98 167
62 99 173
63 99 169
63 99 169
61 98 172
62 99 172
61 98 169
61 97 168
62 98 167
62 98 166
62 99 167
63 99 171
63 99 174
62 99 172
61 98 162
62 99 171
62 98 170
62 99 171
62 99 172
63 99 171
62 98 173
63 99 172
62 99 172
62 99 169
63 99 165
62 98 170
62 99 167
62 98 168
62 99 173
62 98 168
63 99 171
62 98 168
61 98 165
62 99 170
62 98 167
62 98 171
62 99 167
62 99 169
62 98 165
62 99 173
62 99 175
62 98 164
62 98 169
62 98 166
62 98 167
62 99 171
62 98 163
62 98 166
62 98 169
62 98 165
63 99 168
62 99 166
63 99 167
62 98 166
62 98 166
62 99 165
62 98 166
62 99 167
62 98 165
62 99 169
61 97 160
62 99 166
61 98 162
63 99 168
61 97 160
62 98 164
62 97 155
62 98 160
62 98 159
63 99 165
62 98 164
63 98 164
62 98 162
63 99 167
62 98 160
62 98 168
61 97 160
62 98 161
62 98 163
62 98 161
61 97 159
62 97 163
61 97 157
61 97 159
61 97 163
62 97 163
61 96 155
62 98 162
62 98 162
62 97 155
61 96 156
61 96 150
61 95 151
61 96 160
60 94 144
61 95 148
60 94 151
59 93 144
60 94 147
58 91 138
58 84 123
56 61 27
60 62 16
77 76 20
79 79 23
78 79 25
72 74 22
81 82 29
82 84 33
89 91 29
76 77 26
92 90 37
96 97 42
96 95 35
85 88 39
91 93 42
92 94 40
103 102 44
87 89 41
101 101 43
102 101 42
110 108 45
112 110 48
99 100 42
114 113 45
120 119 50
125 123 57
128 125 50
118 116 53
132 129 54
131 128 61
114 114 52
123 121 52
120 119 52
130 128 52
128 126 56
133 130 64
132 129 53
130 128 54
132 129 53
137 134 60
145 141 56
139 135 60
147 143 57
137 132 61
148 144 67
144 140 63
141 137 60
142 137 62
151 145 63
151 146 67
152 148 63
160 154 69
157 151 74
151 145 62
156 150 72
154 148 68
156 151 64
148 144 65
154 149 63
157 151 72
160 155 70
151 146 63
155 150 65
152 146 61
161 154 66
154 149 64
151 146 54
154 148 71
159 153 63
157 151 62
158 151 65
158 152 68
159 153 66
158 152 64
150 145 58
162 156 69
154 148 63
155 149 67
156 149 66
152 146 62
151 146 58
155 149 63
155 149 61
156 151 64
151 146 63
160 154 69
151 144 65
155 149 63
155 149 63
152 147 57
151 145 58
149 144 58
151 145 58
152 146 66
150 145 48
137 132 48
143 138 54
146 141 54
141 136 48
139 134 52
135 130 57
140 134 48
145 139 57
142 136 56
144 138 58
131 127 48
139 133 59
141 136 51
141 135 45
133 128 42
135 130 42
136 131 44
127 121 45
130 126 47
135 133 37
131 128 42
142 144 41
145 149 45
151 159 39
153 163 25
155 169 11
164 182 0
169 189 0
171 191 0
169 190 0
169 190 0
168 188 0
165 185 0
168 187 0
170 191 0
171 191 0
169 189 0
165 184 0
171 192 0
168 187 0
170 191 0
171 195 0
170 194 0
171 195 0
171 194 0
174 197 0
169 193 0
172 195 0
172 194 0
170 194 0
172 196 0
175 197 36
171 195 44
171 194 25
171 195 25
173 196 25
171 194 44
169 192 25
172 196 36
173 195 57
173 196 51
174 196 67
173 197 67
172 196 36
173 196 51
173 196 36
175 197 76
172 195 36
172 195 25
176 198 44
172 195 51
168 191 36
173 196 44
174 197 36
172 195 51
169 191 67
171 195 57
174 197 57
172 195 36
175 198 67
175 198 62
173 196 25
171 194 51
171 195 44
172 194 51
178 201 72
171 194 51
171 194 72
169 193 51
175 198 67
168 191 57
174 196 62
167 190 36
167 191 0
171 195 44
168 191 25
173 196 62
172 195 62
171 194 57
170 193 36
168 190 0
169 190 62
171 194 36
173 196 25
170 193 25
169 192 44
169 191 25
169 192 25
167 191 25
168 192 25
168 192 25
168 191 36
168 191 0
166 190 0
167 191 0
172 195 0
169 192 0
167 192 0
167 191 0
169 192 0
163 186 0
170 193 0
166 189 0
163 186 0
164 188 0
141 165 99
61 96 150
62 97 151
61 97 160
62 98 158
61 97 155
61 97 157
60 96 151
62 98 163
61 97 157
62 98 161
61 97 159
61 97 161
62 98 162
61 97 159
61 97 165
62 99 169
62 98 162
62 99 169
62 98 163
63 99 169
61 97 160
62 98 163
62 98 165
61 98 167
61 97 161
61 98 166
63 99 170
61 98 167
61 98 167
62 98 164
61 98 168
62 99 167
63 99 166
61 98 168
62 98 175
62 98 166
61 97 167
62 99 173
62 99 170
62 98 172
60 97 169
62 98 168
61 98 166
62 98 170
62 99 168
62 99 172
63 99 177
61 98 169
62 98 170
62 99 171
62 98 171
62 99 168
62 98 170
62 98 172
61 98 165
61 98 170
61 98 161
62 98 173
61 98 172
62 99 173
62 99 171
61 98 167
62 99 173
63 99 175
61 98 170
61 98 170
62 99 170
62 98 167
62 99 171
62 99 174
62 99 173
62 99 174
62 99 172
62 98 167
61 97 165
61 98 164
62 98 167
62 98 167
61 98 164
62 99 169
62 99 173
61 98 171
63 99 172
62 99 173
62 98 166
63 99 171
62 99 177
62 98 167
61 98 169
62 98 165
62 98 167
62 99 173
62 98 168
61 97 168
61 98 166
63 99 171
61 98 163
62 99 169
63 100 173
63 100 178
61 98 170
63 99 170
62 99 169
62 99 169
62 98 161
62 98 163
62 99 174
62 98 164
62 98 167
62 98 172
62 98 168
61 98 163
62 98 169
62 98 166
62 99 173
62 98 163
61 98 161
62 98 166
62 99 168
62 98 166
62 99 170
61 98 167
62 98 166
62 98 169
62 98 166
62 98 162
62 98 164
61 98 167
62 98 168
62 99 165
62 99 170
62 98 160
61 98 162
62 98 165
62 99 167
62 98 162
62 99 168
62 98 165
63 99 169
62 98 165
62 98 162
63 99 168
62 99 166
62 98 166
62 98 164
62 98 161
62 99 168
61 97 157
62 98 162
62 98 159
62 97 161
62 99 166
62 98 161
61 97 163
62 98 168
62 98 161
62 98 165
61 97 160
61 97 158
61 97 155
62 97 154
62 98 162
61 97 157
63 98 163
61 97 158
60 95 151
61 97 152
62 97 156
60 95 150
62 97 164
62 97 152
61 95 154
60 95 150
60 95 147
61 95 153
59 92 144
59 92 145
59 92 139
60 88 131
72 74 24
61 64 23
65 66 20
67 70 19
64 66 17
73 75 21
86 87 29
85 85 31
75 77 24
74 78 32
89 90 36
86 87 33
86 87 44
83 84 32
95 95 38
105 104 47
95 95 44
99 99 38
86 89 38
96 96 38
97 97 39
115 114 39
107 106 39
103 103 43
117 115 48
127 123 52
117 116 49
118 117 43
121 119 50
115 114 50
131 129 55
123 119 49
130 126 58
128 126 52
131 127 56
126 125 49
138 134 59
130 127 54
136 132 60
137 135 58
139 136 54
136 133 61
137 134 58
133 130 60
137 134 52
141 138 65
147 142 66
144 139 64
145 140 64
152 147 70
148 143 58
150 144 65
148 143 67
158 152 73
153 148 71
150 145 63
150 145 61
147 140 61
149 144 60
154 148 64
147 142 59
152 147 66
148 143 66
157 151 65
158 152 66
156 150 66
147 143 53
161 154 74
158 151 69
157 151 66
159 152 68
156 150 71
151 145 59
156 151 70
153 148 59
158 152 68
153 146 65
160 154 64
156 149 63
158 152 66
158 152 67
156 150 71
156 150 69
150 144 61
147 141 63
152 146 61
148 141 65
151 143 64
153 146 63
149 144 57
151 145 60
146 142 59
150 143 67
141 135 51
151 145 58
142 136 56
144 138 59
147 142 53
146 140 59
139 134 47
144 138 58
143 136 57
135 130 53
144 137 51
136 131 48
139 134 52
138 132 49
145 138 54
131 127 44
126 121 45
127 124 36
129 123 48
128 121 49
130 125 47
130 128 30
137 135 44
137 143 30
140 148 22
152 162 37
160 176 19
166 182 16
169 189 11
165 182 0
164 184 0
168 189 0
169 188 0
166 183 0
167 187 0
170 189 0
170 191 0
167 188 0
170 189 0
170 190 0
169 189 0
168 188 0
168 188 0
168 192 0
168 192 0
171 195 25
171 194 25
174 197 25
175 198 44
171 195 0
171 195 0
173 196 0
171 195 25
173 196 25
171 195 25
171 193 0
171 193 36
172 195 36
174 198 44
176 198 51
172 194 36
173 196 36
174 198 57
170 193 0
171 194 44
172 195 36
171 194 57
171 194 44
170 193 57
177 200 57
170 194 57
173 195 44
174 197 51
177 199 57
170 193 36
173 196 51
175 197 51
172 195 51
176 199 67
173 195 44
171 194 51
173 196 44
170 192 67
173 194 72
170 193 44
176 198 72
171 194 57
170 193 44
173 196 62
170 193 51
174 197 67
170 193 36
172 194 57
170 192 57
175 198 51
174 197 44
172 194 57
171 194 44
173 196 57
175 197 67
170 194 44
169 191 51
168 191 44
169 192 51
173 196 62
166 188 36
172 194 57
166 190 36
174 196 67
171 194 57
169 193 25
167 189 0
169 193 44
167 190 36
168 191 25
170 193 36
169 193 0
166 189 25
169 193 0
168 191 0
171 194 0
167 188 0
168 191 0
168 190 0
168 192 0
166 190 18
169 192 0
129 154 105
61 97 155
61 97 151
62 98 160
61 96 153
61 96 156
62 98 159
62 98 164
62 98 162
62 98 156
61 97 156
61 97 161
61 98 163
62 98 163
61 96 160
61 97 159
62 98 162
61 97 165
61 97 159
61 97 164
62 98 162
61 97 159
61 98 169
61 98 166
62 98 165
61 97 166
62 99 172
62 98 166
61 98 168
62 99 170
61 98 165
62 99 168
62 98 163
61 97 157
61 98 170
62 99 172
61 98 170
61 98 164
62 98 167
62 98 170
62 98 170
62 98 167
62 98 166
62 98 167
61 98 169
60 97 165
61 97 165
62 98 166
62 98 171
62 99 171
62 99 173
61 98 173
62 99 171
62 98 168
61 98 168
61 98 168
63 99 173
62 99 172
61 98 165
61 98 171
62 99 170
62 98 170
62 98 173
62 98 170
62 98 173
62 99 172
62 98 168
63 99 175
62 98 168
63 100 177
62 98 168
62 99 172
63 99 168
62 98 166
62 99 170
62 98 168
63 100 177
62 98 166
62 98 161
62 99 172
62 98 171
62 98 165
63 99 169
62 99 168
62 98 164
62 98 170
63 99 168
62 98 171
62 99 174
63 99 169
63 99 169
62 99 175
63 100 174
62 98 170
63 99 170
62 99 168
62 99 172
62 99 167
63 99 172
62 99 170
62 98 167
62 98 167
61 98 169
61 98 167
62 99 170
62 98 166
62 99 171
63 99 168
62 98 164
62 98 168
62 99 166
61 98 165
63 99 172
62 98 167
62 99 168
62 99 169
62 98 167
61 98 163
62 98 168
62 98 162
62 98 163
62 99 170
62 98 166
62 98 166
63 99 170
63 99 169
63 99 172
61 97 158
62 98 164
61 98 164
63 99 167
63 99 171
62 98 166
62 98 166
62 99 162
62 98 166
62 99 172
61 98 164
63 99 166
62 99 167
62 99 171
62 99 164
62 98 163
61 97 161
63 99 164
62 98 168
62 98 166
62 98 156
63 99 166
62 99 168
62 98 162
62 99 166
62 98 162
62 98 162
62 98 165
62 98 160
62 98 164
62 98 162
61 96 154
61 96 154
62 98 166
61 97 156
62 98 160
62 98 161
62 97 157
61 97 160
61 96 156
62 97 152
60 95 152
61 97 154
61 96 159
61 96 155
62 97 159
60 95 152
62 97 158
60 94 155
59 93 146
60 94 151
60 94 148
56 87 131
66 69 33
72 74 19
66 67 22
69 69 22
74 76 23
79 82 33
82 83 27
76 80 26
84 84 25
75 79 22
79 80 33
87 89 35
94 95 39
90 91 36
97 96 45
88 90 33
97 97 39
110 108 41
106 105 45
98 100 39
110 110 47
113 111 49
113 112 44
123 121 55
118 117 45
121 119 53
112 111 43
115 113 54
128 126 51
119 118 49
126 124 55
119 117 53
129 125 60
137 133 55
138 135 59
134 132 57
137 134 62
128 126 55
125 123 52
144 139 59
138 135 54
141 136 59
140 136 60
140 135 59
150 145 64
145 141 61
142 139 51
137 134 54
147 143 66
154 147 64
152 146 65
147 143 54
155 150 53
149 144 58
151 146 69
149 144 59
157 152 60
146 141 60
151 145 66
154 148 68
151 145 63
150 146 62
158 151 68
155 149 70
153 147 61
151 146 62
155 150 57
156 150 67
160 154 68
157 150 66
155 149 60
149 145 55
153 148 57
157 151 68
149 143 57
152 146 62
154 148 59
153 149 59
152 146 65
152 146 64
149 144 56
151 146 56
146 142 54
153 147 57
149 143 62
149 142 62
153 147 63
156 150 65
149 142 59
147 141 59
153 148 59
152 146 57
149 144 64
149 144 54
147 142 62
150 143 58
147 141 57
141 136 51
146 140 52
146 140 53
148 142 56
139 134 52
145 139 44
140 135 47
140 134 52
138 132 48
144 138 52
132 126 49
144 138 58
132 126 44
131 127 36
132 126 41
140 135 52
141 139 49
139 140 44
143 149 32
143 150 34
147 157 30
158 170 32
161 178 16
166 185 0
170 190 11
167 187 0
168 189 0
168 188 0
170 188 0
169 188 0
168 186 0
169 189 0
170 190 0
168 188 0
169 187 0
166 184 0
162 181 0
168 186 0
168 188 0
172 195 25
172 196 0
173 197 25
168 192 0
172 195 25
169 192 0
172 194 0
175 198 25
172 195 36
173 196 25
172 195 44
174 196 36
173 196 57
167 190 0
178 200 67
171 195 25
173 195 36
172 194 62
172 195 62
174 197 44
172 195 57
173 196 44
172 194 62
173 196 44
171 194 44
172 195 44
172 193 57
172 195 44
173 196 67
173 195 51
175 197 44
176 198 51
173 196 57
174 197 72
173 196 62
173 195 72
174 197 51
173 195 57
170 194 51
171 194 44
167 191 44
175 197 57
171 194 51
175 197 62
173 195 62
174 196 72
173 196 62
173 195 36
171 196 36
171 194 57
172 196 67
175 198 57
167 191 25
174 197 84
173 195 72
171 193 51
174 197 62
173 196 25
172 194 72
168 192 0
170 193 62
171 193 67
173 196 51
169 192 44
170 193 36
175 196 72
171 194 57
168 191 44
173 196 57
167 189 51
170 193 51
168 191 0
171 194 36
167 191 0
170 193 25
168 191 36
164 187 0
166 189 25
165 187 0
165 187 0
167 190 0
165 188 0
167 190 0
166 189 18
122 148 108
61 96 148
61 96 149
62 98 157
62 98 156
62 98 161
60 96 155
61 97 161
62 98 160
62 98 159
60 96 157
61 97 161
61 97 159
62 99 163
62 98 163
62 98 163
62 98 163
62 98 167
62 98 162
61 98 163
62 98 160
62 98 163
63 99 171
62 99 167
61 98 165
61 97 166
61 97 164
61 98 169
61 97 161
62 98 173
62 98 165
62 98 167
62 98 163
61 97 161
63 99 167
62 98 167
62 98 171
61 97 157
62 99 175
62 98 167
63 99 173
62 98 170
61 97 162
61 98 167
61 98 164
63 99 172
62 99 172
62 98 165
62 99 170
61 98 165
62 98 169
62 98 166
61 98 164
62 99 169
62 98 169
62 98 170
62 99 168
62 99 170
62 99 171
62 99 172
63 99 174
61 98 165
62 98 168
62 99 175
63 99 175
61 98 167
63 99 174
62 98 170
62 99 174
62 99 167
62 98 167
61 97 167
61 97 164
62 98 167
62 98 167
62 98 167
62 98 160
62 99 171
62 98 168
61 98 160
63 100 175
63 99 171
62 98 163
61 98 165
62 98 165
61 98 169
61 98 163
62 99 174
62 99 170
63 99 173
62 98 170
62 99 168
62 99 170
62 99 171
62 99 169
62 99 168
62 98 169
63 99 170
62 99 169
62 99 169
62 98 168
63 99 166
62 98 163
62 99 170
63 100 171
62 98 164
62 98 167
63 99 167
62 98 165
62 98 172
61 98 168
62 99 173
62 98 171
62 99 168
62 98 167
63 99 170
62 99 171
62 99 171
62 99 168
62 98 167
62 98 166
62 99 169
62 99 164
62 99 169
62 99 172
62 98 163
61 98 160
61 97 159
62 98 168
62 98 164
62 98 164
61 98 165
61 98 158
62 98 164
62 98 164
61 97 157
62 98 165
62 99 170
62 98 161
61 97 160
62 98 164
62 98 163
62 98 160
62 98 164
62 97 157
62 98 166
63 99 166
62 97 161
62 98 164
62 98 160
61 97 164
61 97 162
63 98 164
61 97 155
62 98 163
61 98 163
62 98 166
62 98 165
62 97 161
62 97 160
62 98 165
62 97 159
62 97 158
62 98 163
61 97 157
62 97 158
61 97 159
61 96 153
60 95 143
61 96 156
61 96 159
62 97 161
60 94 140
61 96 152
61 96 156
60 94 136
61 96 158
59 93 136
60 92 143
58 90 134
66 70 33
69 68 20
74 75 19
79 80 23
74 75 20
76 77 24
80 79 24
80 81 32
89 90 27
96 97 30
91 90 30
85 85 25
93 94 38
92 92 30
108 106 39
98 98 38
88 89 31
109 108 37
99 100 43
108 107 36
105 106 37
114 112 40
114 112 46
108 107 49
103 103 38
115 114 43
104 105 38
110 109 47
123 121 52
119 116 48
125 121 52
115 114 42
117 117 50
135 132 54
124 122 49
130 127 57
141 137 56
138 133 56
134 132 55
139 135 57
139 135 50
137 132 52
137 134 56
143 139 60
140 135 49
142 138 50
148 142 64
140 138 53
147 143 57
147 142 56
145 140 61
146 141 65
142 138 58
145 140 58
156 150 63
141 137 60
146 142 61
156 150 65
150 144 59
154 148 68
156 150 63
144 139 56
151 146 59
152 147 61
153 147 57
153 147 60
146 141 51
142 137 54
153 147 64
155 150 60
152 147 59
148 142 57
156 150 61
149 143 64
151 145 59
150 146 57
149 143 60
153 148 65
156 150 65
146 140 59
157 151 68
154 148 59
153 147 59
156 149 66
145 140 57
147 142 53
152 147 58
154 147 56
150 145 56
141 136 52
144 138 45
154 147 64
152 146 63
148 143 52
144 137 54
142 136 59
146 141 44
142 136 54
147 140 63
138 133 48
143 138 51
147 141 44
137 132 45
142 136 57
143 136 53
133 128 48
125 120 42
128 123 48
131 125 47
130 124 47
130 125 37
139 136 48
137 134 45
131 131 39
139 144 36
149 157 28
145 151 44
147 158 19
166 180 30
160 176 19
164 182 0
167 187 0
167 186 0
166 185 0
165 181 0
169 187 0
166 183 0
166 185 0
168 186 0
168 189 0
168 189 0
167 188 0
167 188 0
171 191 0
172 192 0
169 189 0
172 196 36
172 195 0
173 195 25
173 195 44
173 196 36
173 197 36
173 196 51
175 198 51
174 196 51
173 197 25
172 195 67
170 194 44
173 195 51
172 196 51
173 196 51
171 194 44
172 194 62
174 196 57
175 197 67
175 197 57
176 199 62
173 195 44
175 198 36
176 199 80
175 198 72
179 201 88
174 196 57
175 198 62
171 195 57
180 202 92
176 198 72
175 198 67
172 194 62
174 197 88
175 198 62
174 196 67
178 200 76
177 199 84
180 201 88
176 199 51
170 192 51
175 198 72
174 197 72
175 196 84
170 192 57
173 196 72
176 198 88
175 197 80
172 195 67
175 197 57
172 194 62
175 197 62
172 195 76
176 198 76
171 193 44
173 196 57
170 193 62
174 197 62
169 191 62
172 194 67
175 197 62
174 198 80
168 191 51
171 194 57
170 194 44
169 192 44
170 193 57
170 193 57
169 192 44
165 188 36
174 194 67
171 194 36
169 192 44
166 188 44
170 193 25
169 192 51
168 190 25
173 196 51
171 194 25
170 193 0
163 186 0
168 191 25
165 188 25
163 186 31
117 143 107
61 97 154
62 98 154
61 96 151
61 96 148
61 97 156
62 98 160
63 99 163
61 97 154
61 97 161
61 98 167
61 96 162
62 98 159
61 98 164
62 98 167
62 98 164
61 97 159
61 97 158
61 98 166
62 99 166
62 98 168
62 98 164
62 98 165
61 97 163
62 98 168
61 97 158
62 98 169
62 98 166
62 98 163
61 98 165
61 97 164
62 98 166
62 99 169
61 98 169
62 98 166
61 98 169
61 98 164
62 98 172
61 98 169
62 98 165
62 98 167
62 98 166
62 98 167
61 97 163
61 98 167
63 99 172
61 98 169
61 98 170
61 97 160
62 98 169
62 99 172
61 98 168
61 97 170
62 98 169
62 98 169
62 98 173
62 99 168
61 97 165
62 99 171
62 98 170
62 99 172
62 98 168
61 98 166
62 98 170
62 98 167
62 99 171
63 99 172
63 99 172
62 98 163
62 98 169
62 98 164
62 98 169
62 99 167
62 99 172
61 98 172
62 99 170
62 99 167
62 99 174
62 98 164
62 98 167
62 99 171
62 98 171
62 98 165
63 99 170
62 98 167
61 98 162
62 99 174
62 99 169
62 98 170
61 98 165
62 98 170
61 98 165
62 98 169
63 99 173
61 98 168
62 99 171
62 99 167
62 98 170
62 98 165
62 98 170
63 99 172
62 99 169
62 99 171
62 98 162
62 99 169
62 98 162
61 98 167
62 98 162
63 99 172
62 98 161
62 98 166
62 98 166
62 98 171
63 99 168
62 99 168
62 99 169
62 98 170
63 99 170
61 97 157
62 98 165
62 98 163
62 99 169
63 99 172
63 99 165
62 98 163
62 98 163
62 98 158
62 98 162
62 98 161
63 99 169
62 98 168
61 97 160
63 99 171
63 99 169
61 97 157
62 99 169
61 97 157
62 98 166
62 98 169
63 99 168
62 99 165
62 98 160
61 97 158
63 99 169
61 98 164
62 98 166
61 97 157
61 98 166
62 98 161
61 97 158
62 98 163
61 97 162
61 97 161
62 98 167
61 97 156
62 98 160
61 97 164
61 97 152
61 98 158
61 96 154
62 98 163
61 97 156
62 97 160
61 97 154
62 98 157
62 98 159
61 96 155
61 97 154
60 95 154
62 97 156
61 96 157
61 95 156
62 97 154
62 97 157
59 93 141
62 98 160
61 95 147
60 94 147
60 93 143
57 89 127
54 61 37
74 75 15
77 76 19
82 82 20
76 75 22
74 75 29
62 65 24
81 83 29
90 92 30
73 76 23
87 87 31
92 94 30
101 101 36
93 94 31
88 89 33
101 102 40
93 95 39
101 101 37
98 98 33
105 105 39
101 99 38
109 106 42
103 103 37
112 111 45
113 111 41
108 107 45
110 109 40
110 110 43
119 119 47
119 118 51
118 116 45
132 128 56
131 129 51
125 122 55
129 126 50
127 124 48
140 136 56
134 131 57
127 124 55
126 123 48
146 141 63
136 132 54
145 140 57
142 138 56
144 140 52
140 137 48
136 133 56
143 139 57
146 141 61
143 138 63
150 144 63
145 141 63
149 145 58
151 146 66
151 145 60
142 138 61
134 131 47
144 139 57
150 144 59
149 144 51
160 153 67
158 152 62
150 145 61
152 146 62
153 147 61
153 148 65
153 147 62
150 145 59
149 142 57
148 143 56
154 149 56
158 152 59
153 147 53
154 147 63
152 146 58
150 144 61
156 150 58
149 143 58
156 150 57
149 145 52
149 143 54
146 140 56
154 149 63
150 144 56
155 148 57
157 150 64
147 142 56
149 144 53
145 140 52
145 139 53
149 143 60
131 127 42
150 144 58
138 134 45
144 138 49
139 134 48
137 132 49
138 134 48
143 136 49
146 141 56
140 134 51
143 137 47
136 131 39
148 141 59
139 134 45
147 141 51
132 127 42
129 125 42
122 117 36
126 119 45
135 130 48
137 135 37
135 135 32
144 147 37
146 147 45
147 156 32
152 163 25
160 173 25
163 179 11
165 184 0
168 188 0
166 184 0
167 185 0
167 187 0
163 182 0
170 189 0
164 185 0
169 188 0
171 191 0
167 187 0
168 189 0
169 189 0
163 180 0
169 189 0
168 190 0
164 182 0
175 198 25
173 197 36
172 195 0
171 194 36
177 199 67
171 194 25
172 195 57
172 195 25
170 194 57
173 196 62
171 195 36
171 194 44
175 199 67
171 195 51
171 194 57
177 199 76
175 198 76
174 197 57
179 201 76
175 197 62
176 199 67
176 197 51
172 195 62
173 196 57
176 198 72
170 193 72
178 200 72
176 199 62
179 201 88
178 200 92
173 196 84
177 199 84
174 196 95
178 200 108
176 198 76
180 201 99
176 198 76
177 199 84
178 200 84
178 200 99
176 198 92
176 199 76
177 199 80
176 198 84
175 198 67
179 201 88
176 198 84
170 192 67
173 195 92
176 198 92
180 201 95
176 198 76
175 197 84
173 196 62
180 201 102
175 196 80
178 199 88
175 197 84
171 194 36
169 191 51
173 196 57
174 196 67
175 197 72
170 193 51
171 194 67
170 192 62
173 195 62
168 191 25
172 195 44
172 194 36
166 189 36
168 192 51
168 192 44
168 191 25
169 193 36
170 194 0
174 197 57
172 195 0
168 191 36
168 191 36
166 190 0
169 191 47
160 182 36
162 185 44
113 139 118
64 98 137
61 96 147
63 97 144
64 99 153
61 97 155
61 96 152
61 96 149
61 97 154
62 98 157
61 97 163
62 98 160
62 98 159
62 98 158
62 98 164
61 97 157
62 98 163
62 98 163
62 98 162
62 98 166
61 97 164
62 98 163
62 98 164
62 98 163
61 97 163
61 98 166
61 97 165
61 98 166
61 97 163
62 98 168
61 97 163
62 98 166
61 97 160
62 98 166
61 97 165
62 99 169
62 98 164
61 97 164
62 98 166
61 98 169
61 97 165
61 98 167
62 99 170
62 98 167
61 98 163
62 98 175
62 98 169
61 98 171
62 98 167
62 99 168
62 99 170
62 98 167
61 97 164
63 99 169
61 97 163
62 98 169
62 99 171
61 97 163
62 98 172
62 98 169
62 99 174
62 99 169
61 98 164
61 98 167
61 98 164
62 99 170
62 99 173
61 97 165
62 98 170
63 99 169
61 98 168
62 99 169
62 98 163
62 98 167
62 99 165
61 97 161
61 97 162
61 97 167
62 98 169
63 99 169
62 98 167
62 99 170
61 98 167
63 99 173
62 98 169
62 99 170
63 99 168
62 98 163
62 98 165
62 98 165
62 98 167
62 99 173
62 98 167
64 100 175
62 98 167
62 98 168
63 99 172
62 98 167
61 98 164
62 98 171
62 99 173
63 99 168
62 99 173
61 98 167
62 98 167
63 99 170
62 99 170
62 98 167
63 99 171
63 99 165
63 99 170
62 98 165
63 99 170
62 99 168
61 97 161
62 98 168
62 99 168
62 99 172
62 98 168
62 99 173
62 98 161
61 98 165
63 99 170
62 98 166
62 98 164
62 98 167
62 98 169
63 99 171
62 98 171
62 99 168
62 99 167
61 98 167
62 99 172
62 98 166
63 99 169
62 98 166
62 98 163
63 99 167
62 98 158
62 98 161
61 98 164
62 98 164
61 97 164
61 97 159
63 99 165
62 97 157
62 98 162
62 97 159
62 98 162
63 99 167
61 97 161
62 98 161
64 100 170
62 98 164
62 98 164
62 98 157
61 97 156
62 97 159
62 99 165
61 96 159
60 96 153
62 98 163
61 97 160
61 97 151
62 98 159
62 97 156
62 98 165
61 96 155
62 97 152
60 96 155
61 95 142
61 96 155
61 96 151
61 95 151
60 94 145
60 94 149
60 93 150
60 95 151
61 95 148
59 92 138
61 66 42
77 77 12
73 74 22
78 78 18
68 70 18
72 75 26
75 76 18
82 83 26
82 84 26
80 80 28
85 86 23
79 81 27
102 100 40
101 101 36
99 99 32
99 98 34
88 89 25
95 95 41
103 101 32
105 103 37
111 112 42
95 96 32
122 120 38
112 110 46
113 111 37
106 107 46
114 113 38
116 114 44
117 114 45
124 121 56
135 131 53
127 123 42
120 117 48
121 119 47
135 131 51
125 123 50
137 132 56
137 133 51
135 131 55
135 130 51
139 135 55
143 139 51
134 130 54
138 134 58
148 143 60
138 134 48
142 137 60
142 137 51
142 138 60
144 139 59
137 133 55
145 140 56
147 142 54
153 148 63
154 148 63
145 139 64
142 138 54
157 151 64
150 144 67
149 143 64
143 138 57
147 141 58
154 148 56
148 144 57
153 147 60
153 147 56
147 142 59
151 145 60
151 145 54
157 150 65
147 141 63
144 140 58
147 142 53
153 148 59
150 144 58
153 147 60
159 152 67
161 154 69
140 136 49
147 142 60
151 145 61
144 139 51
150 143 60
150 143 52
146 140 45
154 147 66
147 141 51
148 142 53
139 134 49
143 138 60
142 136 53
141 137 45
141 136 56
146 140 53
147 140 54
151 146 53
149 144 60
139 133 42
133 128 48
129 124 39
138 131 53
134 129 47
133 128 41
141 134 49
137 132 47
137 131 48
130 124 44
129 124 42
122 117 39
133 129 47
132 128 49
126 126 41
133 133 32
144 147 30
138 145 25
142 149 32
157 168 28
151 161 25
165 181 0
165 181 0
166 185 0
161 180 0
167 187 0
164 183 0
165 183 0
166 186 0
165 184 0
170 189 0
172 193 0
164 183 0
167 188 0
166 185 0
168 188 0
174 193 0
170 192 0
168 188 0
174 197 44
169 192 51
172 195 36
169 192 36
172 195 25
173 197 44
175 198 51
177 199 80
173 196 36
170 194 44
175 198 67
175 197 51
175 198 67
175 198 51
172 195 57
177 199 76
177 200 72
175 198 72
176 199 57
174 197 72
172 195 72
176 198 80
177 200 95
178 200 80
180 202 102
178 201 80
178 200 88
178 200 95
176 198 92
182 203 111
179 201 92
184 205 120
177 199 72
178 200 92
176 198 80
175 197 76
177 198 99
183 204 120
178 200 92
174 197 76
180 201 99
179 201 92
181 203 99
177 198 95
179 201 99
178 199 108
177 199 102
178 199 105
176 197 88
178 200 80
180 201 122
177 199 92
176 197 105
171 194 72
173 195 72
174 196 80
178 199 92
177 198 92
175 197 72
180 201 95
174 197 76
171 194 51
168 192 51
176 198 76
170 194 44
173 195 72
173 195 62
173 195 72
170 194 51
173 196 88
172 195 51
168 191 51
168 190 62
167 189 51
170 193 57
172 195 57
169 191 44
168 191 51
163 186 25
169 192 62
169 192 47
161 185 47
159 181 51
164 186 60
108 134 121
66 100 156
65 100 156
66 100 153
65 100 159
66 101 162
61 97 158
61 97 154
62 98 157
62 98 163
63 99 164
62 98 168
61 97 159
61 97 162
61 97 158
61 97 161
61 97 160
61 97 163
61 97 159
62 99 168
62 99 169
63 99 171
62 98 163
62 98 165
62 98 167
61 97 165
62 98 164
62 98 165
61 97 168
61 98 165
62 98 173
62 98 164
61 98 166
61 97 166
61 97 163
62 98 169
62 98 169
62 98 173
62 99 170
61 98 166
62 98 164
61 97 172
62 99 169
61 98 167
61 98 166
62 98 168
62 98 166
62 98 166
62 98 169
62 98 168
61 98 165
62 98 170
61 98 169
62 98 169
61 98 168
62 98 166
62 98 167
62 98 168
62 99 169
62 98 171
62 98 170
62 98 166
61 98 171
62 99 170
62 98 168
62 98 164
62 98 165
62 99 170
62 98 170
62 98 166
61 98 166
61 98 168
62 99 168
62 98 168
61 97 164
62 98 166
63 99 168
62 98 168
62 99 174
62 98 170
62 98 168
62 98 164
62 98 166
62 98 165
61 97 164
61 98 165
62 99 168
62 98 160
61 97 164
63 99 173
61 98 165
62 98 163
61 98 173
62 98 164
61 98 167
63 99 171
62 98 166
62 98 164
62 98 162
62 98 164
61 98 164
62 98 164
61 98 166
62 99 173
63 99 170
62 99 171
62 98 167
62 99 170
62 98 164
61 98 160
62 97 157
63 100 174
62 98 167
62 98 162
62 98 167
63 100 173
62 98 164
63 99 170
63 99 172
63 99 171
63 99 168
62 99 168
62 98 167
61 98 168
62 98 162
63 99 169
62 98 164
62 98 163
62 98 165
62 98 161
62 98 165
61 97 164
62 98 164
62 98 162
62 99 167
62 98 160
62 98 162
62 98 160
62 98 161
61 98 167
62 99 167
62 98 161
62 98 160
62 98 164
62 98 160
62 98 161
62 98 159
63 99 168
62 98 162
62 98 159
62 99 163
62 98 169
61 97 157
62 97 157
61 97 156
63 99 166
61 96 157
62 98 157
62 98 160
62 98 157
62 98 163
61 96 153
61 97 155
62 97 158
61 97 162
62 98 165
61 96 153
60 94 146
61 96 154
62 97 157
62 97 159
60 95 147
61 96 152
61 96 153
62 96 151
60 94 150
60 95 145
60 93 143
60 93 141
57 90 138
78 85 61
72 73 13
84 84 18
76 77 21
75 77 22
76 79 22
85 85 23
75 75 22
85 87 23
91 91 22
82 84 31
84 84 22
86 86 23
95 95 38
98 98 20
91 90 31
93 94 32
103 102 40
96 96 42
94 97 36
101 102 34
115 113 33
119 116 50
111 110 44
108 108 44
121 120 43
112 110 37
132 129 53
112 111 41
118 116 51
115 114 38
117 114 44
126 124 51
131 128 46
131 127 50
134 130 57
140 136 57
132 128 57
139 134 55
127 124 42
136 134 45
133 129 53
127 124 42
133 131 42
140 136 51
146 141 63
137 133 49
145 139 56
145 140 55
145 140 56
143 138 53
138 133 50
146 142 55
144 140 56
144 139 51
143 137 60
144 138 53
152 145 56
152 147 54
146 142 58
149 143 61
158 151 62
146 143 56
149 144 53
147 142 55
148 143 56
144 139 58
153 147 63
148 142 54
146 141 54
149 143 59
147 142 57
147 143 59
148 142 62
148 142 56
152 145 57
148 142 53
151 144 62
139 134 57
148 142 52
154 148 63
154 149 59
145 139 47
145 140 53
138 133 48
142 138 45
149 142 52
145 139 57
147 142 51
150 145 54
143 138 51
137 131 48
136 130 48
142 136 51
139 133 48
140 134 49
142 136 47
143 138 49
141 136 44
126 123 42
134 128 48
137 132 48
136 130 42
138 133 52
134 128 44
134 129 42
125 121 32
130 125 42
127 122 34
120 116 25
137 135 30
139 141 42
138 143 30
145 151 34
142 151 22
146 157 19
152 163 11
159 175 0
167 185 11
169 185 0
161 178 0
172 191 0
168 185 0
168 186 0
170 188 0
167 187 0
166 185 0
168 187 0
167 186 0
169 188 0
169 188 0
171 192 0
168 186 0
167 186 0
169 189 0
167 187 0
170 193 51
174 197 36
178 200 67
174 197 57
171 194 57
176 198 67
175 198 57
171 194 51
168 190 44
179 201 67
172 195 67
174 196 44
174 196 57
176 199 67
172 195 44
177 199 84
178 200 80
179 201 88
175 197 62
173 195 67
173 194 92
175 197 67
178 200 92
176 199 84
180 202 102
178 200 105
184 205 125
181 202 108
180 201 99
179 199 105
181 203 111
182 202 117
181 203 111
178 199 84
177 199 95
182 203 108
181 202 114
179 201 92
185 206 125
183 203 122
178 200 99
179 200 102
181 202 108
182 202 111
180 201 105
185 206 125
182 203 114
179 200 99
182 203 111
186 206 133
180 201 111
184 205 108
178 199 95
181 202 114
182 203 117
175 198 95
174 196 105
176 197 99
180 201 111
178 199 111
170 192 76
170 193 44
173 196 72
176 198 84
176 198 92
168 190 72
172 194 67
176 198 88
175 197 72
170 192 67
172 194 57
172 195 36
170 192 62
170 192 72
169 192 51
173 195 51
171 194 51
169 191 44
172 195 51
166 189 57
166 188 47
165 188 44
163 186 44
162 185 51
103 129 128
68 102 144
75 106 148
69 102 148
63 98 149
71 105 154
73 106 157
67 101 150
63 98 156
62 97 159
61 97 162
62 98 162
61 97 154
61 97 160
61 97 155
61 98 168
61 97 154
61 97 159
62 98 161
61 97 163
61 97 159
61 97 163
62 98 161
61 98 164
61 98 161
61 97 168
62 98 170
62 99 172
62 98 163
62 98 169
62 97 165
62 98 168
62 98 165
62 98 163
61 97 164
62 98 168
61 97 163
62 98 168
62 98 166
61 97 165
61 97 162
61 97 168
62 98 164
62 98 166
62 98 168
62 98 165
61 98 167
62 98 167
61 97 163
62 98 170
61 98 166
62 99 172
62 98 169
61 98 165
62 99 175
62 98 167
61 97 166
62 99 174
62 98 171
61 98 169
62 98 174
62 98 165
62 98 171
62 98 166
63 99 173
62 99 174
62 98 168
62 99 171
62 99 167
61 98 166
63 100 174
62 98 168
61 98 168
62 98 164
62 98 166
62 98 172
61 97 164
61 98 171
62 98 167
61 97 162
61 98 166
62 98 166
62 98 168
61 97 153
62 99 169
62 99 167
62 98 169
62 99 171
61 98 166
62 99 170
62 99 170
62 99 170
62 98 167
62 98 169
61 98 161
61 98 167
62 99 166
62 98 172
62 98 165
62 98 165
62 99 172
62 98 167
62 99 168
62 98 165
61 98 166
61 97 155
63 99 172
62 99 164
62 98 161
63 100 174
62 99 170
61 97 161
63 99 165
61 97 161
62 98 165
62 99 166
61 97 161
62 99 166
63 99 164
62 98 165
62 98 163
62 99 167
62 98 159
62 98 167
61 98 166
62 98 165
63 99 165
61 98 160
62 98 167
61 98 161
61 97 162
62 98 163
61 98 167
61 98 163
62 98 165
62 98 164
61 97 159
61 98 159
61 98 162
63 99 166
61 98 164
63 99 164
62 99 165
61 97 155
62 99 164
61 97 158
61 97 151
62 98 160
61 97 164
62 99 164
63 99 166
61 96 157
63 99 163
61 97 157
63 98 162
62 98 163
61 97 159
61 97 154
61 97 162
60 96 152
62 97 155
61 97 155
62 97 157
60 94 152
61 96 152
61 96 148
60 96 146
61 95 149
60 96 153
61 97 156
61 96 152
60 95 145
60 95 146
61 96 155
59 92 140
60 94 146
59 92 143
59 93 139
58 90 128
59 93 145
73 84 75
90 88 18
83 83 16
83 84 21
64 65 15
77 78 25
74 76 14
84 83 33
80 83 21
92 93 23
95 92 29
81 84 23
84 86 28
79 80 22
85 86 19
98 98 33
93 95 40
100 98 32
96 97 20
101 101 37
111 110 36
110 109 43
91 91 32
114 111 31
108 106 38
118 116 45
108 107 41
124 122 50
119 117 46
127 123 52
123 120 49
126 124 41
117 116 39
129 126 45
128 124 56
138 134 50
128 126 38
127 125 45
131 128 54
126 123 53
130 126 57
134 130 52
134 131 49
135 133 52
142 137 51
140 136 46
133 128 50
136 133 41
141 137 56
147 142 57
145 141 51
145 140 54
149 143 64
149 143 57
152 146 64
152 146 58
151 145 63
147 141 54
148 142 56
151 144 67
151 146 49
155 149 66
155 149 58
155 150 49
148 143 52
153 147 60
146 141 56
147 141 53
152 146 57
152 146 58
157 151 64
152 146 57
154 148 59
146 141 52
149 143 61
152 146 59
141 136 49
149 143 60
147 143 47
151 145 52
146 141 51
150 145 59
143 136 53
145 139 60
141 135 51
139 134 39
144 139 44
145 138 51
138 134 47
147 142 56
144 139 52
143 137 53
143 138 45
147 141 54
142 136 54
142 136 51
142 136 53
143 137 52
137 131 51
141 135 45
144 138 52
136 130 47
137 131 44
139 133 52
136 131 47
130 123 39
121 117 42
120 116 36
128 124 36
128 126 44
140 139 41
135 138 30
143 147 32
143 149 30
152 164 22
154 166 19
157 172 0
158 172 0
166 183 0
164 181 0
169 189 0
166 183 0
167 185 0
169 188 0
166 185 0
166 185 0
168 187 0
171 190 0
168 189 0
166 186 0
164 183 0
169 188 0
171 189 0
169 189 0
169 189 0
171 190 0
170 193 0
176 199 67
172 195 36
172 195 36
175 198 62
173 196 62
178 200 80
173 195 62
172 194 67
176 199 62
169 192 62
179 201 92
177 199 72
177 199 80
176 199 88
175 197 84
174 196 88
178 200 99
181 202 99
175 197 95
178 200 102
180 201 105
182 203 122
178 200 99
177 199 95
182 203 117
185 206 125
183 204 122
178 200 99
179 201 102
185 206 135
183 204 122
185 205 120
181 203 111
185 206 133
185 206 122
188 208 133
182 204 105
181 202 120
183 204 120
181 202 120
182 204 117
182 203 130
180 201 114
183 203 120
182 203 114
181 203 117
182 203 114
177 198 105
184 204 130
177 199 99
180 202 108
186 207 133
185 205 135
179 201 120
177 199 88
182 203 120
178 201 99
180 201 108
173 195 88
177 199 108
177 198 105
177 199 105
174 195 84
175 198 84
176 197 102
176 198 88
176 199 80
171 194 76
172 195 67
172 195 57
173 195 62
173 196 57
174 196 67
176 197 76
167 190 62
169 192 62
168 192 36
168 191 57
166 189 36
161 184 62
162 185 76
163 186 57
155 178 57
117 142 120
74 107 150
73 105 150
66 101 155
70 103 145
67 101 145
64 99 153
63 99 155
66 101 156
63 99 155
64 99 163
64 99 161
61 97 157
60 96 151
62 98 163
62 98 164
62 98 162
62 98 169
60 97 158
60 97 159
61 97 159
62 99 164
62 98 163
61 98 160
61 97 162
62 99 173
61 97 159
61 97 158
62 98 169
61 98 163
63 99 171
62 98 165
61 98 163
63 99 171
61 98 165
62 98 162
61 98 162
61 97 160
61 98 166
62 98 167
60 97 163
60 97 167
61 96 158
62 99 167
61 98 170
61 98 162
62 99 168
62 98 167
63 99 171
61 98 169
62 98 168
61 97 161
61 97 163
61 97 165
61 97 165
62 98 166
62 98 163
61 97 162
61 97 164
62 98 171
62 98 168
62 98 169
63 99 172
62 99 171
61 98 168
62 99 169
62 99 170
61 97 161
61 98 165
62 98 169
63 99 170
62 99 170
61 97 165
62 98 167
61 97 164
62 98 167
62 99 174
61 98 163
61 98 163
63 99 172
61 98 166
62 98 164
62 99 171
62 98 169
62 99 176
61 98 169
62 98 171
62 98 167
61 98 167
62 99 168
62 98 166
62 98 168
62 98 166
62 98 164
62 98 160
62 98 170
62 98 165
62 98 166
62 99 171
62 97 156
62 99 170
62 98 168
62 99 169
63 99 165
62 98 165
61 98 164
62 98 164
63 99 171
61 98 166
63 99 172
62 98 163
62 99 167
62 98 160
62 98 163
62 99 169
62 99 167
62 99 168
62 98 165
63 99 171
62 98 162
62 98 169
61 98 163
62 98 172
62 98 165
61 97 159
62 98 163
63 99 171
62 98 160
62 98 163
62 98 165
62 99 167
62 98 163
63 100 175
62 98 162
63 99 163
62 99 165
62 99 164
63 99 169
61 98 167
63 99 168
62 98 159
61 97 160
62 98 165
63 99 167
62 99 169
62 99 164
63 99 167
62 98 162
62 98 163
62 97 155
63 98 163
61 97 159
61 97 159
62 97 152
63 99 162
61 97 154
61 97 156
62 98 160
62 98 157
61 96 155
61 96 154
61 97 151
60 95 148
62 97 157
62 97 156
61 97 152
60 95 151
62 97 152
61 96 159
61 96 156
60 94 144
61 97 155
59 94 142
61 96 152
61 97 156
60 95 154
58 92 136
60 93 145
57 88 132
60 93 142
64 77 83
74 75 23
72 71 9
76 75 12
75 75 13
69 71 17
64 66 17
83 83 23
86 85 17
77 80 20
79 80 17
83 85 31
91 91 34
90 91 27
87 87 23
96 96 18
107 106 32
99 99 28
104 103 39
111 109 34
90 91 42
110 108 39
103 102 34
114 113 30
106 106 37
114 113 39
104 104 33
111 109 41
114 114 38
114 112 39
118 115 44
131 126 51
125 122 39
126 124 51
121 118 42
124 120 45
124 120 41
143 139 53
144 139 55
123 121 50
138 134 49
137 133 41
143 138 57
133 129 55
134 131 40
146 142 59
137 133 47
143 138 54
137 134 52
132 129 45
140 135 50
147 142 55
148 142 57
144 139 57
149 143 56
142 137 52
152 147 60
145 141 53
141 137 54
146 139 57
139 134 49
149 144 61
153 146 63
144 140 51
140 135 44
152 145 61
149 144 53
146 139 48
147 140 61
149 144 55
155 149 60
149 144 48
145 140 52
148 142 63
152 147 53
149 143 52
143 137 53
148 141 60
141 136 51
146 140 49
149 142 59
140 135 57
144 140 49
141 136 53
142 137 44
144 139 54
145 139 54
146 141 51
144 139 51
146 140 48
149 143 60
141 135 48
151 145 51
142 135 48
147 140 54
145 140 57
136 131 49
130 125 47
140 135 45
134 128 42
133 128 41
124 119 25
131 125 42
132 126 45
133 129 41
130 126 44
131 127 41
132 131 32
137 132 44
132 133 28
138 141 34
131 136 30
153 161 32
150 158 32
150 162 22
159 172 22
161 177 16
168 185 0
169 187 0
165 183 0
165 184 0
166 184 0
169 189 0
165 184 0
166 186 0
169 188 0
169 186 0
166 183 0
166 183 0
167 188 0
168 188 0
168 187 0
169 189 0
169 189 0
165 186 0
171 190 0
174 195 67
175 198 51
175 197 72
174 197 44
176 198 67
172 194 80
176 198 76
175 197 57
177 199 76
178 199 92
176 199 57
176 199 72
179 201 88
177 200 99
174 196 88
178 200 95
176 198 105
183 205 111
180 202 108
182 203 114
184 204 120
182 203 114
179 200 95
183 204 111
185 205 120
183 204 111
178 199 117
188 208 140
185 206 133
187 207 122
186 207 128
181 203 114
184 205 130
184 206 130
184 205 122
186 206 135
183 204 137
183 205 111
187 207 130
183 204 137
182 203 135
188 208 147
186 206 144
183 204 122
180 202 108
184 205 130
190 210 151
182 203 120
184 204 125
184 204 130
186 207 133
183 204 125
181 202 135
185 206 135
182 203 122
180 202 105
180 201 111
184 204 125
181 202 120
181 202 114
181 200 125
182 202 117
184 205 128
179 201 95
172 195 95
180 202 105
181 202 108
182 203 105
175 196 95
169 192 44
172 194 80
172 196 57
170 192 62
168 191 57
172 195 72
174 197 62
174 197 51
171 194 67
170 193 57
163 186 60
164 187 84
164 187 74
162 185 74
158 181 86
88 117 136
85 114 145
77 108 140
77 108 151
66 100 135
66 100 143
71 104 145
71 105 153
65 100 159
65 99 153
66 101 155
66 100 156
61 97 154
62 98 158
61 97 156
61 97 163
62 98 161
61 97 160
63 99 165
60 96 157
61 98 162
60 96 158
62 98 163
62 98 164
61 97 158
61 98 171
61 97 158
62 98 166
61 97 165
62 98 167
62 98 167
61 98 166
62 98 164
61 97 160
61 97 162
62 98 160
61 97 162
62 98 165
62 98 169
61 98 167
61 97 169
62 98 168
61 97 167
60 96 167
61 97 161
61 98 169
61 97 165
61 98 167
62 98 168
61 97 161
62 98 169
62 98 168
61 98 167
61 98 169
62 98 167
62 98 166
62 98 168
62 99 168
61 97 164
62 99 173
63 99 170
61 97 163
61 98 165
62 98 168
62 98 169
62 98 172
61 98 166
62 98 166
62 98 171
62 99 170
62 98 165
62 98 167
62 99 170
61 98 165
62 98 169
63 99 172
62 98 168
62 99 170
62 98 169
62 99 175
63 99 170
62 98 172
63 100 173
63 100 169
61 98 164
62 98 163
62 99 173
62 99 168
62 98 167
62 99 170
62 99 168
62 98 167
63 99 168
62 98 162
62 98 171
61 98 168
63 99 165
61 98 163
62 98 169
62 99 169
62 98 167
63 99 170
62 98 169
62 99 170
62 99 167
62 98 169
62 98 164
62 98 163
62 98 168
62 98 166
62 98 161
62 99 169
62 99 167
62 98 161
62 98 168
61 98 163
62 99 166
62 98 161
63 99 172
62 98 164
62 98 162
62 98 166
61 97 161
61 98 162
63 100 174
62 98 161
62 98 163
62 98 163
62 98 160
61 97 155
62 98 158
62 98 166
62 98 161
61 97 163
61 97 161
61 97 156
62 99 169
62 98 164
62 98 159
63 99 169
62 99 170
61 97 155
62 99 167
63 99 167
62 98 163
62 98 161
62 97 159
62 98 166
61 98 165
62 98 163
62 98 167
62 98 163
62 98 159
63 99 162
61 97 152
61 97 158
61 97 157
62 97 155
62 98 161
61 97 158
61 97 156
61 96 151
61 97 155
61 96 147
61 96 149
61 96 148
61 96 154
59 93 134
60 95 141
60 95 149
62 97 154
61 95 152
61 97 157
62 97 156
60 95 145
61 95 146
61 95 149
58 91 135
57 90 131
58 91 133
65 76 68
77 74 22
80 79 16
70 70 21
72 74 14
80 79 24
68 69 18
81 81 14
77 77 21
85 86 21
82 84 19
88 87 17
88 89 31
86 87 23
77 79 29
102 101 34
94 95 28
96 95 27
96 98 33
99 98 30
109 108 38
113 111 31
99 99 29
105 106 38
116 113 42
112 112 43
120 118 48
118 115 36
114 112 40
126 122 45
117 114 43
120 118 42
126 123 45
116 114 40
126 123 48
126 124 42
127 125 39
126 123 44
130 125 42
131 128 42
137 132 62
139 135 55
132 128 48
145 141 55
143 138 56
137 134 50
137 132 50
140 135 54
128 125 45
146 139 60
145 139 57
131 128 42
145 139 54
144 140 57
147 142 52
141 137 53
138 133 54
144 139 57
146 140 57
152 147 56
147 142 48
149 143 48
142 137 49
151 146 54
142 137 53
144 139 52
146 141 44
153 148 53
148 142 49
146 140 53
146 141 47
143 139 48
150 144 53
142 137 54
144 138 58
145 140 48
147 141 57
153 147 54
146 138 60
146 141 53
148 143 52
144 137 57
141 136 45
138 133 47
147 142 54
150 143 61
155 149 56
141 136 51
145 140 52
144 138 42
147 141 45
141 135 45
146 140 48
147 142 48
144 138 48
136 130 51
146 141 49
137 130 47
140 136 42
131 126 42
128 121 42
132 127 45
130 124 39
140 135 44
130 125 32
125 120 37
129 125 48
132 129 37
138 136 41
140 144 32
145 149 37
146 154 30
148 156 25
151 163 22
161 174 22
162 178 11
161 178 0
165 183 0
167 183 0
163 181 0
167 186 0
167 186 0
164 182 0
170 191 0
167 186 0
169 189 0
162 179 0
169 187 0
169 189 0
167 185 0
167 186 0
172 192 0
169 188 0
168 187 0
167 187 0
170 189 0
172 195 51
175 197 72
176 198 76
174 196 57
175 197 80
177 199 84
183 204 111
176 197 72
177 198 67
183 204 111
178 199 76
175 198 72
180 202 108
180 202 111
184 205 122
186 206 120
181 202 114
179 201 99
184 205 125
184 204 125
185 206 117
183 204 122
189 209 144
187 208 128
182 203 122
188 209 142
184 206 114
180 202 102
186 207 144
186 206 142
191 211 153
184 204 153
191 211 157
183 204 130
190 210 155
185 206 133
182 202 120
186 206 144
182 203 135
191 211 155
188 208 149
186 207 130
187 208 147
193 213 159
194 213 165
184 204 133
183 203 130
191 210 157
186 207 142
187 207 144
186 206 133
184 205 128
187 208 142
181 202 130
185 205 133
188 208 149
182 202 125
182 204 114
187 207 133
186 207 137
181 202 117
182 203 114
179 200 117
180 201 114
179 200 99
175 198 67
180 201 95
181 203 102
176 197 88
178 199 105
179 200 105
177 198 95
176 197 72
170 192 72
170 192 72
169 191 57
171 193 57
169 191 44
166 189 57
170 192 74
160 183 95
151 174 78
155 178 102
151 174 97
99 126 131
81 112 151
72 105 144
75 106 142
71 104 156
68 102 158
68 102 157
67 101 155
65 100 161
62 97 144
67 100 142
68 102 157
62 98 154
61 98 163
61 97 156
61 97 158
62 98 163
61 97 152
62 98 162
61 97 164
60 95 152
62 98 160
62 99 165
61 97 159
63 99 167
62 98 164
61 97 161
62 98 162
62 98 168
60 96 158
62 99 167
61 98 163
62 98 164
61 98 165
61 97 164
62 98 167
61 98 163
63 99 170
62 99 171
61 97 163
60 96 162
63 99 172
61 98 163
61 98 168
61 98 167
62 98 171
61 98 164
62 98 168
62 99 167
61 98 166
62 98 167
62 99 170
61 98 168
61 98 160
62 98 164
62 99 167
62 98 166
62 98 168
62 98 168
61 97 160
62 98 165
62 99 171
62 98 168
61 97 160
61 97 162
62 98 163
61 97 161
62 98 166
61 98 168
61 97 163
62 98 167
62 98 169
61 98 167
62 99 170
62 98 165
62 98 167
62 99 169
62 99 169
62 98 169
62 99 168
61 97 162
62 98 165
63 99 170
63 99 165
62 99 169
61 97 161
63 99 167
62 98 168
62 98 164
63 99 175
62 98 166
62 98 164
62 99 176
62 98 166
61 97 163
62 99 170
61 98 167
62 99 166
62 98 156
61 97 162
62 98 167
62 98 157
62 99 171
61 98 161
62 99 171
62 99 171
62 98 167
62 99 169
61 97 158
61 98 167
62 98 168
62 98 164
62 98 167
61 98 167
63 99 171
62 98 159
62 98 157
63 99 166
62 99 164
62 99 169
62 98 169
62 98 164
62 98 164
62 98 164
63 99 169
62 98 162
62 98 164
63 99 165
62 98 161
62 98 168
61 97 159
62 98 164
61 98 162
63 99 167
63 99 163
62 98 163
62 98 163
62 99 166
62 98 159
61 97 149
63 99 167
62 98 160
63 99 168
63 99 169
62 98 158
61 97 156
60 96 151
62 98 162
63 99 161
63 99 167
61 97 157
63 99 162
62 98 164
61 97 157
62 98 160
62 98 161
61 97 156
61 97 160
62 98 159
62 98 161
62 97 162
61 96 150
61 97 154
61 97 153
62 97 151
60 96 152
59 94 142
62 97 156
62 97 157
60 96 150
61 96 152
61 96 145
60 95 145
61 96 152
61 95 147
60 94 145
61 95 146
60 94 150
60 93 140
59 91 136
76 86 87
77 75 0
77 77 13
82 81 10
77 78 20
93 91 28
93 93 14
80 82 24
82 83 21
90 90 26
89 87 23
84 86 20
95 94 25
95 95 32
83 84 27
99 99 29
100 99 31
91 91 29
94 93 32
97 97 39
103 103 28
107 105 27
103 102 32
114 112 34
102 102 36
116 114 37
99 99 41
115 113 35
123 120 36
108 107 35
126 121 49
122 119 43
114 112 39
124 121 47
121 118 44
126 122 51
127 124 46
131 128 48
136 131 56
124 121 41
131 127 52
128 125 42
124 122 39
139 134 55
138 133 47
132 128 45
139 134 52
143 138 46
146 140 57
142 137 53
138 135 37
142 138 47
136 131 47
135 131 47
149 144 60
151 144 57
147 142 57
140 136 54
139 134 45
138 134 45
143 139 45
146 140 53
145 140 51
139 135 47
151 145 58
147 142 53
146 141 52
146 140 49
150 145 51
144 139 50
146 141 51
149 143 53
147 141 53
144 139 47
147 140 58
145 141 48
150 144 56
156 150 57
150 145 49
144 138 51
144 139 47
147 140 54
143 138 53
144 139 45
142 136 54
141 135 47
136 131 44
146 141 49
136 130 34
135 130 39
141 135 47
145 140 37
136 131 39
148 143 54
137 133 45
135 130 39
129 124 34
133 128 44
141 136 49
133 127 48
136 130 44
128 123 34
134 128 49
138 132 52
125 120 36
134 130 41
126 122 32
136 133 39
135 137 28
136 140 32
132 139 28
147 156 28
152 164 19
156 168 19
157 170 16
153 170 0
163 179 11
163 182 0
163 178 0
167 183 0
163 182 0
164 181 0
166 182 0
166 183 0
165 184 0
165 184 0
168 187 0
169 189 0
168 187 0
168 187 0
163 181 0
169 188 0
169 187 0
169 187 0
168 188 0
167 187 0
173 196 62
175 198 72
178 199 84
179 200 92
180 201 99
178 200 102
177 199 102
181 202 105
180 201 111
181 203 105
180 202 108
181 202 120
185 206 128
183 205 117
180 201 108
184 205 125
182 203 108
183 204 122
183 204 117
181 203 117
180 202 108
189 209 147
183 205 130
183 204 133
186 207 130
189 209 135
185 205 147
190 209 163
191 212 159
190 209 155
189 209 151
187 208 142
185 206 144
183 205 128
188 209 153
190 210 149
191 211 155
189 209 144
184 204 153
185 206 142
188 208 159
188 209 135
191 211 159
190 210 153
184 205 135
188 208 161
184 206 125
187 207 153
189 209 147
190 209 157
190 210 155
182 203 142
189 209 151
184 203 147
190 209 153
189 208 149
190 210 161
185 206 133
185 206 133
186 206 133
184 205 142
184 205 137
186 206 130
183 203 128
178 199 114
173 196 80
179 199 117
179 200 102
178 200 102
177 198 111
178 198 108
173 195 95
178 200 88
169 192 72
179 200 108
174 196 67
173 196 62
172 195 76
170 194 57
155 178 110
152 175 88
144 167 82
150 174 80
156 179 115
105 133 124
83 112 142
85 115 154
86 115 147
78 109 149
71 105 156
74 107 150
72 105 148
67 101 148
67 101 156
69 103 149
65 99 154
66 101 159
67 101 155
61 97 157
61 98 160
63 98 159
60 96 150
62 98 162
61 97 158
62 99 169
61 98 165
61 97 154
61 98 166
61 98 163
62 98 167
61 97 161
61 96 153
61 97 166
62 98 162
62 98 165
62 99 165
60 96 161
61 98 169
62 98 164
62 98 164
61 97 167
60 96 156
62 98 166
60 97 168
61 97 164
61 98 165
62 98 169
63 99 171
60 96 164
62 98 164
61 98 165
61 97 164
62 98 168
61 97 161
62 98 165
62 98 172
60 96 157
61 98 170
61 97 160
61 98 162
62 98 166
61 97 162
60 97 162
62 98 162
62 98 165
61 98 168
62 99 172
62 98 168
62 98 167
61 97 161
62 99 173
63 99 173
62 98 165
61 98 167
61 97 166
61 98 165
62 98 167
62 98 166
62 98 161
61 97 161
61 97 161
62 99 164
62 98 160
62 99 171
62 98 163
61 98 165
62 99 166
61 97 163
61 97 161
62 98 167
61 97 166
62 99 174
62 98 167
62 98 170
62 98 167
63 99 171
62 98 167
61 98 166
62 98 161
62 98 169
62 98 169
62 99 170
62 98 166
62 98 159
62 98 166
62 98 165
62 98 160
61 97 153
62 98 167
61 98 160
62 97 158
62 98 165
62 98 161
62 99 172
63 99 165
61 97 158
61 98 165
61 97 160
62 99 169
62 98 169
63 99 168
61 97 156
62 98 165
61 97 156
62 98 164
62 98 165
62 98 163
62 98 159
62 98 164
62 98 166
63 99 167
62 98 162
62 98 157
62 99 164
62 98 156
61 98 167
62 97 156
62 98 158
63 99 166
62 98 159
62 98 161
62 98 169
63 99 167
62 98 163
63 99 163
62 97 159
62 98 161
60 96 156
61 98 162
61 98 162
61 97 158
61 97 158
62 98 160
62 98 163
62 97 155
62 98 161
61 97 160
61 96 155
62 98 159
61 97 157
61 97 157
62 98 165
61 97 155
62 98 158
62 98 168
63 99 165
61 96 152
60 95 150
61 96 150
61 96 151
62 97 154
61 96 142
61 97 154
60 95 152
61 97 154
60 95 154
61 96 152
59 93 149
60 95 142
60 94 146
59 92 134
61 95 147
59 92 137
58 91 130
73 84 76
72 71 13
73 75 15
74 75 13
92 90 11
75 75 10
83 82 15
90 89 19
85 83 15
83 82 20
70 71 13
93 92 20
78 79 23
88 89 20
96 96 33
100 100 20
100 98 34
102 100 29
95 96 33
105 104 21
114 112 31
118 116 34
97 98 39
115 112 37
110 107 34
112 110 29
101 100 28
108 107 39
113 111 37
116 113 39
119 117 40
117 115 35
119 117 39
120 117 30
122 120 36
126 123 41
131 128 46
129 126 47
136 133 48
129 127 46
133 129 48
127 125 50
120 117 38
133 128 42
127 123 47
133 129 52
132 128 40
137 132 50
137 131 50
137 132 48
147 141 46
138 133 53
136 133 46
148 142 53
133 128 41
142 138 47
131 127 42
137 133 47
145 140 56
146 140 49
143 137 49
143 138 51
149 142 62
146 141 51
147 142 54
143 136 54
140 135 44
145 140 55
145 139 49
135 130 45
137 132 49
145 139 51
148 143 49
144 138 48
144 139 45
147 141 51
147 141 56
148 142 59
141 135 49
135 131 36
144 137 42
139 134 45
137 131 39
136 130 51
135 130 51
149 142 52
134 129 42
140 134 51
138 132 47
139 133 52
133 130 39
134 128 48
138 134 45
129 123 44
139 133 49
140 135 48
140 133 52
138 132 42
129 125 32
128 122 37
128 124 37
131 127 39
127 122 39
135 130 42
130 126 36
140 135 41
133 132 37
150 153 37
142 144 34
143 148 34
150 157 34
145 156 16
159 173 16
157 170 16
161 176 0
168 184 0
167 185 0
170 189 0
167 187 0
165 180 0
168 186 0
168 186 0
167 185 0
166 186 0
169 188 0
167 185 0
165 183 0
168 187 0
166 183 0
165 184 0
166 184 0
169 190 0
170 189 0
168 186 0
168 188 0
166 185 0
177 200 67
181 203 102
178 199 99
180 202 102
178 200 92
179 201 105
178 200 99
182 202 122
185 205 120
177 199 88
182 203 111
181 204 102
184 205 125
184 205 120
188 208 135
186 207 140
188 208 140
190 210 144
180 200 133
186 207 130
190 210 159
184 204 142
184 204 130
189 209 147
189 209 155
183 204 137
190 210 149
190 211 161
193 212 165
188 208 147
192 211 157
190 210 159
191 211 155
185 206 137
192 212 165
194 213 163
189 209 144
191 210 161
191 211 161
196 215 175
190 210 151
194 214 175
190 210 157
200 218 191
196 215 173
190 210 153
191 212 163
194 213 173
193 213 177
186 206 142
189 209 153
189 209 151
191 211 159
191 210 159
190 210 165
191 210 159
197 216 173
190 210 161
188 208 153
188 208 147
184 205 135
187 207 149
187 208 142
183 204 117
186 206 137
186 207 133
188 208 130
185 205 137
186 206 122
181 201 125
179 201 111
184 205 122
179 200 105
180 202 102
173 195 92
181 201 122
174 196 95
174 196 88
167 190 72
153 176 105
155 177 110
146 169 100
143 166 112
144 167 100
112 137 148
80 110 141
87 117 147
84 113 146
78 110 153
75 108 154
75 107 137
68 101 141
63 98 158
70 103 142
65 100 157
75 108 155
67 100 155
63 98 158
65 100 158
64 99 160
63 98 160
61 97 158
62 98 163
61 97 162
60 96 151
60 96 150
61 97 157
61 97 155
61 97 158
60 96 155
60 96 161
62 98 163
61 98 168
61 97 162
61 97 158
61 97 163
61 97 166
61 97 165
61 97 162
62 98 167
62 99 168
61 98 170
61 97 161
61 97 166
61 97 162
61 97 160
61 98 170
62 99 167
62 99 166
61 98 161
61 97 160
62 99 163
62 98 167
62 98 169
61 98 169
62 98 168
61 98 165
61 98 164
61 97 166
62 98 167
62 99 168
61 98 165
61 98 166
61 98 169
62 99 170
63 99 170
63 99 167
61 98 163
61 97 168
63 99 168
61 98 167
62 98 168
62 98 164
61 98 165
62 98 165
62 99 167
62 98 159
62 98 168
61 97 163
62 98 165
61 98 164
62 98 164
61 97 165
61 98 167
62 98 166
62 98 165
63 99 171
62 99 172
61 97 161
62 98 168
62 98 168
62 98 168
61 98 168
62 98 169
62 99 171
62 98 167
63 99 171
63 99 166
62 98 161
62 98 164
62 98 165
62 98 165
62 98 167
62 98 167
62 98 167
63 100 174
63 99 170
62 98 158
61 98 165
62 98 164
61 98 169
63 99 162
62 98 164
62 98 160
62 98 166
61 97 163
62 98 167
61 97 162
62 99 168
62 98 170
61 97 158
62 99 164
62 98 161
62 98 164
62 98 161
62 98 167
61 97 160
62 98 166
61 97 162
61 97 156
63 99 166
61 98 162
63 99 164
62 98 162
62 98 158
61 97 164
62 98 164
62 98 159
62 98 161
63 99 167
61 97 155
62 99 170
62 99 166
63 99 171
61 97 156
62 98 166
62 98 159
62 98 160
61 97 160
63 99 163
62 98 161
62 98 158
62 98 159
62 98 164
62 98 158
61 96 151
61 97 155
61 96 150
62 98 160
63 99 164
61 97 158
61 97 159
61 97 155
61 97 154
62 98 160
62 97 156
62 97 153
62 99 165
62 97 155
62 97 157
60 95 151
60 94 139
62 98 158
62 97 155
61 96 148
60 95 144
61 96 147
60 94 142
60 95 138
61 97 154
60 94 144
59 94 144
62 96 151
59 92 136
71 78 61
72 71 8
86 84 12
80 79 10
95 91 10
83 81 13
82 82 15
78 79 23
87 86 15
95 93 17
89 89 20
94 93 16
96 97 29
93 91 22
92 90 19
79 80 24
93 93 26
93 94 33
98 96 26
104 103 26
108 105 29
98 98 28
99 98 35
107 105 29
119 115 33
114 111 30
114 111 33
113 110 34
121 117 34
114 111 26
131 127 49
113 111 33
113 112 31
117 114 37
132 129 45
127 124 48
123 119 43
125 123 34
128 125 35
135 131 48
133 130 48
137 131 56
130 126 46
134 130 38
133 128 47
135 131 53
134 129 51
140 135 47
134 131 36
136 133 45
137 132 49
140 136 45
137 133 44
141 137 48
150 144 59
138 133 44
138 134 40
141 136 57
142 136 52
140 134 49
138 132 49
141 136 42
142 136 51
150 144 57
144 139 47
145 138 53
149 144 51
140 135 39
145 141 51
139 135 44
147 143 48
141 137 44
148 142 48
146 141 44
141 136 54
147 141 48
145 140 52
142 135 45
138 133 47
137 132 44
140 134 45
144 139 45
139 133 51
136 132 36
146 139 56
141 135 42
147 140 49
137 133 37
134 128 39
137 133 51
136 130 49
137 132 44
144 137 51
142 137 49
135 130 42
140 135 42
134 129 41
132 126 42
133 128 39
129 123 41
126 122 39
116 113 30
133 128 47
131 128 32
125 125 25
133 134 30
139 139 37
139 142 37
138 138 42
137 144 16
141 148 22
151 162 25
156 170 22
160 176 11
165 183 11
164 181 0
167 185 0
162 180 0
167 185 0
169 187 0
164 181 0
168 186 0
166 183 0
168 187 0
165 184 0
166 183 0
166 183 0
165 183 0
167 185 0
170 189 0
167 186 0
166 186 0
167 185 0
167 186 0
169 188 0
170 190 0
178 201 95
179 202 76
179 201 95
177 199 84
182 203 114
180 202 95
180 201 102
183 204 122
182 203 117
184 205 130
185 205 128
183 204 120
181 202 108
184 205 130
189 209 153
187 208 133
185 205 125
188 208 144
187 207 142
190 210 155
190 210 147
187 208 142
191 210 159
188 209 147
190 210 157
192 212 161
188 208 153
189 209 159
198 217 177
190 210 165
197 216 181
195 214 173
197 216 184
191 212 161
197 216 179
193 213 167
192 211 161
193 212 165
197 216 189
197 216 182
196 216 177
198 217 184
191 210 163
191 211 151
193 212 175
195 215 177
195 214 171
191 210 169
194 214 173
195 214 179
188 207 157
189 209 153
194 213 175
198 217 189
194 213 171
193 212 169
185 206 140
189 209 155
189 209 157
194 213 177
188 208 149
190 209 151
183 203 147
188 209 144
183 203 128
186 207 140
185 205 142
185 206 137
184 204 130
185 206 135
182 203 122
185 205 135
183 204 114
181 201 122
178 200 99
177 198 99
175 197 99
181 203 108
164 186 128
155 177 103
149 171 107
142 165 126
140 164 103
134 159 120
95 123 141
97 124 152
91 119 147
91 120 150
70 103 157
76 108 143
78 109 158
79 110 147
65 100 158
63 99 159
65 99 150
67 101 153
65 99 151
65 100 161
65 100 165
63 98 154
66 100 154
67 101 148
63 99 165
61 97 151
61 97 158
61 97 161
62 98 168
62 98 167
60 96 156
62 98 163
62 98 166
61 97 161
61 97 163
62 99 170
61 97 158
61 97 165
61 98 165
61 98 163
61 97 161
62 98 167
62 98 165
62 98 167
61 98 162
62 98 172
61 97 157
61 98 166
60 96 161
61 98 164
61 98 165
62 99 169
62 98 162
62 98 165
63 99 170
62 98 167
62 99 171
60 96 162
62 98 166
62 98 166
61 98 166
62 98 167
62 99 169
62 98 168
62 98 165
62 98 165
62 98 165
61 97 166
61 98 171
62 98 171
61 97 160
63 99 169
62 98 166
61 97 157
62 98 165
62 98 164
61 98 166
62 98 163
62 99 168
62 98 167
62 98 158
62 98 166
62 98 167
63 99 165
61 98 167
62 98 167
62 98 168
62 98 165
63 99 171
63 99 169
62 98 164
61 98 165
62 98 167
62 99 171
62 99 173
62 99 172
62 98 166
61 98 161
61 98 167
61 97 160
63 99 171
62 98 166
61 97 159
62 99 168
62 99 164
62 98 165
61 98 162
61 97 157
63 99 172
62 98 164
62 98 164
62 99 164
63 99 169
63 99 162
62 99 166
63 99 166
61 98 165
62 98 162
62 98 164
62 98 165
61 97 157
62 98 162
62 98 168
61 97 165
62 98 166
61 97 158
61 97 159
62 98 160
63 99 170
62 98 161
62 98 161
62 98 166
63 99 163
61 97 156
61 97 161
61 98 165
62 98 167
62 98 163
62 98 166
62 98 156
62 98 163
63 98 163
61 97 158
62 98 164
62 98 161
61 97 156
62 98 162
62 99 166
62 98 159
63 99 162
61 97 159
62 98 162
62 98 160
62 98 169
61 97 158
62 97 159
62 98 164
61 97 149
63 99 164
62 98 161
62 98 154
62 97 153
62 98 160
61 96 150
61 97 148
61 97 156
61 96 151
62 98 163
61 96 150
61 97 159
61 96 151
61 96 155
60 95 149
62 96 156
60 95 143
60 94 148
60 95 144
61 95 143
61 95 142
60 94 144
60 94 145
61 95 150
60 94 144
59 93 140
60 94 140
59 92 133
78 86 79
86 83 22
91 87 0
80 79 8
66 66 10
85 84 20
81 80 15
89 87 9
89 88 20
85 83 24
76 76 7
79 79 16
84 84 20
92 92 17
84 85 27
88 88 24
90 91 26
101 99 21
106 104 31
88 89 17
98 97 18
107 103 30
112 107 26
107 106 29
101 100 30
113 110 29
119 116 38
108 106 29
118 115 41
118 116 33
122 117 45
123 120 48
105 104 34
125 120 38
128 122 42
122 119 41
123 121 38
130 126 44
116 114 38
131 126 39
119 117 34
129 126 47
138 134 46
137 132 46
135 130 41
131 126 42
131 128 49
135 131 42
135 130 42
133 130 39
135 131 41
134 130 45
139 135 40
143 137 53
134 130 37
144 140 49
144 140 50
138 134 42
135 130 41
141 137 48
151 145 55
137 133 45
144 139 47
146 140 55
138 134 41
140 136 37
143 137 48
143 139 41
145 140 45
143 137 45
142 137 52
133 127 37
138 135 39
140 135 42
138 133 47
144 140 45
140 135 44
135 130 42
133 130 37
136 131 45
147 142 45
137 131 42
140 134 47
140 134 42
136 130 44
134 128 41
144 138 51
141 134 42
134 130 36
137 132 44
134 128 39
127 122 41
140 134 39
139 134 36
137 130 41
131 126 37
135 130 41
127 122 36
135 130 41
138 132 49
128 123 28
136 131 37
138 135 39
122 120 32
131 132 25
133 132 36
145 146 41
138 142 32
147 151 34
151 158 28
154 167 11
154 166 0
165 180 16
162 176 0
162 179 0
166 183 0
165 182 0
164 182 0
166 185 0
165 182 0
164 179 0
161 178 0
168 186 0
163 180 0
169 186 0
167 183 0
162 179 0
170 189 0
164 179 0
166 186 0
167 186 0
167 186 0
164 184 0
167 186 0
167 187 0
162 182 0
183 203 111
178 200 102
179 201 99
183 204 117
183 204 111
184 205 133
188 208 130
185 205 128
189 209 144
184 204 135
186 207 147
186 206 128
193 212 161
188 208 147
189 209 149
190 211 161
186 206 147
194 213 169
194 214 177
189 209 147
188 208 151
199 218 188
190 210 169
195 214 177
197 216 179
190 210 163
193 213 163
193 212 171
198 217 182
194 214 171
192 212 161
195 214 175
191 211 171
191 211 167
196 216 184
198 217 186
194 214 177
203 221 204
196 215 181
198 217 188
196 215 184
198 217 191
194 213 181
197 216 182
196 215 177
193 213 173
193 212 165
196 215 181
193 214 167
195 215 169
198 216 188
194 213 175
193 212 165
194 213 173
194 214 179
193 212 171
194 213 171
187 208 151
181 202 130
197 215 184
189 209 155
189 209 155
191 211 159
191 210 157
194 213 169
185 206 144
189 209 147
191 211 157
185 206 144
188 208 151
180 200 122
183 204 125
186 206 140
181 201 120
184 204 135
177 198 99
182 201 130
177 198 99
160 181 133
147 169 142
141 163 130
139 162 126
140 164 121
141 164 110
113 139 133
82 112 148
89 118 152
64 98 144
87 116 147
79 110 154
75 107 140
79 110 150
74 106 157
72 105 158
66 100 151
68 103 157
68 102 157
67 101 149
61 97 159
63 97 158
65 99 149
63 98 155
60 95 156
63 98 159
61 98 162
61 96 148
62 98 165
61 97 156
62 98 161
61 97 158
61 97 162
61 97 160
62 98 159
62 98 165
61 97 158
61 97 162
62 98 170
62 98 166
62 98 167
62 98 170
61 97 162
61 97 161
62 98 162
62 98 165
61 97 160
61 97 164
61 97 164
61 97 162
62 98 164
61 98 170
61 97 166
61 98 168
62 98 169
62 99 168
62 98 164
63 99 166
62 98 166
62 98 169
61 98 164
62 98 164
62 98 164
62 98 169
61 97 161
62 98 165
62 99 168
63 99 173
62 98 163
62 97 166
62 97 164
61 97 163
62 98 164
63 99 168
62 98 161
62 98 165
62 99 169
62 98 160
62 98 168
62 98 163
62 99 168
62 98 165
62 98 164
61 98 164
62 99 168
62 99 170
61 97 161
62 98 168
62 99 166
62 98 164
61 98 165
62 98 168
62 98 161
62 98 165
62 98 164
62 98 162
62 98 164
62 98 158
63 99 167
62 98 168
61 97 157
61 98 165
61 98 163
62 98 164
62 99 165
62 98 160
63 99 164
62 98 163
63 99 171
62 98 169
62 98 165
61 97 162
62 99 164
62 98 170
62 99 167
61 97 156
62 99 170
62 99 168
62 98 166
62 97 158
62 98 170
62 98 161
62 98 161
62 99 167
63 99 167
61 97 159
61 97 157
61 97 153
62 98 161
62 98 165
62 97 156
63 99 168
61 98 163
63 99 168
61 96 153
62 98 162
61 97 152
61 97 158
62 98 159
61 97 161
61 97 150
62 98 160
61 97 157
61 98 161
62 98 157
61 97 160
62 97 161
61 97 156
62 98 163
61 97 158
62 98 160
61 96 159
60 96 152
62 97 156
62 97 156
61 97 155
60 96 151
62 97 154
62 97 158
62 98 159
62 98 157
61 96 149
62 98 157
60 96 153
60 96 152
62 98 160
62 98 158
62 97 157
62 98 154
62 97 153
63 98 157
61 96 154
61 97 156
60 95 147
60 95 147
61 96 151
61 96 154
62 97 149
61 96 148
61 96 148
61 95 152
59 93 137
60 95 149
58 91 131
58 91 133
59 91 135
71 78 55
72 71 1
86 85 18
85 82 8
79 79 12
86 85 17
82 80 8
84 85 8
97 96 18
82 83 15
76 77 20
90 88 18
97 94 20
93 92 14
97 97 15
73 74 14
95 95 25
91 90 16
98 97 27
98 96 30
101 100 32
104 102 29
103 103 33
97 95 34
111 108 35
109 106 36
113 110 29
108 105 30
123 121 30
119 116 29
117 116 29
125 122 23
117 114 36
123 120 31
125 121 37
127 124 41
127 122 41
121 118 35
133 128 50
139 133 49
126 123 44
124 120 38
139 136 45
137 132 42
128 124 41
133 129 38
135 132 33
135 130 48
142 137 50
132 127 44
144 139 46
140 135 48
141 135 45
130 126 30
139 133 47
144 138 44
133 130 39
140 136 42
137 131 47
137 133 44
132 129 37
150 144 53
136 132 40
134 130 37
131 127 32
136 132 42
142 137 49
143 137 51
145 140 42
142 136 36
136 131 45
144 139 45
143 137 41
142 137 44
146 141 47
143 138 48
139 134 37
152 145 49
141 137 42
140 134 51
138 133 41
144 138 49
138 134 37
146 141 45
132 128 37
142 137 37
133 128 42
142 137 39
133 128 47
129 123 39
129 124 41
129 124 41
127 121 32
143 136 44
126 120 28
128 122 45
127 121 37
131 126 42
128 123 41
123 118 32
132 128 41
120 116 32
129 127 34
134 134 32
140 139 32
135 137 25
150 154 36
134 140 22
142 152 11
145 155 22
153 165 0
160 175 16
160 175 19
165 183 0
162 175 0
161 178 0
168 187 0
162 179 0
165 182 0
162 179 0
164 182 0
164 182 0
166 184 0
164 182 0
168 186 0
168 186 0
162 180 0
164 182 0
160 178 0
169 188 0
168 187 0
167 186 0
169 187 0
169 189 0
171 189 0
168 185 0
176 198 80
185 206 125
184 204 108
178 201 99
180 202 102
183 204 120
188 209 137
188 207 147
187 207 135
186 206 140
188 208 149
189 209 151
190 209 151
190 210 155
193 213 165
190 210 155
196 215 182
189 209 165
192 211 175
197 216 179
197 216 179
192 212 165
196 214 184
193 212 173
198 218 189
195 215 181
195 214 179
196 215 177
189 210 165
196 215 175
198 217 181
200 218 191
194 213 182
194 214 171
201 220 199
194 214 182
196 216 181
196 215 186
200 219 198
195 214 179
198 217 186
200 219 201
194 214 177
198 217 188
198 217 191
200 219 198
198 217 194
195 214 173
200 219 203
198 217 186
196 214 186
195 214 179
199 218 191
201 219 199
192 212 167
193 213 169
197 215 188
198 216 188
199 217 186
192 212 171
191 211 159
191 209 167
193 212 159
190 210 147
191 210 161
190 209 163
188 207 144
187 207 149
188 207 153
188 209 144
187 207 157
193 211 163
189 208 151
185 206 133
182 202 122
182 202 125
182 202 130
176 196 120
167 188 140
152 173 145
140 163 143
120 143 148
127 151 126
118 143 122
121 145 144
92 120 157
96 124 162
83 113 143
82 112 156
81 112 166
74 107 148
78 109 153
76 108 159
73 106 158
70 103 155
68 101 153
66 100 151
76 107 148
65 98 145
65 100 158
62 98 164
64 100 165
62 97 156
62 98 165
64 99 163
61 96 156
62 97 155
62 98 164
61 96 158
60 96 154
62 98 166
61 97 162
60 96 150
61 97 164
60 96 154
61 98 169
62 98 167
61 98 168
63 99 169
61 97 164
61 98 166
61 96 165
61 97 164
62 98 167
61 97 163
61 97 162
62 97 158
62 98 167
62 98 162
62 99 171
62 98 168
61 97 164
62 98 167
62 98 169
62 97 162
61 97 161
62 98 166
61 97 161
61 97 165
62 99 175
62 98 164
61 98 171
62 99 169
61 98 171
62 98 167
60 96 153
61 98 164
62 98 165
61 98 163
62 98 171
62 98 160
61 98 163
62 98 167
61 98 160
62 99 166
62 98 170
63 99 169
62 98 162
62 98 167
62 99 171
62 98 166
61 97 164
62 99 171
62 98 164
63 99 171
62 98 165
62 98 165
62 98 165
63 99 170
63 99 166
62 98 164
62 98 163
61 97 158
62 98 161
61 98 162
62 98 161
62 98 161
62 98 168
62 99 164
63 99 167
62 98 163
61 97 164
63 99 171
63 99 170
62 98 161
62 99 167
62 98 165
63 99 170
62 98 164
62 98 162
62 98 167
62 99 166
63 99 160
62 98 165
61 98 162
62 98 159
63 99 164
61 97 160
62 99 166
61 97 159
62 98 158
62 99 168
62 98 160
62 98 168
62 98 162
62 98 156
62 98 158
62 98 160
61 97 157
62 97 159
62 98 157
62 98 164
61 97 156
62 98 165
62 98 157
62 98 162
63 99 166
62 98 165
61 97 162
61 97 159
62 98 164
62 98 158
61 97 160
62 98 157
62 97 158
62 98 161
61 97 157
62 98 160
62 98 157
62 98 158
62 98 164
62 97 156
62 98 156
61 97 154
62 97 157
62 98 165
61 97 153
63 99 164
61 97 155
61 97 155
61 97 149
61 96 151
63 99 156
61 97 154
61 96 145
61 97 151
62 97 155
61 97 158
61 96 150
60 95 140
61 95 146
60 95 150
60 95 147
61 96 147
61 96 147
60 95 151
60 95 141
60 95 149
61 96 147
59 93 137
61 95 144
60 94 148
59 92 138
57 89 127
74 81 61
80 78 8
84 82 19
73 73 21
84 84 12
96 94 19
84 83 11
82 81 14
87 87 14
99 96 11
93 91 14
90 86 12
99 97 16
98 97 25
96 95 12
100 98 19
96 97 25
100 98 20
98 98 23
102 102 25
113 111 32
106 104 27
102 101 12
103 101 25
106 105 34
109 108 25
114 111 24
112 111 29
107 105 33
115 113 22
121 117 42
120 116 37
122 119 36
116 113 32
119 116 38
119 116 31
121 119 31
133 129 41
122 118 35
122 119 31
123 120 37
121 118 34
133 129 40
131 127 35
130 126 42
136 130 47
134 129 47
133 128 42
129 125 42
139 134 45
134 130 42
133 129 34
132 128 42
137 133 36
136 132 43
127 124 37
137 134 45
139 135 42
142 137 44
139 134 47
134 130 33
126 123 32
143 138 44
139 134 37
133 128 45
141 136 41
140 134 48
140 134 45
141 135 48
140 135 32
138 133 45
139 134 42
138 133 44
140 134 47
146 141 39
128 123 34
138 133 49
135 131 42
145 140 49
147 141 49
134 130 41
134 130 36
135 130 36
133 127 42
134 131 32
133 129 36
130 125 37
132 128 42
141 135 44
130 124 39
134 129 32
137 132 45
125 120 32
127 122 32
136 129 36
128 123 36
133 127 32
131 126 37
135 130 34
124 119 25
125 121 32
133 129 34
131 131 28
136 138 30
128 133 22
143 148 28
146 151 28
138 144 28
146 155 11
155 167 25
158 169 11
151 165 0
164 178 11
161 176 0
164 178 0
169 187 0
162 177 0
163 180 0
165 182 0
169 188 0
166 185 0
169 187 0
168 187 0
167 186 0
167 184 0
168 185 0
169 188 0
166 183 0
166 185 0
169 187 0
166 186 0
170 189 0
167 185 0
165 184 0
165 184 0
167 185 0
185 206 130
183 204 108
184 204 130
185 205 142
185 207 135
191 211 147
189 209 151
186 207 140
189 209 151
189 209 147
191 211 159
190 210 153
190 210 153
188 208 153
196 215 181
190 211 163
191 210 161
191 212 163
198 217 182
193 212 173
197 216 184
196 215 182
193 213 169
198 217 189
198 217 186
198 217 189
198 217 189
192 212 173
201 220 198
197 217 189
198 217 194
196 215 188
202 220 203
202 221 207
198 217 186
204 222 211
202 220 203
198 217 184
200 219 194
197 216 193
197 217 196
202 220 206
204 222 214
200 218 194
200 219 196
200 219 198
199 218 191
199 218 196
197 216 191
200 219 198
199 218 189
199 217 196
198 217 189
201 219 201
199 217 191
196 215 177
200 218 193
200 218 199
196 214 179
196 215 182
195 215 177
194 213 169
193 212 175
195 214 179
194 212 167
195 214 182
195 214 173
192 211 173
194 213 175
192 211 161
189 208 147
188 208 159
188 208 147
189 210 140
188 207 153
188 208 142
189 209 142
176 195 157
159 180 149
157 177 164
142 164 149
133 156 153
133 157 141
114 140 129
116 141 151
96 124 154
91 120 147
93 122 155
92 121 154
85 114 155
82 112 155
79 110 160
81 112 148
65 100 161
69 103 154
69 102 151
70 104 158
68 102 159
64 99 152
66 100 157
67 101 154
65 100 156
62 98 156
62 97 161
63 98 156
64 99 160
62 97 157
62 98 162
62 98 163
61 97 164
62 98 168
60 96 154
61 97 162
62 98 163
62 98 163
61 96 158
61 97 161
62 98 157
61 97 156
62 98 163
61 97 162
61 96 161
60 97 160
61 98 163
61 97 163
62 98 164
61 96 163
61 98 167
62 98 164
60 97 165
61 97 162
61 98 160
61 97 163
61 97 160
62 99 170
62 98 165
61 97 161
61 98 166
62 98 158
61 97 167
61 98 167
62 98 162
62 99 168
62 98 159
62 98 167
62 98 164
62 98 167
63 99 169
62 98 167
62 98 161
61 98 163
63 99 167
62 98 161
62 99 173
61 97 162
61 98 161
62 98 163
61 97 161
63 99 174
61 97 160
62 98 165
62 99 167
62 98 166
61 97 160
62 99 170
62 98 163
62 98 166
62 98 164
62 98 162
62 98 168
61 98 166
62 98 160
63 99 168
62 98 163
62 98 164
61 97 159
62 99 169
62 98 163
61 97 165
62 98 164
64 100 174
62 98 163
60 97 155
62 98 162
62 98 162
61 98 165
63 99 166
62 98 167
62 98 166
62 98 162
63 100 170
63 99 165
62 98 166
62 98 162
63 99 167
63 99 168
62 98 160
62 98 166
62 98 162
62 99 167
62 98 160
62 99 164
62 98 164
63 99 167
62 98 163
62 99 166
62 98 163
62 98 164
62 98 158
63 99 166
61 97 158
62 98 161
62 98 160
61 97 155
62 98 164
62 98 160
63 99 161
62 98 162
61 96 152
62 98 161
61 97 158
62 98 159
61 97 154
62 98 156
62 98 159
62 98 161
62 98 162
62 98 162
63 99 163
62 98 163
62 98 161
61 97 153
61 97 155
61 97 153
62 97 155
62 97 154
63 99 159
62 98 158
61 97 154
62 98 159
62 98 161
62 98 155
62 97 155
62 97 154
60 96 147
62 97 151
62 97 154
61 96 143
61 97 154
62 97 152
60 95 150
60 95 148
60 94 147
61 97 155
61 95 141
60 95 145
61 97 154
59 93 141
61 96 146
59 93 139
60 94 143
59 92 137
60 93 134
59 91 132
81 84 52
82 80 12
87 85 3
86 84 21
91 88 12
87 85 3
94 90 16
88 87 8
94 92 11
82 80 8
91 90 10
99 98 15
87 86 19
99 97 14
88 87 20
91 90 18
103 99 21
94 93 21
99 97 28
99 98 21
100 98 24
93 90 25
112 110 29
105 103 24
110 107 26
116 113 23
113 112 21
112 110 26
100 99 14
105 102 32
108 107 30
118 115 32
115 111 41
117 114 39
119 116 33
109 106 30
126 123 39
125 121 45
130 126 42
128 125 31
132 128 39
131 126 42
128 125 31
132 128 45
128 122 37
132 128 37
139 134 47
124 120 40
143 138 36
136 131 40
131 127 34
134 128 50
135 130 40
135 131 42
132 127 38
141 135 47
138 134 43
128 124 33
129 124 32
141 136 48
139 134 39
144 139 42
146 140 44
144 137 42
133 129 25
145 140 42
137 133 34
146 141 52
142 136 42
140 134 49
135 131 41
134 130 41
136 130 39
140 136 41
141 135 42
130 125 34
144 138 47
140 136 34
138 133 51
140 135 47
141 136 44
136 131 42
143 137 44
142 135 53
138 132 48
132 127 30
136 132 36
137 132 45
127 122 32
136 131 41
139 133 47
135 129 45
124 121 30
124 119 37
126 119 44
132 127 32
119 115 22
128 126 30
126 121 42
118 116 36
125 123 28
133 134 34
141 142 30
134 139 25
144 148 19
144 148 32
147 157 25
155 164 22
151 160 11
151 161 11
155 165 11
163 179 11
163 179 0
164 180 0
165 182 0
162 178 0
165 182 0
161 179 0
169 186 0
161 177 0
168 187 0
164 181 0
164 182 0
162 178 0
166 182 0
164 183 0
162 180 0
163 181 0
169 189 0
167 184 0
167 186 0
163 183 0
166 186 0
166 184 0
170 189 0
165 185 0
186 207 130
184 205 125
187 208 135
191 211 155
188 208 144
189 209 140
193 212 167
187 208 149
194 213 163
191 210 159
197 216 175
193 213 165
197 216 186
193 213 175
197 217 189
196 215 179
193 213 175
196 215 186
195 213 181
197 216 182
198 217 201
202 220 199
201 219 207
203 221 204
201 220 203
201 220 199
200 218 196
203 222 211
202 221 207
201 220 204
200 219 201
197 216 193
198 217 193
200 219 199
201 220 203
202 221 212
200 219 206
206 224 218
201 220 206
205 223 215
202 221 209
202 221 206
202 220 201
200 219 201
196 215 186
203 221 215
197 217 189
202 220 206
203 221 209
205 223 220
198 218 194
200 218 198
201 219 203
200 219 201
197 217 189
201 220 206
199 217 198
198 217 196
194 213 184
202 220 201
196 214 179
198 217 184
195 213 189
202 220 198
195 214 188
193 213 163
197 216 182
197 215 184
195 214 171
187 208 149
189 208 153
193 213 167
194 212 167
190 209 159
192 212 157
189 208 155
187 207 147
174 194 143
160 180 168
148 170 163
137 160 150
136 158 162
117 143 148
129 152 153
112 138 152
100 128 151
93 121 165
74 105 150
94 122 154
85 114 149
86 116 154
83 114 156
81 112 152
68 102 151
68 102 154
72 105 155
73 106 157
70 103 156
63 98 152
63 98 154
68 102 151
65 101 164
66 101 162
62 98 165
60 95 154
62 97 155
63 98 154
61 97 159
62 97 147
61 97 162
61 98 169
61 98 161
61 97 159
62 98 164
61 97 158
62 98 169
60 96 158
61 97 166
62 98 166
61 97 160
61 97 157
60 96 156
62 98 165
61 97 156
61 98 168
61 98 165
61 98 168
62 98 169
61 98 160
61 97 163
62 98 171
60 97 166
61 97 160
61 98 164
62 99 170
62 98 167
61 97 164
62 98 164
61 98 162
61 98 166
61 98 163
62 98 165
62 98 167
62 99 169
62 98 168
61 96 155
61 98 167
61 97 167
62 99 168
62 99 168
61 98 165
62 98 167
62 98 163
62 99 166
62 98 162
62 98 164
62 98 169
63 99 169
62 98 157
63 99 165
62 99 171
61 97 162
62 99 167
61 97 162
61 98 162
62 99 166
62 98 169
62 98 162
61 97 159
61 97 159
61 97 162
62 97 163
62 98 164
62 98 166
62 98 162
61 97 157
63 99 163
61 97 157
62 98 168
61 97 156
62 98 163
62 99 166
62 99 169
61 98 163
62 98 160
62 98 165
61 97 156
61 97 160
63 99 165
62 98 161
62 97 158
63 99 164
62 99 167
61 98 159
62 98 164
62 98 163
62 98 162
62 98 163
62 98 159
61 97 160
62 98 159
62 98 166
63 99 166
62 98 159
62 98 164
63 99 168
61 97 151
62 98 161
63 99 168
61 97 157
62 98 166
62 99 163
62 98 162
62 98 157
62 98 165
61 96 157
61 97 153
63 99 163
61 97 164
62 98 158
61 97 155
62 98 161
62 98 163
62 97 155
62 98 163
61 97 157
62 98 160
61 96 148
62 98 154
62 98 160
62 97 159
61 97 155
61 97 158
61 97 154
63 98 159
61 97 158
61 96 150
62 98 163
63 99 161
62 97 153
62 98 160
62 98 162
62 97 149
61 97 156
62 97 155
62 98 161
60 94 139
61 97 145
61 96 153
61 97 148
59 95 145
61 96 148
61 96 149
61 96 147
60 95 151
59 93 141
59 94 146
61 96 148
61 95 146
60 94 144
60 94 140
60 94 139
59 92 132
57 89 128
84 84 42
89 86 2
85 84 11
79 78 8
80 77 16
87 86 5
78 77 3
90 87 8
87 86 13
79 80 12
88 87 14
92 91 18
83 80 16
84 83 12
87 86 23
88 88 16
104 100 24
103 101 18
100 98 21
97 96 33
99 98 25
105 104 25
100 99 16
106 103 25
116 114 31
102 102 19
108 106 24
113 112 23
102 99 19
113 108 37
110 107 27
111 109 28
116 114 27
110 109 25
115 112 36
118 116 35
122 118 36
114 111 31
117 114 33
114 112 14
120 117 31
135 130 38
126 123 38
127 123 39
131 126 33
130 126 37
122 119 40
141 136 40
136 132 42
132 127 41
127 125 37
126 121 43
131 126 37
134 129 37
137 130 48
134 129 43
128 123 41
137 133 37
135 132 28
140 133 36
138 133 37
136 131 42
136 132 36
139 135 39
145 138 51
136 131 37
146 142 36
139 135 41
141 136 44
139 135 36
136 132 39
132 129 25
135 129 45
132 128 37
133 128 45
134 129 25
131 128 30
123 119 30
132 128 36
130 124 37
150 143 47
137 131 42
140 134 45
134 129 22
135 130 34
140 135 44
137 132 45
127 123 34
132 127 36
137 131 47
135 129 41
129 124 28
135 130 37
133 126 41
125 119 32
129 125 28
130 126 32
127 123 32
117 114 30
135 133 34
134 133 36
135 138 19
133 134 25
137 139 30
137 142 19
148 156 16
147 155 19
150 161 16
155 164 19
155 166 11
163 178 11
157 172 0
167 184 0
155 169 0
167 183 0
167 184 0
170 188 0
161 178 0
165 182 0
163 181 0
166 183 0
164 182 0
158 173 0
169 186 0
170 188 0
164 182 0
165 182 0
165 184 0
168 186 0
170 189 0
164 181 0
168 188 0
167 187 0
168 189 0
169 188 0
168 189 0
187 207 144
187 207 135
191 211 161
189 209 144
192 212 155
187 207 142
194 213 177
198 217 182
194 214 181
195 214 165
195 214 175
193 213 167
198 216 196
194 213 181
193 212 171
197 216 184
199 218 189
199 218 189
199 218 189
197 217 188
200 219 199
197 216 184
197 216 191
202 220 201
202 220 204
196 215 191
200 219 201
201 220 201
203 222 217
204 223 215
204 222 217
200 219 194
200 219 196
204 222 212
203 221 207
202 221 211
203 221 212
202 220 212
202 221 212
203 222 209
202 221 204
202 221 209
201 220 207
203 222 206
202 221 211
203 221 206
200 220 204
205 223 217
205 223 223
205 223 214
202 221 203
202 221 207
197 216 194
201 220 203
203 221 214
200 218 203
204 222 214
199 218 206
200 220 206
197 216 191
198 217 191
197 216 188
199 218 191
200 219 198
200 219 198
201 219 203
198 217 184
197 216 189
199 217 191
197 216 188
197 216 179
193 212 169
195 214 173
195 214 175
192 212 159
186 206 140
181 202 142
177 196 182
155 176 170
153 173 167
141 162 173
141 163 162
119 142 157
109 135 158
124 149 159
99 126 154
89 117 156
91 120 153
90 120 158
84 113 152
77 108 151
78 109 154
73 105 147
82 113 157
67 100 149
70 103 151
73 106 156
69 103 151
65 99 150
61 97 158
67 102 160
65 100 158
62 98 159
64 99 163
67 101 160
61 97 160
61 97 164
61 97 157
66 100 159
61 98 167
61 97 153
62 98 166
61 97 158
60 96 159
60 96 157
61 97 167
61 97 155
60 96 156
61 97 157
61 97 156
61 97 164
60 96 160
61 97 163
61 97 163
61 97 162
61 97 162
61 97 160
61 97 166
61 97 160
61 98 164
60 96 162
61 98 164
62 98 166
61 97 159
62 98 168
61 97 168
60 96 156
62 98 162
62 98 161
61 97 160
62 98 165
61 96 153
62 98 168
62 98 165
62 98 164
62 98 161
61 97 161
62 98 167
61 97 160
61 97 160
62 99 164
62 98 167
61 98 162
62 98 168
63 99 170
62 98 168
62 99 171
62 98 167
62 99 169
61 97 162
63 99 166
62 98 163
63 99 169
63 99 168
62 98 166
63 99 170
62 98 167
62 98 165
62 99 170
62 98 162
62 99 169
62 98 164
62 98 162
62 99 170
61 98 166
62 99 171
61 97 160
62 98 168
62 98 164
62 98 167
62 98 164
62 98 166
62 99 169
62 98 160
61 97 161
61 97 162
61 97 162
62 98 158
62 98 158
62 98 165
62 98 160
61 97 161
62 98 161
62 99 163
62 98 158
62 98 162
63 99 168
62 98 162
63 99 165
62 98 162
61 97 160
62 99 168
61 98 160
63 99 167
61 98 162
61 97 149
62 98 164
62 98 159
62 97 161
61 97 155
62 98 159
61 97 157
61 97 156
62 98 161
62 98 163
62 98 161
62 98 156
62 99 166
62 98 160
62 98 160
61 97 151
62 98 159
62 98 163
62 98 158
61 97 156
62 98 155
62 98 162
62 97 154
62 98 158
61 97 159
62 97 154
62 98 159
61 96 153
62 98 155
62 98 156
62 98 158
61 97 151
62 98 158
61 97 154
61 97 156
63 99 167
63 99 165
61 96 149
61 97 155
61 97 154
61 96 149
61 96 142
61 96 150
61 96 148
60 95 145
62 98 155
60 95 146
60 94 143
60 95 146
61 96 142
60 95 145
60 94 136
61 95 141
59 94 145
60 95 148
59 93 138
60 93 136
58 90 126
59 91 134
78 75 28
94 90 12
90 88 8
93 91 8
88 87 8
76 76 11
68 67 12
90 87 0
89 87 9
82 80 8
82 80 16
95 93 14
93 91 16
94 91 14
93 91 19
87 87 14
103 101 5
95 92 18
99 98 19
100 98 5
101 99 14
103 100 19
110 107 29
98 96 15
100 99 31
108 106 31
109 108 19
101 98 25
118 115 27
122 119 18
106 103 26
109 107 25
115 113 31
120 117 25
125 121 48
124 120 32
116 113 34
112 112 26
120 118 29
128 124 34
116 114 18
123 120 31
118 114 39
123 119 37
128 125 38
134 129 28
131 126 40
129 125 34
130 125 33
134 129 37
129 125 31
125 121 35
134 131 37
134 129 40
137 133 41
133 129 28
141 135 34
135 130 37
134 130 35
119 117 21
132 127 36
133 130 34
138 135 30
133 129 41
130 127 31
132 127 34
139 135 36
125 121 34
134 129 39
135 130 39
138 134 39
134 130 30
137 133 25
134 129 32
136 130 30
127 122 30
130 125 42
120 116 22
138 133 34
143 135 48
136 130 41
136 130 42
136 131 39
131 127 34
128 123 32
132 127 34
124 120 25
134 128 42
132 127 45
136 130 39
127 121 32
120 115 41
127 121 34
127 122 30
119 114 32
134 128 44
123 119 32
131 129 39
131 128 36
129 130 28
135 138 25
144 148 28
135 137 25
137 142 36
145 151 19
148 154 19
155 167 19
154 166 16
163 177 19
166 183 0
157 173 0
163 180 0
166 182 0
158 175 0
161 175 0
161 178 0
163 178 0
160 175 0
162 179 0
164 181 0
163 180 0
166 182 0
166 186 0
168 187 0
167 186 0
167 184 0
162 179 0
165 183 0
162 180 0
168 188 0
165 186 0
169 187 0
168 186 0
168 188 0
169 188 0
169 188 0
184 205 130
189 208 153
194 214 165
188 209 155
196 215 173
193 213 163
197 216 175
199 218 188
191 210 167
202 220 199
202 220 198
194 213 181
198 217 184
196 215 186
200 219 196
198 217 189
197 217 186
198 218 194
203 221 206
199 219 198
202 221 212
198 218 196
203 221 211
203 221 209
199 218 198
203 222 217
202 220 209
203 222 209
202 221 207
201 220 201
206 224 220
203 222 212
204 222 215
205 223 220
205 224 218
204 222 217
205 223 217
201 220 209
201 220 206
203 221 209
202 221 215
207 225 227
200 219 199
202 221 207
200 219 204
203 222 212
202 221 209
204 222 211
203 222 214
203 221 206
203 221 211
207 225 223
204 222 209
203 221 209
202 221 206
204 223 212
202 221 211
202 220 212
204 222 214
203 221 209
204 223 212
203 221 203
203 221 207
203 222 209
200 219 196
196 214 184
206 224 218
198 216 186
194 214 175
199 217 189
197 216 191
196 215 186
200 218 194
196 215 175
194 213 171
192 211 157
185 206 171
176 195 188
159 179 188
141 162 171
140 162 170
138 160 170
128 151 165
114 139 159
109 135 156
93 121 167
96 124 152
90 119 160
82 114 156
87 115 155
91 119 158
76 108 160
73 106 156
80 111 150
77 108 154
92 120 154
65 100 163
70 103 155
66 101 156
67 101 160
65 99 147
65 99 156
68 102 157
65 100 156
62 97 155
63 98 156
63 98 158
63 97 158
61 97 158
64 99 157
62 97 160
60 96 158
60 96 161
61 97 160
61 97 166
61 97 161
61 97 163
61 98 165
61 97 163
61 97 163
61 98 168
61 97 161
61 97 163
61 97 160
61 97 168
60 96 161
62 98 165
61 97 166
62 98 166
61 97 160
62 98 162
61 97 159
61 97 155
60 96 154
61 97 157
61 98 165
62 98 166
62 98 165
61 97 158
62 98 162
62 99 170
61 97 161
61 97 159
61 97 159
61 97 160
61 97 162
62 98 164
61 98 171
63 99 170
61 98 168
61 97 162
62 99 168
61 97 166
62 98 169
62 98 165
62 98 161
62 98 165
62 98 161
61 97 159
61 97 160
61 97 161
61 97 161
62 98 162
62 98 165
61 97 161
61 97 164
62 98 164
61 97 161
62 98 160
61 97 161
62 99 170
63 99 170
62 98 164
61 98 160
62 98 163
61 98 166
62 98 158
62 98 166
61 98 162
62 98 161
62 98 166
63 99 164
62 98 167
62 98 162
62 98 166
62 98 166
62 98 163
61 97 161
61 97 158
62 98 164
62 98 164
62 98 163
61 97 157
61 98 161
62 98 160
61 98 164
62 98 160
61 97 156
61 97 158
62 98 164
62 98 163
62 98 161
63 99 163
63 99 169
62 98 164
60 95 149
62 98 164
61 97 157
63 99 163
63 99 164
62 98 159
62 99 165
61 97 151
62 99 167
62 98 160
62 98 158
62 98 161
62 98 161
63 99 163
62 98 160
62 98 158
62 98 163
62 98 159
63 99 169
62 98 162
61 97 153
63 99 163
61 97 157
62 98 161
62 98 160
63 99 162
62 98 160
61 97 156
62 98 163
62 97 159
60 95 139
63 99 165
63 98 160
63 99 158
61 97 156
62 97 156
62 98 162
61 97 150
62 97 156
62 97 157
61 96 147
61 97 150
61 97 154
61 96 150
61 96 145
60 95 151
62 97 155
61 97 151
59 93 134
60 95 145
59 94 141
61 95 140
60 95 144
59 93 135
60 95 139
60 94 140
59 93 138
59 93 142
64 92 124
90 89 11
84 83 0
82 78 4
79 77 11
102 96 8
83 82 14
85 83 0
83 81 12
88 86 8
91 88 5
87 84 20
89 85 0
88 85 12
97 94 3
85 84 11
90 89 11
89 88 16
103 102 16
96 95 20
98 95 18
105 101 22
102 100 21
110 108 11
120 116 22
105 103 23
97 93 20
102 100 28
110 106 24
107 105 22
108 106 21
120 117 29
117 114 29
117 114 26
114 111 24
113 111 33
114 112 25
110 109 22
123 119 37
117 115 27
119 115 30
129 126 34
120 117 18
122 118 28
130 126 34
134 130 41
125 121 30
127 123 28
132 127 36
129 125 34
139 134 36
125 121 25
125 120 33
133 129 28
131 128 28
138 134 29
132 127 44
135 131 35
141 136 37
133 129 36
136 131 32
141 135 39
125 121 32
136 132 32
134 129 44
136 132 39
130 126 34
136 129 37
137 131 42
137 132 39
134 130 19
140 135 37
129 124 30
138 134 44
143 137 48
125 119 34
132 128 37
126 123 25
131 125 39
129 123 41
129 125 28
141 135 42
135 130 41
131 127 36
131 125 22
129 124 28
129 125 37
126 121 32
133 126 34
133 129 34
132 127 42
132 126 41
133 127 42
132 127 41
125 119 34
123 119 22
130 126 25
131 127 36
129 127 25
127 127 28
143 144 32
132 134 25
141 144 25
148 154 25
148 156 16
140 146 16
154 164 19
156 168 0
159 172 11
160 175 0
164 178 0
164 180 0
164 178 0
165 181 0
165 181 0
165 182 0
162 177 0
166 183 0
159 175 0
166 183 0
161 180 0
164 180 0
167 184 0
166 184 0
163 178 0
168 186 0
165 182 0
162 180 0
166 183 0
165 183 0
167 186 0
166 185 0
165 183 0
168 186 0
168 186 0
163 181 0
172 192 0
192 211 161
188 209 159
192 212 157
191 211 159
195 214 175
193 213 169
190 210 157
193 213 175
197 216 181
197 216 186
201 220 196
195 214 177
199 218 193
197 217 189
201 220 204
199 217 194
203 221 214
203 221 209
200 220 203
205 223 215
202 221 209
201 220 209
206 224 224
203 222 214
201 219 203
203 221 218
202 221 214
201 220 207
202 221 211
203 222 209
203 221 212
208 226 231
203 222 214
204 223 220
203 222 212
205 224 221
205 224 221
204 222 215
203 222 215
204 223 221
205 224 221
202 221 211
206 224 226
204 222 212
209 226 231
203 222 214
205 223 220
205 223 218
204 222 218
205 223 217
203 222 211
206 224 220
202 221 214
203 221 209
205 223 218
204 222 215
206 224 215
204 222 211
206 224 221
202 221 209
203 221 207
203 221 209
205 223 215
201 219 198
202 220 201
197 216 198
203 221 211
204 222 209
200 218 193
202 219 199
202 220 201
201 219 191
197 217 184
190 210 169
197 217 182
197 215 188
183 203 181
170 189 199
160 179 188
145 166 179
144 165 178
136 158 181
129 152 175
119 143 181
105 132 166
112 137 159
108 133 158
80 111 159
101 128 167
88 117 159
87 116 163
90 118 157
76 107 160
71 104 144
75 108 153
77 110 157
81 111 149
69 103 156
64 98 154
68 101 150
63 98 154
66 101 156
61 97 157
64 99 152
61 97 159
60 96 154
61 96 155
63 98 152
66 101 157
63 98 158
61 97 162
60 96 157
63 98 157
62 98 161
59 95 156
61 97 157
61 96 154
61 97 159
61 98 162
60 96 155
61 97 157
61 97 158
60 97 164
60 95 155
61 98 163
62 98 167
62 98 165
61 97 163
61 98 162
61 97 159
61 97 161
62 98 159
61 97 159
62 98 166
61 97 157
62 98 167
61 97 164
61 97 158
62 98 162
63 99 167
61 98 162
62 98 164
62 98 165
61 97 161
62 98 168
62 98 164
61 97 162
62 98 166
61 98 160
62 99 167
60 96 160
61 97 162
61 97 160
62 98 167
60 96 154
61 97 158
61 97 157
61 98 167
61 97 157
62 99 165
61 97 157
62 98 164
62 99 170
62 98 160
62 98 161
61 97 157
62 98 166
61 97 161
61 97 161
61 98 162
62 99 169
62 98 163
62 98 162
61 97 157
62 98 157
62 98 162
61 97 157
62 98 163
62 98 163
62 98 163
62 98 160
62 99 168
62 98 165
62 98 162
61 97 157
61 97 158
61 96 153
62 98 158
62 98 161
62 98 165
62 98 162
61 97 163
63 99 165
62 98 164
61 97 151
61 97 161
62 98 163
61 97 160
62 98 157
61 97 162
62 98 159
62 98 166
62 98 156
62 99 165
61 97 157
62 98 157
62 98 161
62 98 162
63 99 170
62 98 160
62 98 163
62 99 167
63 99 164
61 97 153
61 97 153
62 98 160
61 97 158
62 97 160
61 97 158
62 98 162
61 97 155
62 97 158
62 98 161
62 98 160
63 99 166
62 98 160
63 99 162
61 96 147
62 98 162
63 98 159
62 98 160
61 96 152
62 98 156
61 97 151
61 97 159
62 97 153
61 97 155
61 97 154
62 98 159
60 96 152
61 97 148
61 96 151
62 97 155
61 97 154
61 95 145
61 96 151
60 95 139
62 98 153
61 96 149
61 96 145
60 96 142
62 97 156
60 95 142
61 96 149
60 95 147
60 95 142
60 94 141
61 96 141
60 94 139
60 94 144
60 94 136
59 92 133
59 92 132
74 98 125
92 90 21
83 80 11
91 89 18
96 94 16
87 84 8
88 87 3
89 86 2
91 88 0
78 77 8
89 86 12
96 94 12
84 82 14
94 93 8
89 89 8
85 85 0
95 94 18
96 93 16
91 88 11
103 101 16
88 86 14
95 92 12
115 111 29
101 100 18
101 98 26
97 94 19
107 104 27
106 103 22
96 95 18
104 102 32
111 109 23
110 107 14
118 113 26
113 110 24
109 105 25
112 109 28
112 110 29
110 107 14
125 122 28
118 115 25
115 112 25
109 108 30
121 116 32
124 121 29
125 121 30
121 118 26
130 126 28
130 126 34
117 114 34
127 122 32
131 126 44
134 131 37
137 131 42
118 115 30
126 120 34
133 128 41
138 133 33
122 118 19
132 128 25
131 126 36
134 129 34
131 126 32
131 127 32
134 129 34
135 129 36
130 124 32
126 121 30
135 130 28
141 134 39
120 115 25
129 125 28
136 131 39
130 126 28
140 134 37
126 122 37
129 123 41
140 134 44
140 134 47
134 128 37
123 119 32
124 119 34
115 111 16
135 130 39
132 126 30
124 121 25
138 132 37
121 118 30
125 120 28
136 130 34
131 126 41
130 125 37
131 125 30
124 120 32
127 122 25
133 128 34
126 124 30
129 127 34
135 136 19
119 121 19
136 135 30
137 141 32
138 140 28
134 136 25
145 153 11
140 144 11
153 161 11
152 162 0
149 160 0
151 162 0
156 171 0
167 182 0
162 176 0
164 180 0
161 176 0
167 184 0
164 179 0
165 182 0
155 168 0
163 177 0
162 176 0
163 181 0
164 179 0
165 182 0
162 178 0
162 180 0
168 186 0
164 181 0
166 181 0
165 182 0
162 179 0
164 183 0
167 184 0
170 189 0
169 190 0
168 187 0
168 187 0
168 188 0
193 213 163
191 210 151
197 216 181
192 212 161
188 209 142
195 214 179
199 218 189
201 220 196
195 214 186
196 216 182
199 218 203
202 221 206
200 219 201
206 224 221
203 221 207
198 217 198
201 219 198
204 223 212
204 223 217
203 222 220
202 220 212
203 222 214
204 223 217
202 221 207
201 220 203
203 222 218
206 224 223
203 222 214
204 223 217
206 224 223
204 223 220
207 225 226
208 226 231
202 221 207
205 224 221
205 223 220
210 227 233
206 224 223
204 223 218
208 226 227
206 224 220
206 224 223
206 224 224
200 220 203
209 226 228
209 227 233
205 223 220
208 226 231
207 225 230
206 225 227
206 224 221
207 226 230
204 222 214
205 223 218
208 226 227
205 223 217
202 221 215
208 226 226
206 224 218
201 220 199
203 221 212
203 222 209
206 224 217
200 219 201
202 220 199
203 222 209
203 222 207
201 219 206
205 222 212
201 219 201
201 220 203
202 220 199
203 221 206
196 215 188
198 216 182
193 212 188
185 204 188
169 188 197
162 182 200
157 176 198
147 168 195
141 163 185
136 158 183
122 145 177
120 144 174
106 132 163
101 128 161
94 122 162
92 121 161
93 122 155
75 107 163
87 116 158
86 115 159
79 110 153
85 115 162
69 102 160
63 97 157
69 102 155
73 107 157
73 106 148
65 100 157
64 99 149
71 103 153
62 98 167
67 101 154
62 97 153
68 102 160
60 96 162
63 98 163
62 96 144
61 96 156
61 97 157
62 97 155
60 96 159
61 97 163
60 96 156
61 97 156
60 96 159
61 97 158
61 97 155
61 97 156
61 97 167
62 98 165
61 98 165
61 98 163
61 97 162
61 97 159
62 98 167
62 98 164
61 97 163
61 97 161
62 98 165
61 97 161
61 97 158
62 98 160
62 99 166
62 98 167
61 97 160
62 98 169
61 97 161
61 97 161
61 97 162
61 97 168
62 98 167
62 98 168
61 98 166
61 97 156
61 97 162
62 98 160
62 99 163
61 97 166
62 98 165
61 98 164
61 98 164
62 98 160
62 98 162
60 96 156
62 98 166
62 98 167
62 98 168
63 99 166
62 98 165
63 99 162
63 99 169
62 98 159
62 98 165
62 98 163
61 97 151
62 98 157
61 97 158
61 97 164
62 98 163
62 98 161
61 97 157
62 98 162
62 98 160
62 98 165
62 99 167
63 99 165
62 99 165
62 97 154
61 97 157
61 97 158
62 98 161
62 98 164
62 98 159
62 98 161
61 97 161
63 99 172
62 98 160
62 98 164
62 98 161
62 98 159
61 97 151
62 98 159
62 98 161
61 97 159
63 98 162
61 98 163
63 99 167
62 98 168
62 98 161
61 97 157
62 98 162
62 98 162
62 98 162
61 98 158
62 98 160
62 98 160
62 98 155
61 97 151
62 99 162
62 98 160
60 96 152
61 98 162
62 98 157
62 97 158
62 98 163
62 98 159
61 97 156
62 98 162
61 97 155
62 98 162
61 96 148
62 98 160
62 98 157
62 98 159
61 97 159
62 97 153
62 98 155
63 99 164
62 98 162
62 98 155
62 97 157
62 97 157
63 98 159
62 98 157
61 97 155
61 97 152
61 97 151
62 97 154
62 97 154
60 95 142
62 98 161
61 96 144
61 96 149
61 97 149
62 97 150
60 95 147
62 97 155
61 97 147
60 95 140
60 95 147
61 96 148
60 95 145
61 95 148
59 94 138
61 95 149
61 95 142
59 92 134
59 93 136
59 92 137
59 92 133
65 89 111
90 88 0
91 93 9
85 83 14
91 89 12
91 88 8
80 77 0
82 79 8
87 86 11
79 76 8
95 92 16
88 87 14
88 86 8
84 83 8
90 89 2
99 95 14
100 96 8
95 92 11
94 89 8
89 86 2
91 87 8
96 93 21
90 89 16
104 101 21
97 94 2
108 106 24
95 94 23
111 109 24
95 93 14
113 110 27
111 107 30
100 98 11
118 114 31
111 109 25
115 112 26
115 112 20
121 115 30
114 111 28
116 113 27
125 122 33
119 116 29
121 115 30
124 122 21
126 121 34
116 113 18
115 112 14
120 116 28
126 122 30
121 118 25
126 123 35
124 119 25
126 122 22
129 125 36
122 118 26
126 123 25
126 121 33
135 132 32
132 127 28
129 126 32
125 121 25
132 128 22
128 124 37
134 129 37
131 127 32
140 134 42
135 130 36
135 130 32
131 125 22
131 125 32
129 125 36
129 125 32
141 135 39
137 133 25
133 128 34
130 125 34
131 126 34
137 132 32
134 128 36
125 120 28
135 129 34
128 125 36
135 129 34
133 126 36
126 121 28
129 124 30
130 123 25
118 114 36
120 115 25
128 123 42
118 113 28
131 125 32
129 125 44
117 113 16
125 120 22
127 124 19
125 124 19
117 116 22
131 132 25
135 136 16
136 139 22
121 125 16
145 148 19
140 146 16
139 146 11
148 159 11
153 161 16
156 167 0
163 180 0
159 172 0
158 173 0
160 175 0
164 178 0
161 176 0
164 182 0
160 177 0
163 178 0
160 174 0
160 175 0
161 176 0
168 188 0
165 184 0
164 181 0
159 173 0
167 185 0
164 181 0
167 186 0
163 179 0
166 184 0
167 187 0
166 185 0
165 182 0
166 184 0
166 184 0
164 182 0
168 188 0
163 182 0
168 187 0
193 213 165
196 215 177
194 213 173
199 218 188
197 216 191
200 219 194
202 220 199
199 218 194
199 218 194
201 220 201
203 221 211
205 224 218
200 220 203
199 218 198
207 225 226
205 224 223
201 220 206
205 224 220
202 220 204
206 224 221
204 222 214
204 223 217
207 226 230
204 222 214
206 224 223
207 225 223
207 225 224
204 222 217
203 222 215
204 223 226
206 225 226
208 226 231
208 226 231
205 224 218
207 225 227
208 226 228
207 224 230
206 224 223
207 225 226
206 224 228
209 226 226
206 224 220
209 226 234
207 225 228
203 221 215
207 225 227
208 226 231
206 224 220
208 226 226
205 224 218
206 224 223
209 226 231
208 226 228
205 224 218
207 225 224
206 224 220
206 225 224
206 225 224
205 223 217
205 224 220
206 224 218
204 223 217
204 223 215
207 225 227
205 222 214
204 222 214
204 222 211
201 220 203
205 223 212
203 221 211
207 225 223
200 219 199
205 222 211
199 218 196
196 216 182
198 216 203
177 196 203
181 199 218
171 190 213
151 171 198
144 165 195
138 159 188
140 162 192
124 147 177
111 136 187
108 133 165
104 130 169
92 120 170
96 125 169
74 106 159
81 111 155
83 113 162
74 106 158
89 118 158
86 116 158
74 106 151
79 110 156
74 107 161
64 99 154
65 100 159
66 101 159
68 103 161
65 100 154
65 100 156
64 99 154
60 96 154
62 98 165
62 98 156
62 97 150
62 98 161
61 96 152
62 97 153
61 97 158
62 98 164
62 97 157
62 98 161
60 96 159
61 97 161
60 96 157
60 96 153
60 96 156
61 97 157
60 95 147
61 97 161
61 97 158
61 96 157
61 97 166
62 98 167
61 97 153
61 97 160
61 97 157
60 97 158
61 97 166
61 97 155
61 97 161
61 97 160
61 98 162
62 98 168
61 97 162
62 98 165
62 98 170
61 98 164
61 97 166
62 98 166
61 97 161
61 97 162
61 98 163
61 97 159
61 97 161
63 99 164
62 98 165
61 97 157
61 97 160
61 97 160
62 98 163
62 98 160
62 98 164
61 97 162
61 98 167
61 98 165
62 98 165
61 97 163
61 97 160
62 98 161
62 98 164
62 98 158
62 98 166
60 96 156
61 97 159
62 98 159
62 99 168
61 97 154
62 98 163
63 99 170
62 98 166
61 97 157
62 98 160
62 99 171
62 98 159
62 97 156
61 97 159
61 97 157
62 98 162
62 98 166
62 98 167
62 98 158
62 98 163
62 98 157
62 97 160
62 98 162
61 97 153
62 98 159
61 97 158
62 99 167
60 96 152
61 97 159
62 98 165
62 97 155
62 98 160
62 98 160
61 97 160
63 99 167
61 98 162
62 98 162
62 98 163
62 98 161
61 96 152
61 97 159
61 97 155
63 99 161
61 97 160
61 98 158
63 99 166
62 98 159
63 98 162
62 98 160
62 98 160
61 97 153
61 97 159
61 97 160
61 96 153
62 98 162
62 98 162
61 97 154
61 96 152
62 98 164
62 97 153
62 97 151
62 98 160
62 98 158
62 98 160
62 97 152
61 96 152
62 98 157
61 97 160
62 98 163
60 96 151
61 97 151
62 98 153
61 96 149
62 97 151
61 96 148
61 96 149
61 96 151
62 97 146
62 98 157
61 95 149
61 96 153
61 95 148
62 97 153
61 95 146
62 97 155
60 95 149
61 97 153
60 94 139
60 93 132
61 96 149
59 93 124
61 96 146
59 93 140
61 95 144
59 92 129
58 91 135
83 94 77
106 105 11
102 102 12
78 77 8
89 87 8
84 85 0
91 87 0
93 91 14
81 78 8
88 86 8
84 81 0
95 92 5
90 87 14
82 80 0
85 84 14
90 88 8
93 92 14
94 90 11
103 99 8
102 99 8
95 95 8
101 99 21
98 95 12
100 98 21
103 101 14
103 99 19
99 95 12
101 100 16
109 107 21
111 108 25
104 100 22
111 109 23
121 117 23
120 114 25
111 108 23
112 108 20
114 110 25
99 97 18
109 107 20
116 112 29
127 121 26
117 113 24
113 108 16
127 124 32
122 118 22
121 118 25
130 126 22
127 122 31
118 115 29
121 118 25
131 126 33
126 122 25
126 122 22
125 121 30
127 124 28
130 127 25
127 123 25
126 121 32
138 133 45
127 122 28
119 116 25
126 121 25
134 129 30
132 128 29
125 121 32
132 126 28
134 129 40
124 119 30
129 125 28
127 122 32
130 125 32
131 127 32
133 127 32
125 121 32
138 131 25
132 126 34
133 129 28
130 124 34
129 126 25
130 125 39
134 130 28
120 116 30
125 119 32
131 126 37
121 116 25
121 116 34
125 120 28
125 120 22
112 107 36
135 129 30
124 119 30
134 130 36
122 120 16
126 124 28
119 119 19
131 132 32
127 124 25
127 126 22
141 144 22
142 149 28
134 139 22
149 157 19
147 155 16
149 154 22
152 163 0
148 157 0
160 174 0
160 175 0
158 171 0
164 178 0
163 178 0
155 170 0
159 173 0
156 168 0
163 181 0
163 179 0
163 181 0
165 181 0
159 175 0
165 182 0
167 183 0
165 183 0
164 181 0
164 181 0
163 178 0
157 174 0
169 188 0
164 184 0
168 183 0
166 183 0
169 186 0
163 183 0
165 183 0
167 184 0
164 182 0
161 179 0
171 191 0
198 217 189
198 217 188
197 215 184
201 220 199
202 221 206
205 223 212
203 221 212
203 221 207
204 222 211
201 220 204
202 221 203
204 223 215
204 223 218
203 222 214
206 224 224
205 224 221
204 222 214
206 224 221
208 226 228
209 226 231
208 226 228
203 221 215
206 225 224
203 222 214
208 226 231
203 221 215
208 226 226
207 225 227
208 225 226
206 224 230
208 226 230
213 230 245
208 226 231
210 227 234
208 226 228
211 228 234
208 225 226
209 227 236
207 224 224
208 226 231
207 225 230
207 225 227
207 225 227
207 225 230
207 225 226
208 226 231
209 226 236
209 226 228
208 226 227
210 227 230
210 227 236
210 228 237
207 225 231
206 224 224
209 226 230
207 225 231
209 226 230
208 226 227
208 225 226
205 223 218
206 225 224
208 225 228
205 223 217
205 224 224
204 222 212
209 226 228
206 224 220
205 223 217
203 222 214
206 224 220
202 220 201
208 226 224
201 219 201
200 219 201
203 221 203
193 211 207
180 199 215
169 188 215
171 189 212
168 187 216
146 167 201
139 160 199
134 156 193
125 148 189
127 151 193
100 127 177
94 122 175
98 126 170
78 110 166
98 126 167
69 103 161
81 112 163
93 120 169
83 113 166
78 108 160
81 111 157
72 105 160
85 115 143
82 111 149
73 106 156
74 107 157
65 99 154
66 100 155
66 100 145
65 101 160
61 96 151
60 96 154
67 101 153
60 96 157
70 103 156
62 98 168
64 98 146
60 97 160
61 96 157
60 95 157
62 98 164
59 94 155
61 96 159
61 97 161
62 98 165
61 97 159
61 97 162
61 97 159
60 96 160
61 97 160
61 97 160
60 96 150
61 97 163
61 97 156
62 98 166
61 97 162
61 97 165
62 98 161
62 98 166
61 97 165
61 97 157
61 98 165
61 97 161
61 97 155
62 98 163
61 98 164
61 97 160
61 97 159
61 97 159
62 98 164
62 98 168
62 98 167
62 98 159
62 98 164
61 97 160
61 97 161
61 98 162
62 98 164
61 97 160
61 97 162
62 98 166
61 96 155
62 99 167
61 98 161
61 97 159
61 97 162
61 97 161
61 97 157
61 97 158
62 98 160
62 98 167
63 99 172
62 97 159
61 97 155
61 97 161
62 98 162
62 98 157
61 97 161
62 98 162
62 98 166
61 98 164
61 97 162
62 99 165
61 98 163
62 98 158
62 98 165
61 97 156
62 98 161
62 99 164
61 97 158
62 98 162
61 96 158
62 98 157
61 96 154
63 99 162
62 98 161
61 97 160
62 98 164
63 99 162
61 97 152
61 98 158
61 97 162
62 98 160
62 97 157
62 98 161
61 97 160
61 97 152
62 98 159
62 98 158
61 97 160
61 97 156
61 97 151
62 98 163
61 98 160
62 98 162
61 97 155
62 98 156
62 98 162
63 98 156
62 98 163
63 98 160
63 98 167
61 97 153
62 98 165
62 98 159
62 98 161
63 99 170
61 97 155
61 97 153
61 97 155
62 98 157
62 97 155
62 98 163
61 96 154
61 97 150
62 98 159
61 97 155
62 98 156
61 96 142
62 97 153
62 97 151
62 97 147
62 97 153
61 97 158
62 97 150
61 96 145
61 97 149
61 97 151
61 96 151
61 97 147
62 97 154
62 97 151
61 96 147
61 96 148
61 96 140
60 95 143
61 96 145
60 95 146
60 95 141
61 96 140
60 95 140
59 93 137
61 95 138
61 95 142
61 95 140
60 94 143
58 90 132
58 91 129
82 97 92
105 107 0
100 100 16
105 106 8
91 90 14
103 100 11
95 92 18
99 97 14
100 97 3
97 95 16
88 85 0
104 101 0
89 86 0
83 81 8
105 102 8
102 98 3
97 94 8
82 81 8
96 94 11
90 89 16
90 88 14
109 104 16
98 95 11
96 95 8
96 93 19
103 100 16
108 106 12
115 112 16
104 101 21
108 106 14
112 108 11
101 98 12
115 111 16
101 97 0
116 113 21
117 114 11
114 112 20
112 109 18
113 109 21
113 108 25
122 117 22
120 116 31
111 108 25
113 111 28
119 115 30
120 116 30
127 124 28
122 117 22
124 120 31
124 119 29
128 123 28
128 123 28
125 121 22
127 123 22
131 125 36
126 120 16
127 124 25
122 117 30
126 123 22
130 125 26
131 126 22
122 119 22
132 128 34
134 129 37
139 133 34
115 112 16
137 131 39
120 117 16
131 126 25
126 122 25
132 126 32
128 124 34
127 122 34
129 124 32
127 123 36
130 125 30
125 122 19
124 118 32
134 129 28
126 122 25
128 123 25
127 121 34
119 114 32
124 120 32
123 118 19
124 120 36
135 128 34
125 120 28
129 126 25
122 118 25
126 123 32
125 121 25
113 107 25
142 140 34
130 129 39
139 139 22
129 130 19
138 142 11
142 147 22
140 148 11
138 144 16
150 155 25
155 165 19
154 166 16
159 171 0
154 165 0
155 168 0
156 169 0
162 176 0
158 172 0
163 178 0
163 177 0
165 181 0
161 175 0
163 178 0
163 178 0
163 178 0
166 184 0
167 184 0
160 175 0
163 178 0
163 182 0
165 180 0
165 180 0
165 180 0
162 179 0
168 185 0
160 180 0
167 183 0
162 177 0
166 186 0
165 184 0
168 186 0
165 182 0
167 187 0
169 188 0
168 187 0
198 218 191
199 218 189
200 219 198
198 217 193
198 218 196
206 224 218
204 223 220
205 223 218
203 222 215
203 222 207
208 225 226
208 225 224
205 224 223
206 224 223
206 224 223
206 224 223
207 225 226
206 224 223
205 224 227
207 225 223
205 223 215
210 227 234
205 223 218
203 222 212
207 225 228
211 228 237
206 224 228
206 224 221
208 225 227
207 224 228
206 224 230
209 226 227
209 227 234
207 225 227
208 226 237
208 225 228
207 225 227
211 228 238
210 228 238
207 225 223
211 228 241
212 229 236
208 226 228
209 226 228
210 227 234
210 227 236
211 229 238
207 225 228
210 227 236
208 225 230
208 226 231
209 227 236
208 226 230
205 223 221
208 225 234
208 225 227
208 226 233
210 227 234
206 223 215
208 226 231
207 225 226
206 224 223
209 226 224
208 225 227
205 223 215
207 225 221
204 222 217
208 225 221
207 224 221
208 226 226
207 224 217
204 222 218
201 220 203
202 220 207
203 222 217
196 213 230
185 202 224
177 195 223
166 185 217
165 184 216
158 178 213
154 174 211
130 152 197
124 147 187
124 148 186
112 137 181
105 131 182
102 129 181
95 123 176
102 128 171
89 118 170
78 109 162
77 109 161
74 107 163
82 113 161
75 107 156
71 104 149
81 112 163
75 108 165
78 109 148
68 102 157
71 104 161
62 96 148
63 98 153
67 101 153
67 101 155
62 97 154
66 100 152
61 97 160
65 99 156
65 99 158
61 97 157
61 97 157
63 98 158
59 95 155
60 96 156
61 96 158
61 97 164
59 95 159
61 97 162
62 98 161
61 97 162
62 98 167
60 97 164
60 95 153
61 97 164
61 97 158
61 97 163
61 97 155
61 97 157
61 97 160
61 97 159
61 97 162
62 98 166
60 95 160
60 96 161
61 97 157
61 97 160
62 98 166
60 96 162
61 98 165
62 98 160
61 98 167
61 98 162
62 98 160
61 98 161
61 97 155
62 98 162
61 97 155
61 97 164
62 99 167
61 97 157
62 97 156
61 97 169
61 97 158
61 97 161
60 96 150
61 97 163
61 97 158
61 97 163
62 99 169
62 98 163
62 98 165
61 97 160
62 98 164
60 96 153
62 98 160
63 99 171
62 98 163
61 98 162
61 97 154
62 99 167
62 98 156
61 97 161
62 98 161
62 97 160
63 99 164
62 99 168
61 97 164
61 97 157
62 98 162
62 98 163
62 98 160
62 98 159
62 98 162
62 98 163
61 98 165
62 98 162
61 97 159
61 98 163
62 98 162
62 98 155
63 98 166
61 97 158
62 98 157
62 98 160
62 98 158
61 97 155
62 99 165
62 98 165
63 99 168
62 98 164
62 98 164
62 98 161
61 97 153
62 97 155
62 98 162
62 98 159
62 98 158
62 98 154
62 97 157
61 97 157
61 97 160
62 98 160
61 97 156
61 97 156
62 98 156
62 98 153
61 97 154
61 97 152
60 95 147
61 97 152
62 97 157
62 97 151
60 96 151
61 96 155
61 96 153
62 97 153
62 98 161
61 96 150
62 98 164
61 97 153
61 96 152
62 97 152
62 98 155
62 98 156
62 97 154
61 96 150
62 97 155
62 98 154
61 96 155
60 95 145
60 95 142
61 96 145
61 96 149
61 97 151
60 95 145
60 95 135
61 96 143
61 97 153
60 95 139
60 95 145
61 95 150
61 96 149
62 97 155
59 93 138
59 94 139
60 95 136
60 94 136
56 89 131
59 93 130
58 91 133
60 91 123
90 99 73
96 97 11
103 102 21
108 108 12
105 103 16
97 96 0
86 85 8
84 82 12
97 96 14
94 93 3
83 80 3
91 87 0
77 75 8
85 81 12
86 83 0
94 91 14
88 86 3
84 82 18
83 81 11
98 95 12
88 86 8
93 90 8
101 98 8
88 86 11
95 93 18
107 102 14
105 101 11
98 94 9
103 98 12
99 96 3
112 109 16
102 100 19
106 104 12
106 103 21
108 104 16
117 113 21
118 116 21
118 114 19
123 119 29
108 106 21
114 112 23
118 115 18
123 120 25
119 114 27
117 113 25
124 119 19
124 120 19
120 116 14
124 121 28
116 113 19
130 126 11
119 116 22
126 120 31
118 111 25
113 110 19
131 128 30
126 121 26
134 128 36
133 128 34
131 128 28
135 130 34
125 121 22
130 125 25
121 116 34
123 119 22
127 124 25
130 126 19
129 125 25
133 128 30
131 125 32
134 129 28
127 123 36
131 126 22
132 127 28
130 124 36
117 111 25
127 123 34
124 120 25
129 125 28
130 124 30
125 121 28
130 123 32
115 109 32
126 119 41
117 112 16
122 119 19
124 120 28
118 116 25
123 120 32
132 128 30
129 126 28
128 125 22
130 127 32
126 125 19
142 144 28
127 127 28
137 140 22
140 146 25
144 146 32
137 141 16
143 148 11
149 157 16
158 169 16
149 160 19
156 168 11
157 169 0
157 167 0
161 176 0
162 177 0
156 168 0
160 175 0
162 177 0
163 179 0
164 179 0
161 177 0
163 178 0
163 179 0
165 179 0
161 175 0
163 179 0
168 186 0
165 180 0
168 184 0
165 180 0
164 179 0
161 175 0
166 182 0
165 182 0
165 184 0
164 179 0
169 188 0
166 185 0
168 186 0
165 182 0
169 188 0
164 182 0
166 182 0
199 218 194
201 219 196
201 220 198
204 222 211
202 221 206
203 222 209
205 223 217
202 221 204
206 225 226
204 222 214
202 221 217
207 225 226
204 223 218
208 226 230
204 223 221
203 222 212
207 225 226
206 224 221
208 225 221
206 224 221
205 223 223
206 225 224
210 227 237
209 227 233
210 227 234
209 226 233
209 227 233
209 227 234
212 229 244
210 227 236
210 227 234
210 228 241
208 226 233
211 228 234
209 226 227
208 226 228
209 226 228
211 228 234
210 227 236
207 225 228
206 224 226
208 225 227
208 226 228
211 228 237
211 228 236
208 226 231
210 228 236
208 225 224
210 227 237
210 227 234
207 224 227
206 224 218
208 225 224
211 228 237
209 226 228
209 226 233
208 225 226
210 227 237
210 227 234
207 225 233
210 228 234
212 229 237
210 227 234
209 227 230
209 227 230
211 228 234
211 228 233
206 223 218
208 226 227
207 225 223
205 223 223
206 223 221
207 225 226
205 223 220
205 222 223
199 217 235
185 203 227
182 199 226
168 187 220
157 176 212
154 174 213
153 173 207
146 167 207
137 159 201
133 155 199
129 152 196
115 140 181
114 139 188
88 117 170
98 125 175
84 115 173
72 105 160
80 112 164
88 117 157
67 101 158
75 107 162
76 107 160
86 115 166
71 104 153
65 101 164
75 107 159
69 103 162
65 100 156
67 102 162
64 99 151
68 102 158
65 100 154
64 99 156
69 103 156
62 97 155
61 96 141
63 98 155
62 98 156
63 97 156
61 97 153
63 98 158
64 99 163
62 98 162
63 98 154
61 97 164
61 97 160
61 97 156
62 98 169
61 97 163
61 97 167
60 96 152
61 97 164
60 97 158
61 97 158
61 98 162
61 96 158
61 97 158
61 98 165
62 98 164
61 97 154
61 97 163
61 97 157
61 97 164
60 96 155
62 98 163
61 97 158
62 98 160
63 99 165
60 96 154
62 98 167
62 98 159
62 98 166
61 97 159
62 98 162
62 99 170
61 97 161
62 98 160
62 98 162
63 99 164
62 98 166
61 98 165
61 97 156
62 98 163
61 97 157
62 98 159
62 98 162
61 97 163
62 97 159
61 98 164
60 96 159
61 97 164
62 98 159
62 98 165
61 98 163
61 97 164
62 98 165
62 98 165
61 97 160
62 98 165
61 98 160
61 97 153
61 97 153
62 98 163
62 99 167
61 97 161
62 98 160
62 98 165
62 98 160
61 97 159
62 98 161
62 97 156
62 98 161
61 97 163
62 98 163
61 97 157
62 98 159
62 98 159
61 96 141
62 97 158
61 97 157
62 99 167
62 99 165
61 97 156
61 97 157
62 98 154
62 98 155
61 97 157
61 97 154
63 99 164
61 97 157
62 97 156
61 97 151
62 98 161
62 98 162
61 97 155
62 98 160
60 95 147
61 97 150
61 97 159
62 97 155
62 97 157
61 97 157
61 97 154
62 98 160
61 97 155
62 98 152
61 97 148
61 97 154
62 98 155
62 97 152
62 98 156
62 98 157
62 97 157
61 97 154
60 96 145
61 97 150
61 97 152
61 97 152
62 98 155
62 97 150
62 97 156
62 98 157
62 97 150
61 96 150
61 96 145
61 97 152
62 97 162
62 98 159
61 97 154
61 97 145
60 95 142
60 95 144
60 96 143
62 97 151
61 95 142
60 94 137
60 95 141
61 96 148
61 95 149
60 94 144
60 95 139
60 95 148
60 95 143
61 95 145
58 91 132
55 87 118
59 93 136
59 89 122
95 102 52
103 99 11
104 107 8
104 105 11
105 106 16
96 97 11
96 93 0
95 93 16
98 98 3
94 91 0
91 89 14
93 88 0
88 86 11
82 81 8
88 87 11
91 89 0
92 89 0
100 95 11
87 84 0
101 99 0
98 94 0
92 90 11
98 95 5
112 109 14
98 95 0
97 94 8
99 97 11
106 103 0
108 105 16
106 102 15
104 101 14
100 98 14
104 100 19
109 107 19
105 103 11
128 124 21
121 116 16
115 110 16
115 111 21
110 107 16
118 114 25
124 120 19
101 100 12
111 107 22
112 108 11
118 112 28
123 118 18
121 115 31
121 116 25
118 113 25
123 119 22
121 116 22
115 112 11
116 111 16
124 121 28
122 116 22
116 114 16
129 123 39
124 119 22
121 116 26
123 118 25
133 127 22
117 112 29
120 114 22
117 112 28
127 123 25
131 126 19
125 121 22
120 115 22
117 112 28
130 124 28
122 116 28
126 122 16
120 116 28
121 115 28
123 118 19
121 116 25
128 124 25
126 121 32
118 114 25
128 123 22
122 117 25
118 111 28
125 119 34
123 119 19
130 123 30
124 119 25
124 122 22
124 121 30
135 135 22
132 128 22
127 126 30
135 135 28
130 130 16
137 140 19
141 144 28
133 133 28
144 150 25
144 150 16
154 162 11
139 144 11
150 160 11
148 157 0
156 170 0
162 174 0
159 173 0
155 167 0
159 175 0
161 175 0
156 170 0
162 177 0
158 172 0
161 178 0
167 180 0
164 179 0
157 172 0
165 180 0
164 178 0
164 181 0
164 181 0
161 178 0
162 178 0
163 179 0
164 182 0
166 183 0
162 177 0
164 182 0
164 180 0
164 180 0
167 185 0
165 182 0
170 188 0
167 186 0
166 184 0
163 180 0
164 181 0
166 184 0
196 216 184
204 222 212
201 220 201
205 223 212
205 224 221
205 223 220
206 224 221
204 222 215
205 223 221
208 226 233
206 224 221
206 224 220
210 227 233
206 224 220
204 223 221
207 225 227
208 226 230
206 224 221
211 228 237
209 226 231
209 226 231
208 226 228
206 224 223
210 227 231
207 225 230
209 226 233
211 229 237
209 226 233
210 227 230
209 227 231
206 224 223
210 227 240
209 226 228
208 226 231
209 227 236
205 223 221
208 226 230
210 227 231
208 225 230
211 228 238
212 229 241
207 224 227
210 226 230
206 224 223
206 224 224
204 222 220
209 226 230
210 228 237
208 225 227
209 226 228
207 225 224
207 225 221
209 226 230
206 224 220
208 225 224
208 226 223
209 226 233
206 223 228
210 227 231
209 226 230
210 227 236
208 225 230
209 226 231
208 225 226
212 229 241
212 229 234
208 226 228
209 226 231
207 225 224
209 226 230
209 226 226
210 227 236
208 226 227
206 224 220
202 219 213
195 212 231
199 216 240
178 196 226
171 190 220
183 202 231
165 185 215
151 171 209
158 178 212
146 168 209
138 160 203
132 155 203
116 141 182
103 130 183
89 118 180
82 112 170
82 114 179
73 106 165
71 104 171
76 108 165
77 109 165
79 110 160
73 106 168
84 114 167
73 105 161
73 106 161
76 108 163
71 104 151
61 96 155
70 103 156
68 102 162
63 98 157
62 98 162
69 103 156
63 98 160
61 96 154
62 97 154
69 102 151
64 97 148
60 95 153
64 99 156
62 97 155
63 99 164
61 97 156
61 97 158
60 96 155
61 96 158
60 96 158
60 96 160
60 95 154
61 97 163
61 96 156
61 97 160
61 96 161
61 97 159
60 96 164
60 96 158
61 97 159
61 96 160
61 97 160
61 97 164
61 96 156
62 98 163
61 98 167
61 97 162
61 98 170
61 97 160
61 97 156
61 97 164
61 97 161
62 98 161
60 96 158
61 97 163
61 97 161
61 97 160
62 98 161
62 98 161
61 97 162
61 98 168
62 98 163
62 98 160
62 98 165
62 98 166
62 98 163
61 97 160
60 96 151
60 96 154
62 98 161
62 98 161
62 98 162
62 98 164
62 99 163
61 97 157
62 98 164
62 98 161
62 98 169
61 97 159
61 98 158
62 98 162
61 97 159
62 98 159
61 97 158
62 98 165
61 97 150
63 99 165
62 98 158
62 98 159
62 97 154
61 97 157
61 97 157
62 99 165
62 98 162
61 97 157
62 98 160
61 96 145
62 99 169
62 98 166
62 99 166
62 98 159
62 98 162
62 98 162
61 97 156
62 98 158
62 98 161
62 97 162
61 97 158
62 97 151
62 98 165
62 98 155
61 97 158
61 97 157
61 97 153
62 99 166
61 97 145
62 98 159
62 98 160
61 97 156
62 98 160
62 97 151
61 97 158
61 97 153
61 97 158
62 98 158
62 99 166
62 97 153
62 97 156
62 97 155
61 97 151
62 98 155
62 98 163
62 97 157
62 98 161
61 97 149
62 97 151
61 97 156
61 96 152
62 98 156
62 97 151
61 96 147
62 97 156
61 97 151
61 96 151
61 97 148
61 97 151
61 96 151
62 98 155
61 96 145
61 97 151
61 96 150
60 96 141
61 97 152
62 98 152
61 97 149
60 95 150
62 97 154
61 95 143
60 96 142
61 95 141
62 97 149
61 96 147
59 92 129
60 95 149
59 94 137
62 96 146
60 94 135
59 94 146
60 94 139
58 91 128
66 94 125
100 103 31
106 106 16
101 102 8
101 102 0
98 96 16
99 94 0
94 92 0
81 81 5
100 96 0
95 95 11
96 97 0
102 97 16
88 85 8
82 81 3
88 84 16
91 87 0
96 92 0
80 76 3
101 96 11
89 87 16
92 87 12
100 97 8
93 89 16
102 98 0
98 93 0
102 99 14
104 103 16
111 105 14
107 105 12
107 104 0
104 101 18
104 100 14
110 107 16
104 100 11
104 100 11
92 89 18
115 111 11
101 97 19
102 99 11
107 104 20
120 117 26
112 109 16
109 105 19
109 106 16
121 117 21
114 111 19
115 110 22
117 114 24
106 101 18
130 125 22
119 114 25
119 114 24
118 114 25
123 120 21
118 114 14
121 116 16
125 121 19
118 114 24
126 121 28
113 109 11
115 112 22
127 123 25
123 118 21
124 122 28
120 115 16
116 110 19
126 120 22
117 114 16
128 123 22
126 120 22
121 116 16
120 114 32
129 125 28
126 121 19
124 117 30
122 118 22
124 119 19
122 117 16
115 110 16
121 116 28
124 119 22
127 122 28
116 111 30
124 122 25
122 118 25
128 126 30
130 128 25
117 115 25
132 130 25
130 127 30
135 135 19
129 131 19
139 142 25
130 133 11
141 146 19
134 140 16
132 136 19
147 151 11
145 155 11
152 162 22
151 160 16
152 163 0
156 168 0
154 164 0
155 165 0
159 173 0
157 170 0
159 174 0
167 183 0
160 173 0
163 179 0
161 173 0
157 172 0
155 166 0
162 177 0
160 174 0
164 179 0
166 182 0
165 181 0
160 176 0
159 176 0
167 182 0
164 182 0
162 177 0
168 185 0
161 177 0
167 184 0
165 184 0
166 181 0
164 182 0
168 185 0
166 185 0
165 184 0
164 182 0
168 187 0
167 185 0
166 187 0
204 222 214
204 222 217
206 224 221
203 221 212
208 226 228
204 222 209
204 222 214
206 224 224
207 225 228
208 226 228
205 224 226
209 227 231
206 224 226
208 225 230
209 226 230
207 224 221
211 229 240
212 229 240
207 225 224
210 228 237
211 228 236
209 226 234
209 226 231
206 224 230
210 227 234
208 225 228
208 225 228
210 227 236
208 226 227
210 228 237
210 227 233
206 224 226
210 228 237
203 221 217
210 227 231
207 224 224
205 223 223
202 220 203
206 224 224
209 226 230
201 219 212
206 224 227
206 224 221
203 221 212
204 222 214
209 227 231
205 224 221
207 224 221
209 226 230
201 219 209
205 223 217
206 224 220
205 223 221
204 222 215
207 225 224
207 225 228
208 226 226
205 223 218
210 227 230
209 226 231
207 225 226
210 227 236
212 229 238
210 227 236
205 223 212
212 229 238
208 226 226
210 227 231
210 227 230
211 228 237
209 226 227
213 230 240
205 223 212
206 223 222
205 222 230
187 206 223
185 203 226
184 202 229
184 201 229
172 191 219
150 171 211
159 179 217
136 158 203
141 163 206
135 157 203
142 164 210
127 150 199
108 134 190
109 135 187
100 127 181
91 120 178
81 112 175
71 104 158
82 113 170
81 112 178
72 105 165
64 99 165
73 106 161
83 113 166
75 107 170
68 102 161
69 103 161
67 101 158
68 101 145
61 97 161
69 102 151
64 98 153
69 103 157
61 96 155
63 98 149
62 98 161
64 98 145
62 97 154
68 102 160
63 97 153
60 96 158
61 97 161
61 97 157
62 97 149
60 96 152
59 95 155
61 97 165
60 96 163
61 97 155
61 96 154
62 98 162
61 97 155
60 96 159
60 95 157
62 98 162
61 97 162
61 97 161
62 98 163
61 97 162
62 98 160
61 97 161
62 99 171
61 97 161
61 97 156
62 98 162
61 97 159
62 98 166
61 97 155
61 97 156
60 95 152
61 97 157
62 98 165
62 98 164
61 97 160
62 98 167
61 97 159
61 97 160
61 97 158
61 97 155
61 97 159
61 97 159
62 98 160
61 97 154
61 97 159
61 97 160
61 97 161
62 98 160
61 96 153
61 97 152
62 98 161
62 98 160
62 98 158
61 97 161
60 96 157
62 98 162
62 97 156
62 98 158
61 97 162
61 97 157
62 98 164
62 98 162
62 98 167
62 98 159
62 98 164
61 96 150
61 97 157
61 96 158
61 97 158
62 98 162
62 97 152
62 97 155
62 97 155
62 97 158
61 97 161
62 98 162
61 97 156
61 97 155
62 98 161
62 98 165
62 98 159
60 96 150
62 98 157
61 98 161
61 97 158
62 98 158
61 96 154
61 97 162
62 98 158
61 97 153
61 97 153
62 98 160
62 98 159
62 98 158
62 98 161
62 97 156
62 97 158
63 98 160
61 97 156
60 95 147
62 98 159
62 98 158
61 96 154
62 98 159
62 98 155
61 96 149
61 96 148
61 97 150
62 97 153
63 98 161
61 97 160
61 97 159
63 98 162
61 96 148
60 96 147
62 97 152
61 97 148
61 97 151
62 97 151
61 97 151
60 95 143
62 98 159
61 97 153
60 95 149
61 97 152
62 97 151
62 97 154
61 96 150
62 97 146
61 97 145
60 96 148
60 95 145
60 96 142
61 96 145
62 98 152
60 95 148
61 96 150
59 94 129
60 95 141
60 95 144
60 95 144
60 94 135
60 94 139
61 95 142
60 94 142
56 89 127
59 93 133
59 92 133
58 84 104
109 111 25
102 105 0
110 114 0
106 110 11
101 101 18
108 105 11
107 105 11
99 99 0
92 92 14
100 100 0
104 99 0
102 100 11
100 98 0
101 98 0
104 101 8
91 88 8
95 91 0
87 85 8
95 91 0
94 90 0
96 92 14
90 86 14
86 82 0
93 89 0
87 85 8
98 95 0
100 97 8
107 103 11
92 89 8
97 93 11
98 94 11
105 102 14
103 100 11
116 112 12
104 100 14
109 103 16
116 111 0
104 101 8
110 106 0
105 102 3
108 102 0
108 105 11
115 110 14
113 109 11
119 115 16
120 115 25
111 106 18
122 118 16
114 110 18
116 112 11
122 117 22
120 114 19
114 111 11
125 120 25
115 110 0
124 119 25
116 111 11
128 124 25
114 108 22
119 114 22
120 113 28
118 114 19
108 105 11
124 119 19
132 128 22
124 118 30
120 115 25
127 122 30
111 107 11
119 113 32
132 125 16
128 123 32
118 111 25
119 114 22
120 115 22
116 111 11
120 116 19
115 110 16
119 114 22
126 120 37
116 112 19
121 117 25
131 129 30
127 126 11
129 124 32
126 124 32
125 123 28
129 126 25
118 117 19
134 132 28
140 140 25
138 144 11
130 133 16
140 141 16
134 137 11
144 152 11
145 153 16
151 159 0
145 153 11
155 167 0
154 164 11
154 164 11
154 164 0
166 180 0
162 174 0
159 171 0
157 171 0
160 174 0
165 176 0
162 178 0
161 173 0
159 171 0
160 175 0
154 166 0
161 177 0
157 173 0
164 181 0
164 179 0
157 170 0
162 180 0
165 183 0
164 181 0
161 177 0
165 181 0
165 181 0
162 177 0
164 180 0
160 177 0
166 184 0
158 175 0
168 186 0
163 179 0
159 178 0
165 183 0
167 182 0
163 181 0
165 182 0
202 221 209
204 222 211
202 221 206
206 224 226
208 226 227
204 222 215
203 221 209
201 220 204
208 226 234
207 225 226
209 226 233
206 224 230
204 223 220
207 225 233
207 225 223
212 229 240
210 227 231
209 227 231
209 227 237
211 228 241
208 226 233
211 228 242
204 223 220
209 227 227
207 225 228
210 227 230
204 223 218
205 223 218
207 225 224
203 222 215
205 223 221
206 224 221
207 225 224
206 224 227
202 221 211
201 219 207
200 219 209
204 222 217
199 219 204
205 223 217
200 218 204
202 221 217
203 221 212
203 221 211
200 219 203
197 216 191
200 219 203
202 221 214
203 221 214
202 220 204
201 220 207
201 219 214
201 220 201
204 222 214
204 222 206
206 224 224
203 221 211
204 223 217
205 224 218
205 222 223
207 225 221
206 223 220
208 226 226
204 222 215
206 223 215
208 225 228
207 224 224
207 224 227
208 226 228
211 228 234
210 227 227
203 221 217
207 224 224
204 221 223
203 220 233
183 200 220
184 202 225
167 186 220
172 191 225
160 180 218
153 173 213
151 172 210
140 162 205
145 167 207
137 158 196
119 143 195
137 160 204
109 135 190
107 133 190
108 134 186
94 122 181
90 119 181
84 114 176
75 107 167
79 110 176
84 114 171
75 107 169
83 113 168
81 111 157
69 103 167
72 105 162
68 102 161
79 110 164
68 103 164
70 103 160
71 104 160
66 100 153
69 102 154
67 101 154
61 97 161
66 101 158
62 97 155
66 100 149
62 98 151
61 96 150
59 94 157
63 98 155
61 97 160
61 97 162
61 97 160
60 96 157
61 97 160
61 96 158
61 97 157
60 96 158
62 98 160
60 95 155
60 96 157
60 96 158
61 97 162
61 96 158
59 95 155
62 98 161
60 96 161
59 95 155
61 98 160
61 97 155
61 97 158
61 97 161
61 97 159
61 97 155
61 96 151
62 98 167
61 97 166
61 97 156
61 97 157
60 95 151
62 98 162
61 97 158
62 98 161
61 96 155
61 97 159
61 98 163
61 98 162
61 97 162
61 97 160
62 98 160
60 96 151
62 98 159
62 98 164
61 97 159
62 97 154
62 98 164
62 98 161
61 97 159
61 97 155
61 98 161
62 98 162
62 98 163
62 98 158
61 97 157
62 97 155
62 98 159
62 97 155
62 99 165
61 98 159
62 98 157
60 96 158
62 99 163
62 97 154
61 97 160
61 97 159
61 97 159
62 98 163
61 97 161
62 98 159
61 97 161
62 98 159
61 97 153
62 98 164
62 98 157
62 98 162
62 98 150
61 96 154
62 98 157
62 98 157
61 97 148
61 96 145
62 97 161
62 98 163
61 97 152
61 97 149
61 96 152
62 98 161
62 98 161
62 98 160
63 99 161
62 98 154
63 99 163
62 97 152
62 97 153
62 98 159
61 97 156
61 97 153
61 97 153
61 96 155
61 96 152
62 98 155
62 97 148
61 96 154
61 96 151
62 98 156
60 96 145
62 98 162
61 96 148
61 97 149
60 96 144
61 96 145
62 98 160
61 97 153
61 97 151
60 95 145
62 98 157
63 98 160
60 95 151
61 97 156
61 96 147
62 98 155
61 97 154
61 97 152
60 95 143
60 96 143
60 96 146
61 97 152
61 97 143
61 96 143
61 96 149
60 94 135
61 96 149
60 95 144
61 96 148
61 97 150
60 94 142
59 93 137
61 95 131
61 96 143
61 96 148
58 91 132
59 93 133
60 93 135
57 90 119
57 89 132
87 102 82
107 110 0
113 116 0
103 105 0
112 113 0
110 114 0
94 98 0
102 102 0
95 94 11
95 94 0
95 96 0
87 86 11
88 86 8
94 93 11
108 106 11
92 93 8
86 84 8
88 86 16
89 85 14
85 81 8
94 90 11
83 79 14
82 78 0
97 93 8
93 90 0
99 97 0
97 93 14
110 105 11
85 83 0
102 98 0
111 105 0
104 100 28
107 101 0
91 89 16
108 104 16
99 97 11
106 103 14
111 107 16
110 108 11
110 107 11
112 109 0
113 109 19
118 114 16
108 104 8
116 112 22
111 107 22
113 109 18
113 110 16
105 102 11
114 109 26
117 112 0
114 109 11
105 103 14
119 114 22
112 109 14
114 109 19
124 120 19
120 116 16
121 115 22
113 109 11
124 119 19
124 118 28
121 115 22
124 119 25
121 117 11
117 113 11
118 115 16
118 113 19
120 115 22
124 118 22
120 116 19
126 121 22
122 115 25
122 119 16
120 114 28
114 110 11
121 115 30
116 111 16
121 114 19
131 126 25
114 110 19
120 114 22
127 120 25
125 123 30
119 113 28
131 129 22
130 130 19
123 120 19
130 132 11
129 128 19
129 131 25
134 133 19
138 143 25
132 134 11
146 151 22
145 153 16
150 158 16
145 153 19
145 154 0
151 161 0
149 160 0
152 162 11
157 169 0
158 170 0
162 175 0
157 170 0
158 171 0
163 178 0
163 177 0
162 177 0
157 173 0
158 173 0
163 179 0
161 176 0
165 181 0
156 171 0
162 177 0
160 174 0
164 180 0
163 181 0
160 176 0
163 179 0
162 177 0
161 176 0
166 183 0
168 185 0
170 185 0
165 181 0
163 181 0
170 188 0
169 187 0
167 186 0
163 182 0
162 182 0
163 180 0
162 179 0
165 182 0
164 183 0
205 223 212
209 226 231
209 226 231
206 224 218
205 223 220
205 223 215
207 225 223
208 226 233
205 223 217
209 227 233
209 226 233
209 226 233
207 225 224
211 227 234
212 229 240
209 226 231
211 228 238
209 227 233
209 227 236
206 224 226
208 226 224
203 221 215
207 224 218
207 225 221
199 217 207
208 225 223
201 220 211
205 223 218
202 221 220
203 222 217
198 218 196
203 221 214
200 218 204
202 221 212
200 219 203
205 223 215
199 219 199
197 216 186
195 215 184
198 217 198
201 219 199
199 219 199
199 218 207
197 216 191
203 222 209
195 215 186
197 215 188
199 219 199
199 219 196
196 216 193
199 217 199
202 220 203
198 217 194
204 222 209
195 214 186
202 221 206
198 217 199
205 223 215
200 219 198
203 221 207
206 224 221
207 225 224
204 223 221
204 222 215
203 222 214
207 225 221
207 225 227
206 224 220
208 225 223
206 224 224
206 223 220
208 225 224
204 222 217
195 213 224
199 216 229
194 211 230
183 200 228
176 195 223
163 183 213
167 186 221
156 176 209
149 170 211
149 170 207
140 161 203
148 169 211
124 147 194
128 152 194
127 150 199
118 142 195
110 135 187
108 134 188
79 110 170
78 109 169
85 115 174
81 111 170
73 106 168
74 107 173
73 106 171
76 108 172
79 110 163
73 105 169
76 108 162
65 100 158
67 101 151
65 99 157
65 100 163
63 98 158
71 105 156
68 102 157
70 104 162
66 100 153
60 95 155
63 98 164
67 102 163
61 97 158
62 96 140
60 96 157
60 96 156
60 96 156
62 98 162
61 98 164
60 97 160
61 96 158
60 96 156
59 95 152
61 97 160
60 96 153
61 97 167
61 97 154
61 97 154
61 97 159
60 95 152
61 98 163
61 98 164
60 96 153
61 97 155
61 97 161
60 97 158
62 98 163
60 96 154
60 96 153
61 97 157
61 97 161
62 97 160
61 98 167
62 98 163
60 96 157
62 98 166
61 97 155
63 99 161
61 98 159
62 98 160
61 98 162
62 98 165
61 97 153
62 97 158
61 97 163
61 97 160
61 97 152
62 98 162
62 98 163
62 98 156
62 98 156
61 97 158
62 98 163
62 98 161
60 96 149
61 97 155
61 97 157
62 98 157
61 97 158
62 98 163
62 98 162
62 98 161
62 98 158
61 97 154
62 98 157
61 97 156
61 97 160
62 98 164
61 97 156
61 97 156
62 98 163
63 99 166
62 98 158
61 97 155
62 98 162
61 97 157
61 97 156
61 97 157
61 97 156
62 98 161
62 98 163
61 97 156
63 99 161
62 97 159
62 97 152
61 97 157
62 99 169
62 98 162
60 96 149
62 98 164
61 97 158
62 98 167
61 97 154
62 98 163
62 97 158
62 97 153
63 99 166
61 97 157
62 98 155
62 98 157
62 98 160
62 97 154
62 98 160
62 97 154
62 98 159
62 97 153
61 97 150
61 97 159
62 98 159
62 97 152
61 97 153
61 97 152
62 97 152
61 97 153
61 97 149
62 97 152
61 96 156
61 97 158
61 97 148
61 96 144
62 97 151
62 97 147
60 96 147
63 99 159
61 96 149
61 96 145
62 98 156
61 97 155
61 97 149
60 96 144
62 97 150
60 95 138
61 96 147
60 95 145
61 96 147
61 97 149
61 96 144
60 95 136
60 94 147
61 97 151
62 97 150
59 93 132
60 94 137
60 94 137
59 93 132
60 94 138
59 92 140
60 94 132
58 92 128
57 89 126
100 110 60
118 122 11
117 120 0
113 117 11
109 111 11
104 104 0
114 119 11
96 97 0
101 99 19
94 97 0
97 95 0
104 106 0
93 93 0
99 98 0
96 93 0
87 85 11
98 94 0
89 84 8
91 90 8
101 98 8
99 95 8
93 90 0
101 96 0
91 87 0
100 92 11
104 101 0
99 96 0
96 91 16
102 99 8
92 88 8
94 91 0
98 95 0
89 86 16
107 102 0
109 104 11
101 97 11
108 105 11
101 97 0
101 97 8
118 113 8
107 103 11
104 99 0
107 102 19
111 108 11
114 109 14
112 109 16
117 112 0
124 118 16
106 103 8
119 113 16
114 109 19
113 110 19
118 115 19
119 116 16
105 102 11
104 101 16
121 116 19
122 117 11
113 109 11
121 116 11
122 117 16
107 104 11
115 110 22
118 113 16
115 110 19
120 114 19
113 106 16
123 118 16
121 115 22
130 123 25
112 106 19
119 115 19
121 117 16
118 114 16
125 120 19
126 122 19
121 118 19
122 119 11
120 114 16
114 108 22
116 112 19
127 123 22
119 116 25
125 123 11
120 119 22
128 128 19
126 127 11
130 128 30
128 130 11
137 139 22
135 138 0
143 148 16
137 140 25
139 142 11
132 137 11
144 150 11
147 155 11
145 152 0
147 155 11
151 162 0
157 170 0
150 156 0
162 173 0
155 168 0
154 163 0
156 168 0
158 171 0
154 167 0
159 171 0
159 170 0
162 177 0
161 176 0
158 172 0
160 173 0
168 183 0
161 175 0
163 179 0
163 180 0
162 177 0
163 179 0
161 177 0
162 177 0
161 178 0
164 181 0
166 182 0
169 186 0
161 177 0
163 180 0
164 179 0
157 174 0
166 184 0
163 180 0
165 184 0
167 183 0
164 183 0
168 188 0
166 187 0
166 184 0
207 225 228
207 225 224
204 223 227
207 225 223
207 225 224
209 226 230
208 226 227
205 223 220
211 228 236
210 227 234
208 226 231
208 226 233
209 226 230
207 224 230
212 228 236
207 224 226
209 226 233
209 227 233
201 219 211
204 222 217
207 225 220
203 221 207
205 222 218
203 221 211
201 220 206
200 219 203
200 219 199
201 220 207
201 220 199
199 218 198
197 217 193
196 216 188
199 218 199
193 213 188
195 215 189
198 217 203
197 217 191
196 215 191
199 218 199
195 214 184
200 219 193
192 212 175
197 216 181
197 217 189
196 215 188
195 215 186
195 214 181
196 215 182
194 213 182
196 215 189
194 214 181
195 215 182
199 218 196
198 217 186
194 214 175
192 212 186
198 217 189
192 212 181
197 216 186
199 218 198
200 219 198
196 215 188
198 217 186
201 220 207
202 221 204
200 219 206
201 220 204
204 222 211
205 222 214
207 225 218
205 223 221
210 227 233
199 216 222
200 217 230
191 209 225
184 202 222
190 208 228
179 197 227
176 195 220
164 184 214
167 187 215
159 179 214
147 168 211
153 174 209
141 163 205
139 161 200
132 155 200
139 161 205
121 145 194
119 144 198
102 129 179
99 127 184
90 119 176
95 123 179
76 108 172
77 109 177
77 109 171
80 111 166
68 102 170
67 101 165
77 109 167
77 108 162
72 105 162
73 105 164
68 102 165
60 96 158
67 101 150
64 98 153
65 100 163
66 100 160
62 97 158
67 101 155
63 98 157
75 106 154
67 101 156
68 101 159
61 97 158
60 96 158
63 98 161
61 96 155
59 95 151
59 94 146
60 96 151
61 97 159
61 97 160
60 96 151
61 97 158
61 96 157
60 95 152
61 97 158
60 95 150
61 97 159
62 98 164
61 97 153
60 95 149
61 97 157
61 98 161
60 95 153
60 96 151
61 96 160
61 97 156
61 97 157
61 97 158
62 98 164
61 97 156
61 97 160
60 96 150
61 97 157
62 98 158
61 97 156
62 98 164
61 97 157
61 97 157
60 96 154
61 96 153
62 98 165
61 97 155
61 96 155
62 97 162
60 96 156
61 97 164
61 98 163
61 96 149
62 98 163
62 98 163
63 99 166
62 98 160
61 97 157
62 98 155
62 98 162
61 97 156
61 97 152
62 97 152
62 98 156
62 98 159
61 96 150
61 97 156
62 98 158
62 97 154
62 98 158
62 98 162
62 98 164
63 98 163
62 98 157
62 98 158
63 98 164
62 98 163
62 97 151
62 98 162
62 98 159
61 96 154
62 97 152
62 98 158
61 96 152
61 96 149
62 98 158
62 98 162
62 98 158
63 99 164
61 97 151
62 97 158
61 97 156
62 98 158
61 97 157
62 98 159
61 97 151
62 98 157
62 97 156
62 98 159
62 98 156
62 98 163
62 98 163
62 98 160
61 97 153
62 97 158
61 96 151
61 97 153
61 97 152
62 98 156
61 96 147
61 97 145
63 99 162
61 97 149
62 98 153
61 96 148
61 97 153
61 97 147
61 96 147
62 98 154
60 96 147
61 96 151
61 96 147
62 97 149
62 97 151
61 97 151
62 97 153
61 97 149
60 95 139
61 97 148
60 95 132
62 97 158
61 96 150
62 97 150
60 96 142
59 94 146
61 96 148
60 95 144
61 96 148
60 95 141
60 95 142
59 93 140
61 95 147
61 95 142
59 94 133
59 93 138
59 93 135
60 94 133
59 93 133
58 92 127
59 93 138
58 91 129
61 91 114
114 123 44
115 119 0
115 120 0
107 107 0
92 95 0
102 106 0
102 99 0
96 99 0
97 96 11
95 96 0
101 101 0
101 104 0
90 89 0
94 94 0
100 99 0
99 98 0
92 91 0
92 90 0
98 97 8
97 98 0
95 92 8
92 88 8
101 98 0
94 91 14
99 94 8
87 83 3
103 99 8
100 96 0
98 94 0
93 88 0
92 89 0
95 91 8
95 91 8
97 93 0
96 93 3
100 96 11
93 89 0
104 99 14
98 93 0
96 93 0
113 107 0
107 102 8
107 104 11
103 98 11
102 97 14
100 94 0
107 104 8
107 101 16
115 110 22
114 110 16
113 109 11
123 117 28
114 110 16
110 106 16
111 106 19
116 111 11
124 118 16
111 107 0
112 108 16
113 109 16
115 110 16
114 109 11
109 106 11
109 105 19
116 112 19
113 110 25
115 110 16
121 115 16
123 117 19
114 109 19
120 113 22
116 112 19
121 116 19
120 116 16
114 111 11
124 120 22
113 108 19
120 115 11
129 126 25
128 122 22
126 121 25
115 113 16
122 120 19
124 121 22
122 122 19
121 120 0
126 126 11
131 134 11
138 140 11
140 142 16
131 136 16
136 139 11
138 141 11
147 154 11
147 153 0
142 150 11
149 156 0
151 159 11
150 161 0
155 164 0
149 160 0
154 164 0
151 160 0
160 171 0
164 181 0
153 165 0
154 168 0
163 179 0
156 170 0
161 175 0
156 168 0
154 168 0
160 175 0
158 170 0
163 178 0
158 170 0
156 171 0
161 174 0
163 179 0
162 179 0
163 178 0
160 175 0
166 183 0
165 183 0
161 178 0
165 181 0
161 181 0
163 179 0
162 180 0
165 183 0
166 184 0
165 183 0
165 183 0
165 185 0
165 181 0
171 188 0
168 186 0
166 183 0
205 223 215
203 222 212
209 227 236
205 223 223
209 227 233
206 223 223
211 228 238
207 225 228
206 223 224
207 224 230
208 226 230
207 225 228
209 226 233
205 223 220
210 227 230
206 224 224
205 223 221
205 223 221
206 223 217
206 223 217
205 223 212
202 220 203
198 218 193
203 221 211
200 219 198
193 214 184
195 215 189
197 217 193
197 216 193
198 217 191
198 217 184
199 218 199
194 214 186
197 216 186
192 212 182
189 209 167
191 211 163
191 212 171
190 211 167
189 210 157
192 212 169
195 214 184
191 211 161
191 212 171
194 213 175
192 212 175
193 213 179
193 214 182
195 215 182
192 211 169
192 212 171
194 214 173
192 212 175
193 213 161
192 212 169
194 214 177
193 213 179
192 212 169
195 215 175
198 217 193
193 214 177
195 215 184
194 213 182
199 218 193
198 217 199
202 220 198
202 221 207
198 217 191
200 219 198
199 218 201
203 221 209
201 218 220
192 210 219
196 213 227
189 206 228
198 216 235
176 195 217
186 204 234
161 181 211
167 186 211
165 185 217
163 183 213
151 173 211
143 164 205
152 173 213
144 166 209
136 158 199
126 150 201
121 145 197
112 137 193
114 139 189
106 132 187
101 128 186
98 126 184
91 120 183
73 106 170
73 105 170
77 109 172
65 100 164
74 106 164
70 103 165
73 106 169
65 101 166
75 107 166
68 103 170
72 105 148
72 105 165
69 103 158
64 99 163
63 99 164
65 99 155
62 98 161
60 96 158
60 95 151
60 96 150
61 97 163
65 99 155
64 98 149
61 96 155
60 96 156
60 95 143
61 97 157
61 97 158
61 97 162
60 95 155
60 95 153
61 96 157
60 96 159
60 95 151
60 95 158
61 97 156
62 98 163
61 97 160
60 95 151
61 97 155
61 97 159
61 97 154
60 95 154
61 97 156
60 96 148
60 95 147
60 95 153
62 98 161
62 98 163
61 97 156
61 97 155
61 96 156
62 98 160
61 97 156
61 96 156
61 97 160
61 97 160
62 98 158
61 97 161
61 96 151
61 97 156
61 96 151
61 97 161
61 97 158
61 97 155
61 96 158
61 97 156
61 97 158
61 97 152
62 98 165
61 97 157
62 98 163
60 95 145
61 97 157
61 96 151
62 98 163
62 98 163
60 96 153
61 97 154
61 98 159
62 98 160
63 99 160
63 99 163
60 96 154
61 96 150
61 97 152
62 98 160
62 98 158
62 98 158
61 96 150
61 96 153
61 97 155
62 98 164
61 97 160
62 97 158
62 98 155
62 98 158
61 98 161
61 97 157
61 97 157
62 98 162
62 98 158
62 97 157
61 97 152
61 97 156
61 97 156
63 99 164
61 96 147
62 98 160
60 96 151
61 97 152
60 95 148
62 98 165
62 98 159
61 97 154
62 98 162
62 97 154
62 98 157
61 97 152
61 97 157
62 98 158
61 97 151
62 97 153
63 98 155
61 96 154
61 97 152
62 98 155
61 96 145
61 96 148
62 98 157
62 98 155
62 98 158
61 97 149
61 97 151
60 95 140
62 97 149
61 96 147
62 97 150
62 97 156
62 97 154
61 97 154
61 96 148
60 95 142
61 97 150
60 95 143
62 97 152
61 97 154
61 96 150
60 95 148
60 95 141
61 96 150
61 96 144
62 97 151
61 96 150
61 96 143
60 94 140
61 96 140
61 97 147
60 95 140
59 93 134
60 95 134
60 95 142
58 91 127
57 90 122
59 92 134
60 94 138
63 90 112
116 124 31
113 118 0
117 122 16
131 136 0
115 122 0
113 119 0
92 95 11
108 107 0
110 113 0
90 93 0
109 109 0
94 94 0
86 86 0
95 95 0
92 92 0
85 85 0
92 90 0
88 87 11
93 94 0
89 86 0
93 92 0
93 89 0
86 85 8
102 98 11
100 96 0
98 94 0
101 98 0
97 94 11
108 103 0
100 96 8
96 93 0
85 81 0
93 89 0
94 89 0
102 97 3
102 98 0
106 102 11
101 96 11
101 97 0
101 98 8
104 100 0
108 102 11
107 104 0
114 109 0
103 99 0
97 94 0
103 102 16
116 111 16
113 108 11
112 108 11
101 98 0
110 106 11
116 110 0
115 109 25
112 108 0
110 106 0
123 118 11
112 107 11
113 106 0
124 118 19
111 105 19
111 107 0
116 112 16
112 107 16
102 99 0
119 115 19
120 114 16
104 99 11
120 115 19
114 108 16
119 114 11
116 113 11
120 115 11
116 111 19
119 114 11
121 117 25
119 113 16
120 115 19
124 121 22
129 127 19
120 119 16
122 119 0
131 131 11
122 123 0
134 134 16
139 138 22
128 128 11
134 134 11
134 133 19
133 137 16
146 151 0
142 148 0
149 158 0
142 147 11
143 150 0
148 159 0
155 165 11
150 159 0
146 152 0
154 161 0
155 166 0
156 168 0
156 167 0
156 168 0
160 174 0
156 168 0
156 166 0
158 170 0
158 170 0
162 176 0
160 173 0
162 174 0
161 174 0
161 176 0
162 174 0
159 172 0
163 176 0
157 171 0
161 175 0
163 180 0
165 181 0
168 185 0
160 177 0
163 178 0
161 180 0
164 181 0
162 177 0
162 180 0
162 178 0
161 179 0
169 189 0
166 182 0
161 177 0
163 179 0
161 178 0
165 182 0
165 183 0
164 182 0
204 221 218
207 225 223
206 224 221
204 222 220
208 226 228
208 225 228
208 225 226
210 227 231
207 225 221
209 227 231
207 225 223
205 222 218
208 225 227
205 224 218
202 220 214
207 225 226
199 218 207
200 219 206
201 220 203
197 217 206
194 213 181
197 216 194
202 221 203
197 216 186
196 216 191
196 216 182
190 210 169
193 213 179
191 211 171
192 211 169
191 211 171
187 208 159
192 213 171
187 209 161
191 211 163
187 208 165
187 208 149
190 211 157
196 215 179
191 211 165
192 213 165
186 208 157
193 213 177
189 210 155
192 212 159
187 207 142
189 209 151
186 207 144
188 209 153
193 213 171
190 210 157
183 205 133
188 209 153
194 214 175
188 209 161
192 212 165
189 210 159
185 206 142
191 212 171
190 210 165
190 211 165
190 210 155
196 216 188
195 214 186
191 211 163
194 214 177
191 211 175
194 214 171
198 217 196
198 217 199
202 220 209
190 208 205
186 204 219
187 205 214
178 197 220
169 188 211
175 194 221
167 186 214
158 178 208
159 179 203
152 173 204
154 174 200
153 173 203
136 158 199
143 165 203
147 168 204
129 152 200
128 151 194
120 145 195
134 157 200
105 131 190
117 142 195
99 126 186
96 124 188
104 130 187
75 107 163
79 111 178
62 99 171
84 114 174
78 109 168
74 106 169
63 99 162
72 105 170
61 97 160
72 105 165
69 102 155
66 100 163
73 105 157
63 99 165
69 102 157
63 98 155
61 96 154
65 99 151
60 95 151
65 99 151
64 99 155
62 97 154
59 95 156
60 96 148
60 96 155
60 96 152
60 96 150
61 97 159
60 96 158
60 96 155
60 96 155
61 96 160
60 95 151
61 97 158
61 97 162
60 96 145
59 95 150
61 97 159
61 97 164
60 96 148
61 98 168
61 97 155
61 97 159
61 97 158
61 97 159
61 97 160
60 96 156
62 98 164
62 98 155
61 97 160
61 97 155
62 98 166
61 97 156
61 97 164
62 98 159
61 97 161
61 97 158
61 96 156
60 96 154
61 97 158
62 98 158
61 97 157
61 97 161
62 98 158
62 98 163
62 97 160
61 97 159
61 97 158
61 97 154
61 97 157
61 97 156
62 98 156
61 97 155
60 96 151
61 97 150
61 97 158
61 97 156
60 96 153
63 99 166
62 98 159
61 97 154
61 97 153
61 97 151
61 96 156
62 98 160
62 98 157
61 97 157
62 98 161
62 97 159
63 99 167
62 98 160
61 97 152
61 97 156
60 96 152
62 98 161
62 98 160
62 98 160
61 97 156
62 97 158
61 97 153
61 97 156
60 96 153
60 95 142
61 96 150
62 98 160
61 97 162
61 97 152
62 98 157
62 98 159
62 97 158
62 98 160
61 97 151
62 97 155
61 97 149
61 97 150
62 98 160
62 98 161
61 97 158
62 98 154
62 98 156
61 97 152
62 97 153
62 98 156
61 96 149
61 96 151
60 95 142
60 95 149
61 97 149
61 97 151
61 96 145
60 96 144
61 96 145
62 98 155
61 96 140
62 97 153
61 96 150
60 96 147
62 98 157
61 97 153
61 96 150
60 95 145
61 96 143
61 97 151
60 95 143
61 97 150
62 97 151
60 95 139
61 96 144
61 97 151
61 97 148
62 97 148
61 96 148
60 95 139
61 95 143
60 95 143
60 95 145
59 94 141
60 95 143
60 94 142
59 93 135
61 95 148
58 92 133
60 95 141
59 93 138
59 93 133
61 95 137
83 104 97
116 121 0
116 120 0
120 124 0
114 117 0
114 116 11
112 118 0
98 101 0
112 113 0
102 104 0
107 107 0
108 108 0
101 106 0
100 101 0
109 111 11
86 85 0
110 110 11
101 99 0
101 98 0
102 99 11
103 99 11
110 106 0
95 93 8
102 102 0
98 95 8
90 89 0
92 88 0
105 101 11
93 89 0
89 85 0
97 92 0
98 92 0
97 94 0
101 97 0
97 94 0
97 94 8
82 80 8
96 92 0
99 95 0
99 96 0
111 105 0
99 96 0
102 98 11
107 101 0
114 109 16
118 111 16
104 100 0
110 105 11
107 102 11
104 99 0
106 100 0
100 97 11
109 105 11
106 101 16
100 96 0
118 112 16
113 108 11
109 105 11
110 103 11
111 106 11
110 107 11
110 105 19
111 104 11
117 114 16
120 116 19
123 119 25
109 104 11
117 112 16
123 118 0
117 113 16
119 113 11
126 121 16
116 113 16
127 124 0
116 110 11
127 123 22
124 121 16
124 122 19
131 131 16
121 120 16
112 111 0
117 115 16
127 126 16
129 126 16
138 138 16
136 136 11
133 134 19
137 140 19
125 126 0
130 133 16
137 139 11
144 150 11
139 144 11
134 140 11
147 154 19
138 142 0
146 157 11
154 164 0
152 161 0
158 167 0
159 172 0
158 169 0
155 164 0
151 162 0
159 169 0
153 164 0
158 172 0
159 172 0
156 168 0
164 177 0
155 167 0
158 170 0
160 172 0
159 171 0
156 167 0
156 170 0
165 182 0
162 177 0
164 179 0
166 184 0
163 178 0
157 172 0
164 180 0
168 185 0
165 182 0
161 173 0
165 180 0
164 182 0
165 181 0
164 180 0
163 181 0
165 183 0
165 183 0
164 182 0
167 184 0
166 184 0
165 182 0
160 177 0
165 182 0
204 223 220
209 226 231
209 226 230
211 229 240
207 224 224
211 228 238
209 226 226
205 224 227
208 226 233
205 223 220
202 220 206
202 220 211
199 218 199
203 221 207
200 219 203
201 220 207
199 218 203
196 216 191
195 214 191
196 215 184
193 214 179
194 214 173
194 214 173
194 214 184
196 216 188
192 212 175
188 209 165
194 214 179
188 209 151
191 211 163
191 211 157
184 205 135
188 209 149
187 209 149
193 213 167
192 212 157
183 205 128
188 209 149
185 206 137
182 204 117
188 209 144
188 209 153
182 204 122
185 206 130
189 210 167
186 207 147
185 206 142
180 202 120
187 208 149
187 208 149
188 209 155
188 209 155
186 207 142
186 207 144
187 209 149
185 206 135
187 208 155
183 204 135
186 208 153
188 208 159
185 207 151
189 210 157
193 213 171
192 213 169
190 210 149
191 211 165
188 209 171
192 212 173
194 214 181
193 213 169
195 215 179
173 192 195
174 192 204
167 187 207
170 190 213
162 182 211
164 185 207
168 187 209
163 182 207
147 168 205
156 176 209
150 171 209
137 159 203
135 158 196
144 166 203
138 160 202
137 159 203
120 144 199
129 153 197
123 147 199
113 138 191
106 133 189
89 119 179
99 126 191
104 131 191
89 119 182
77 109 174
83 113 171
81 112 174
74 106 168
76 108 169
71 105 178
71 104 171
74 107 175
71 104 169
72 104 160
71 104 166
73 105 170
61 97 167
61 97 161
64 99 163
72 104 154
67 102 160
64 98 154
66 101 156
63 97 157
62 97 156
62 97 159
60 96 156
60 96 157
66 100 150
60 95 157
60 95 141
61 96 147
62 97 153
60 96 154
61 97 155
61 97 152
62 98 164
61 96 158
61 97 152
61 97 153
61 97 154
61 96 158
60 95 148
61 97 161
61 96 160
61 97 161
60 96 161
60 96 154
62 97 163
61 97 159
61 97 157
62 97 156
59 95 151
62 98 163
60 96 156
61 97 154
61 97 162
61 97 153
62 98 158
61 97 157
61 97 148
62 98 158
61 97 158
62 98 160
61 97 163
61 97 160
61 97 153
61 97 158
61 96 154
62 97 153
61 97 161
61 97 161
61 97 156
61 97 156
62 98 166
61 97 151
61 97 157
62 98 163
61 97 155
62 97 153
61 97 162
61 97 160
61 97 154
61 97 154
61 97 157
61 97 155
61 97 151
60 96 156
62 98 156
62 98 157
61 97 157
62 98 161
61 97 153
62 98 155
62 98 159
62 98 156
62 98 166
62 98 158
62 98 156
62 98 159
60 96 150
62 98 158
62 97 154
61 97 154
62 98 158
61 96 150
61 96 153
62 98 159
61 97 152
62 98 157
61 97 156
63 98 160
60 96 153
62 98 159
62 98 157
61 97 149
62 98 154
61 97 149
61 97 152
62 98 158
61 97 154
62 98 155
63 99 160
61 97 154
62 97 157
61 96 152
62 97 152
61 97 148
62 98 160
62 97 153
62 98 158
61 97 155
62 98 156
60 96 143
61 96 151
62 98 157
61 96 145
60 95 145
62 98 155
61 96 145
62 98 155
60 96 144
62 98 158
60 96 143
60 95 147
61 96 145
61 96 145
60 95 142
60 95 139
61 96 145
61 96 147
60 94 139
60 95 136
61 96 147
60 95 141
61 96 139
60 95 143
58 92 130
61 96 141
59 93 133
60 95 139
60 95 142
59 93 130
60 95 134
58 92 127
59 92 126
58 92 129
59 93 128
58 90 123
96 110 90
122 128 0
120 125 0
120 124 0
115 118 0
107 112 0
104 109 0
106 109 8
107 108 0
104 105 0
110 110 0
98 103 0
96 94 0
97 98 0
94 91 0
76 76 0
97 96 0
96 97 14
88 88 0
95 90 0
94 91 0
94 92 0
109 105 0
95 93 0
105 104 3
102 99 0
99 96 0
102 98 8
98 94 0
91 88 0
99 95 0
89 86 0
101 97 0
103 99 0
100 94 0
95 92 0
109 104 3
92 89 11
93 90 0
101 97 0
97 93 0
99 95 0
101 98 0
109 105 0
111 106 11
104 101 11
108 104 16
94 91 11
98 94 11
97 94 0
111 104 0
105 98 0
92 87 11
108 103 0
108 103 0
110 106 11
113 107 11
120 114 0
120 114 11
115 113 0
108 104 0
115 111 0
112 107 0
118 113 22
123 119 16
114 111 11
112 106 11
117 111 0
107 105 0
115 111 11
115 111 0
114 111 16
125 119 19
118 115 16
115 110 11
122 118 16
133 130 11
124 122 0
126 121 19
120 122 16
116 115 16
130 129 16
126 126 0
130 130 22
133 134 11
141 144 22
134 137 16
140 146 16
135 138 0
147 155 11
129 130 0
138 142 16
139 146 11
146 151 11
151 159 11
154 163 0
152 160 11
155 165 0
151 161 0
159 171 0
157 169 0
160 172 0
162 171 0
157 167 0
155 165 0
150 161 0
162 177 0
151 165 0
162 178 0
162 176 0
157 172 0
158 170 0
165 179 0
161 173 0
159 175 0
158 173 0
165 180 0
157 172 0
163 177 0
157 171 0
164 180 0
162 176 0
163 179 0
159 172 0
163 178 0
160 175 0
164 182 0
160 177 0
162 178 0
164 180 0
166 183 0
165 181 0
166 183 0
167 185 0
164 182 0
164 182 0
170 190 0
168 186 0
170 188 0
209 227 231
210 227 234
208 225 230
211 228 238
209 226 228
208 225 223
206 223 220
206 224 223
202 221 215
206 224 223
201 219 211
203 222 206
199 218 201
196 215 182
200 218 201
195 215 188
202 221 209
196 216 193
196 216 186
193 212 165
196 215 182
191 211 177
194 215 182
193 213 161
189 210 149
189 210 157
185 206 135
187 208 149
187 208 151
192 212 171
185 207 153
181 203 133
186 208 137
183 204 135
187 208 142
186 208 149
184 205 135
185 206 135
180 202 122
185 206 137
178 200 117
182 203 120
179 201 122
183 204 128
185 205 142
179 200 102
182 205 122
184 205 133
183 205 135
185 206 130
183 205 128
184 207 137
178 199 108
183 205 125
184 206 130
185 206 137
184 205 125
186 207 137
184 206 137
188 209 144
187 208 142
187 208 155
185 206 133
181 202 133
189 210 161
188 208 153
187 208 140
187 208 163
189 209 161
197 216 179
196 215 184
173 194 197
162 182 201
176 195 210
154 175 188
163 183 202
166 185 204
165 185 201
160 180 207
154 174 200
161 181 205
140 161 195
142 164 194
134 157 203
136 158 194
126 150 195
128 151 194
116 141 188
115 140 184
132 155 201
122 146 188
111 137 188
96 124 187
106 132 188
83 114 174
82 113 180
91 120 182
91 120 183
71 105 170
79 111 176
68 103 175
77 110 181
76 108 170
74 107 167
77 109 168
71 104 165
66 100 163
64 99 159
70 104 162
67 100 157
69 102 159
62 97 153
64 99 158
67 101 154
60 96 161
68 102 154
66 100 158
62 96 153
64 99 152
64 98 150
65 100 160
60 96 165
63 98 156
60 96 154
59 94 149
61 97 158
60 95 155
59 94 140
62 98 160
61 96 155
60 96 159
59 95 148
61 97 158
61 97 158
61 98 164
59 94 147
60 96 149
61 97 162
61 97 157
61 96 154
60 95 153
62 97 157
61 97 156
61 96 162
61 97 161
62 97 159
61 97 160
62 98 160
61 97 160
62 98 161
60 96 155
62 97 152
61 97 161
61 97 156
62 97 155
61 97 157
62 98 158
61 97 159
61 97 157
61 97 150
60 96 148
61 97 150
61 96 150
61 97 159
61 97 154
62 98 157
61 96 157
61 97 157
62 98 151
62 98 158
62 98 160
62 97 156
61 97 160
61 97 155
61 97 150
62 98 159
62 98 162
61 96 151
60 96 153
61 97 156
61 97 155
62 98 153
63 99 163
62 98 161
62 98 160
61 97 159
63 99 160
63 98 159
61 97 155
62 98 164
61 97 152
62 98 161
61 96 147
62 98 156
61 96 155
61 96 153
61 97 148
61 97 154
61 97 157
62 98 154
61 97 152
61 97 148
62 98 154
63 99 162
61 97 154
62 97 159
62 98 162
62 97 152
62 97 153
62 98 157
61 96 145
62 97 155
62 98 158
62 98 158
61 97 155
61 96 145
62 98 157
61 96 147
60 95 141
62 97 153
60 96 148
62 97 156
61 96 152
62 97 149
60 95 142
60 96 149
61 96 145
62 98 159
61 97 148
61 96 153
61 96 150
62 98 157
59 94 132
60 95 144
61 96 149
62 97 150
61 96 149
61 97 152
61 97 145
61 96 148
61 96 145
60 94 145
60 94 140
60 95 137
62 97 154
61 96 143
59 94 137
61 96 151
61 96 142
61 95 138
60 95 138
58 93 126
59 92 128
61 96 143
60 94 134
60 94 133
60 94 135
59 92 138
59 92 132
58 90 120
62 93 130
105 114 54
123 130 0
115 119 0
122 128 0
115 122 0
106 113 0
124 126 11
105 109 0
100 105 0
108 114 0
96 99 0
94 94 0
104 105 0
111 111 0
92 93 0
99 102 0
88 91 0
95 96 0
96 94 0
111 111 0
108 107 8
99 98 0
102 98 11
93 89 0
94 92 0
104 103 11
83 83 0
93 91 0
100 96 0
93 90 0
92 90 8
99 96 0
94 89 0
102 97 0
101 97 0
104 102 0
94 88 0
94 89 0
94 89 0
98 94 0
101 95 0
98 94 0
102 96 0
106 102 0
107 102 0
115 111 0
104 100 0
111 109 8
99 94 0
114 109 16
109 107 11
107 103 11
102 98 11
105 100 0
117 112 0
110 105 0
116 112 0
113 108 11
103 99 0
108 102 11
97 93 11
113 110 0
118 112 11
120 116 16
101 98 0
106 103 11
115 114 0
120 113 11
119 115 0
116 113 0
114 111 11
115 109 11
109 103 19
116 114 19
121 118 16
119 119 11
126 124 11
108 108 0
123 123 0
123 119 19
127 128 11
129 130 0
126 130 11
125 125 11
132 136 11
138 139 0
136 138 16
135 136 11
142 147 0
140 145 0
145 151 0
144 149 0
155 163 11
150 157 11
144 152 0
151 160 0
152 160 0
158 168 0
152 163 0
152 161 0
151 161 0
153 162 0
157 170 0
152 164 0
158 172 0
152 163 0
155 168 0
154 166 0
159 171 0
155 168 0
163 176 0
158 171 0
155 167 0
162 176 0
163 177 0
156 170 0
160 175 0
162 175 0
160 175 0
162 176 0
165 179 0
160 174 0
166 182 0
166 180 0
160 173 0
157 172 0
165 182 0
164 181 0
167 185 0
161 177 0
160 176 0
159 175 0
166 184 0
164 181 0
165 181 0
168 184 0
168 186 0
165 186 0
168 187 0
208 226 230
208 225 227
210 227 228
209 226 227
203 221 214
203 221 206
204 222 217
206 224 218
203 222 212
195 215 182
198 217 196
200 218 204
196 215 189
198 218 194
194 214 177
198 217 188
193 214 173
197 217 196
193 214 179
188 210 157
194 214 181
187 208 144
190 211 155
183 204 133
192 212 163
185 206 149
185 206 137
186 207 135
181 203 130
185 206 137
184 206 130
182 204 133
185 206 147
183 205 128
184 205 130
182 204 122
180 202 108
185 206 128
176 198 84
177 200 99
178 200 102
180 203 120
178 200 99
181 202 122
182 204 125
180 202 111
179 201 105
181 203 114
175 198 88
179 201 114
179 201 99
183 205 108
179 201 92
185 207 130
182 204 114
182 204 125
183 205 125
182 204 128
181 203 108
181 203 133
184 206 144
188 209 140
186 207 137
185 207 137
179 201 120
184 205 135
188 209 153
185 206 140
189 210 153
190 210 153
183 204 165
155 176 184
142 163 181
150 171 181
141 163 194
152 173 189
158 178 203
152 174 194
153 174 196
144 165 194
153 175 199
140 162 195
127 150 194
129 152 193
142 164 199
128 151 193
129 153 188
116 141 188
125 149 193
113 138 189
107 133 189
115 140 190
115 140 194
104 130 187
95 124 186
102 129 188
96 124 184
76 109 180
87 117 182
79 110 175
83 114 171
80 111 178
79 110 172
74 106 166
68 103 163
70 103 164
67 102 170
76 108 170
66 101 166
63 98 157
71 104 160
62 98 157
63 98 156
70 103 151
68 102 150
65 100 161
60 96 153
65 99 154
59 95 150
65 99 154
60 95 139
67 101 159
64 98 144
62 97 154
62 97 157
61 96 150
59 95 146
60 95 155
60 96 150
59 95 155
61 96 157
61 96 155
61 97 158
60 95 149
61 97 161
61 98 163
59 95 156
60 96 151
60 95 153
61 96 160
61 97 160
61 96 151
61 97 160
61 97 160
61 97 156
60 96 157
61 96 157
62 98 162
60 96 151
61 97 155
60 96 148
60 96 153
60 96 150
60 95 147
62 98 162
61 97 156
61 97 157
61 97 157
62 98 163
62 98 163
62 97 159
62 98 161
61 97 151
60 96 154
61 96 151
61 97 161
62 97 152
61 97 153
62 98 157
62 97 156
60 96 149
62 98 167
61 97 154
60 96 154
61 96 153
61 96 155
61 97 149
61 97 155
62 98 158
61 97 152
62 98 157
61 97 157
61 97 154
61 97 154
61 97 157
62 98 159
62 97 159
61 97 153
62 98 159
63 98 158
62 98 156
62 98 163
61 97 150
62 98 155
61 97 156
61 97 152
62 98 158
61 97 153
61 96 148
62 98 157
62 98 160
62 98 160
61 98 158
61 97 151
60 95 143
62 98 161
61 97 154
62 98 160
61 96 145
61 96 147
62 98 160
61 96 143
61 96 141
61 96 148
60 96 143
62 98 157
61 96 151
61 96 150
61 97 149
61 97 152
61 96 148
61 96 148
63 98 159
61 97 150
61 97 153
61 97 154
62 97 151
62 97 152
62 98 156
61 96 151
63 99 159
61 97 155
61 96 142
61 96 148
62 98 153
61 96 140
61 96 149
61 96 150
61 96 144
60 95 145
60 95 135
62 97 152
60 96 145
60 95 143
61 96 140
61 96 139
60 94 133
62 97 148
61 96 145
61 95 147
60 95 136
61 96 144
59 93 130
59 93 125
60 94 140
59 94 130
58 91 125
58 92 133
60 93 127
57 90 133
73 96 101
116 123 31
118 125 0
115 117 0
120 125 0
101 106 0
116 121 0
114 120 0
120 124 0
109 113 0
96 98 0
103 105 0
113 115 0
93 97 11
108 110 0
102 102 0
108 111 11
100 98 0
110 113 0
86 85 0
114 113 0
94 96 0
98 97 0
97 95 0
105 104 0
99 99 0
95 93 0
97 94 0
106 103 0
93 87 0
90 85 3
101 99 0
102 97 0
99 94 8
98 95 0
97 92 0
104 101 0
97 95 0
105 99 0
100 95 0
100 97 0
105 101 11
104 99 0
101 97 0
104 98 0
106 102 0
103 98 0
99 94 0
110 108 0
121 118 11
110 106 0
111 107 0
104 101 0
113 108 0
111 109 0
108 104 16
117 112 16
115 109 19
105 102 11
116 114 0
113 111 0
113 108 0
121 117 11
115 110 0
112 110 0
122 118 11
115 111 0
115 109 11
114 112 0
117 115 0
121 118 16
118 115 16
117 116 11
116 113 16
127 124 16
121 119 16
127 123 22
118 115 0
127 127 11
121 116 11
118 118 0
125 124 11
124 124 0
131 134 11
138 141 16
128 129 11
144 149 11
137 141 11
139 141 16
148 152 11
149 155 16
141 147 0
145 152 11
139 145 0
146 151 0
145 151 0
150 160 0
153 163 0
151 163 0
151 161 0
158 170 0
145 154 0
154 163 0
158 170 0
159 168 0
157 170 0
153 161 0
158 168 0
162 175 0
157 170 0
160 174 0
153 167 0
161 175 0
162 175 0
155 169 0
163 176 0
164 178 0
162 179 0
163 177 0
164 179 0
157 173 0
160 174 0
164 181 0
166 181 0
161 176 0
163 179 0
162 178 0
161 178 0
161 175 0
166 181 0
158 173 0
165 179 0
162 179 0
163 179 0
165 184 0
162 180 0
164 182 0
164 182 0
167 185 0
166 183 0
208 225 223
209 226 231
204 222 215
206 224 224
202 221 206
204 223 218
204 222 209
197 217 188
201 220 203
202 221 206
197 218 196
194 214 181
192 212 165
194 214 181
193 213 177
194 214 169
191 211 165
192 212 171
187 208 151
188 209 165
187 208 153
186 208 144
185 206 140
185 207 133
182 202 128
178 201 125
186 208 142
182 204 114
183 204 128
182 204 142
182 204 120
180 203 108
178 200 114
177 201 105
177 199 84
177 200 105
178 201 102
182 205 120
182 205 122
176 199 95
177 200 108
174 197 72
177 200 88
180 203 114
182 204 111
176 199 99
180 203 108
178 201 88
179 202 111
177 200 88
173 196 84
176 199 80
181 203 105
180 202 102
182 204 114
178 200 111
178 202 111
178 201 108
176 198 84
178 200 102
180 203 108
179 202 114
180 202 120
184 206 128
181 203 128
183 205 128
185 207 120
174 196 102
181 203 130
179 200 108
178 199 145
150 171 182
140 162 180
141 162 185
143 165 178
144 166 196
148 170 188
139 161 188
145 167 189
157 177 203
148 170 207
139 161 196
148 169 204
142 164 192
131 154 193
125 149 198
130 153 197
114 140 180
119 144 191
119 144 188
108 135 185
93 122 181
105 132 188
102 129 188
104 131 191
91 120 181
96 124 186
87 116 175
82 113 176
73 106 169
67 101 168
89 118 182
74 107 171
68 102 167
76 108 170
65 100 168
79 110 172
73 106 164
61 96 161
71 104 168
66 100 162
62 97 159
67 101 156
62 97 155
59 94 150
64 99 159
62 97 150
62 96 155
65 100 159
62 97 155
62 97 152
62 96 150
61 96 162
60 95 153
62 97 151
59 95 151
60 96 149
60 96 152
61 96 154
61 96 153
61 97 160
60 96 149
61 97 156
61 97 162
61 96 156
59 94 145
61 97 159
60 95 151
61 97 159
62 98 161
61 96 155
61 97 160
61 97 156
60 96 151
59 95 148
60 96 149
61 97 155
60 96 156
60 95 142
60 95 146
61 96 152
61 97 154
62 97 156
61 97 154
62 98 158
61 96 156
60 97 155
62 97 154
60 96 151
61 97 155
62 97 153
60 96 152
62 98 158
63 99 165
61 97 154
61 97 156
62 97 153
62 98 157
61 98 159
61 97 151
61 97 155
61 96 158
62 98 160
61 96 149
61 97 155
61 97 153
62 98 157
63 98 160
60 96 153
62 98 160
61 97 155
61 96 152
63 99 167
61 96 147
62 98 166
61 98 161
61 97 153
61 97 150
61 97 155
61 97 154
62 98 160
62 98 157
61 97 156
60 96 147
61 97 155
61 97 157
61 96 152
61 96 145
61 97 154
61 97 153
62 97 156
62 98 158
61 97 151
62 97 156
62 97 157
61 97 154
62 98 158
62 97 155
59 95 145
62 98 157
62 98 158
62 98 158
61 97 153
61 96 143
61 97 155
62 98 155
61 96 150
60 96 144
62 97 150
63 98 161
62 98 155
62 97 160
61 97 149
61 97 158
61 96 143
62 97 154
62 97 148
60 95 140
62 98 152
61 96 147
61 96 149
61 96 147
61 96 144
61 96 145
61 97 148
60 95 139
60 95 142
59 93 136
62 96 148
62 97 152
61 96 147
60 95 140
61 96 152
60 96 147
59 94 130
62 97 146
61 96 145
61 96 140
61 95 142
61 96 145
60 95 143
61 96 145
59 94 134
60 94 133
59 93 135
60 94 143
58 92 129
58 92 128
59 92 137
60 92 130
95 112 89
120 127 0
110 115 0
116 124 0
113 119 0
119 125 0
118 125 0
111 118 0
111 114 0
104 108 0
109 115 0
108 109 0
106 110 0
108 113 0
102 105 0
113 114 11
106 107 0
112 112 0
99 98 0
102 101 0
108 110 0
90 86 0
96 94 0
99 99 0
105 106 0
99 97 0
97 96 0
95 93 11
95 93 0
97 96 0
102 96 0
90 86 0
97 94 0
101 99 0
101 100 0
96 93 0
106 104 0
104 103 0
94 90 0
97 93 0
92 87 0
101 98 0
109 106 11
100 96 8
102 95 0
106 100 0
105 100 0
101 97 0
107 103 0
105 100 0
115 111 11
110 107 0
108 104 11
111 104 11
100 95 0
108 103 11
105 99 16
113 112 0
110 105 0
107 103 0
118 112 0
120 116 0
115 115 16
108 102 11
107 105 16
118 111 0
113 108 11
113 112 0
115 111 0
114 111 0
111 111 0
118 117 0
123 120 0
124 123 16
125 122 11
122 120 0
128 125 16
125 123 11
129 128 16
125 126 11
127 125 0
139 138 0
136 141 16
133 136 16
140 143 11
147 152 11
140 143 11
129 129 11
141 145 0
144 150 0
146 149 11
142 150 0
148 155 0
155 163 0
145 152 0
156 165 0
154 164 0
149 158 0
149 158 0
151 160 0
153 163 0
156 166 0
161 170 0
156 166 0
156 167 0
157 171 0
153 164 0
155 169 0
152 165 0
155 166 0
154 166 0
156 170 0
157 169 0
159 173 0
163 177 0
165 181 0
154 168 0
155 169 0
163 178 0
161 173 0
160 176 0
159 175 0
161 179 0
162 176 0
162 177 0
165 182 0
161 178 0
160 176 0
163 181 0
165 182 0
166 184 0
167 185 0
162 179 0
163 180 0
165 182 0
164 182 0
166 187 0
166 185 0
166 184 0
162 178 0
205 223 218
206 224 218
204 222 209
203 221 207
196 215 193
197 216 191
196 215 193
200 219 206
190 211 159
194 214 181
194 214 173
190 211 163
191 212 167
193 214 171
187 208 159
187 208 165
188 210 151
187 209 153
186 206 140
185 207 149
181 204 128
182 204 128
184 206 135
180 202 114
183 206 122
178 201 105
182 204 114
180 202 114
180 203 111
178 200 102
179 201 92
175 197 80
176 199 105
181 203 108
179 202 88
177 200 95
180 202 111
178 201 88
176 199 67
178 200 88
176 199 80
173 197 80
176 199 76
178 200 84
174 197 76
176 200 80
174 197 88
177 200 92
174 198 88
178 201 92
175 199 88
173 196 80
176 199 92
174 198 84
176 200 95
177 201 76
175 199 92
178 200 95
179 201 92
178 201 88
179 201 99
175 198 84
177 200 111
180 202 108
178 200 99
179 201 102
182 204 114
182 203 105
181 203 108
181 203 117
176 198 149
142 165 170
119 143 168
132 154 176
137 160 174
132 154 179
130 153 183
151 173 192
143 165 188
137 159 185
143 165 190
134 157 189
132 155 184
132 156 189
118 143 182
124 148 185
140 162 195
135 158 197
122 146 187
113 139 184
113 138 192
96 124 181
110 136 187
101 129 184
100 127 187
102 129 182
89 118 181
86 116 180
93 122 182
86 116 178
81 112 175
71 105 173
66 100 165
71 104 163
66 100 163
71 104 165
77 109 167
71 104 165
64 98 161
70 103 164
66 101 160
60 96 155
64 99 158
63 98 157
60 96 158
67 101 158
61 96 156
60 96 159
61 96 151
62 97 159
68 101 148
66 100 151
58 93 149
63 97 155
66 101 161
59 95 147
59 94 150
60 96 150
60 95 150
60 95 149
60 95 150
60 95 149
59 94 149
61 97 150
61 97 159
62 97 162
61 97 152
60 96 156
60 96 153
60 96 148
62 98 164
60 96 148
60 97 156
61 96 150
61 97 154
61 97 153
61 97 155
61 96 152
61 97 159
60 96 152
61 97 155
61 96 154
61 97 157
60 96 151
61 97 153
60 96 152
62 97 152
60 96 150
60 96 157
61 97 159
62 97 161
62 98 163
61 97 157
61 97 147
62 98 159
61 97 151
61 97 154
60 95 148
61 97 153
60 96 145
62 98 159
62 97 154
61 97 154
61 97 149
61 96 148
62 97 155
62 98 159
62 97 156
62 98 153
62 98 159
62 98 159
62 98 161
61 97 154
62 98 156
61 96 154
62 98 160
61 97 153
60 96 153
61 97 157
61 97 154
62 98 160
62 98 163
62 97 154
61 97 147
62 97 158
62 98 156
62 98 161
61 97 152
62 97 155
61 97 156
62 97 153
61 97 148
61 97 150
61 96 143
62 98 160
61 97 153
62 98 160
61 97 155
62 98 159
61 97 155
62 98 157
61 96 153
61 96 143
63 98 159
61 97 148
62 98 155
61 97 154
62 97 150
62 98 154
63 99 159
61 96 149
61 96 148
61 97 152
61 96 144
60 96 147
61 96 149
62 98 156
60 96 142
61 96 148
60 96 144
60 95 145
60 96 141
62 98 156
61 96 148
61 97 150
60 95 141
61 96 145
60 95 139
60 95 143
61 96 145
60 95 140
61 97 149
60 95 135
61 97 150
61 95 142
60 94 135
60 95 145
61 96 140
61 96 143
59 93 132
60 95 142
60 94 142
60 94 140
60 94 136
59 93 129
58 92 117
59 93 134
60 95 142
57 91 124
64 94 119
107 119 66
110 116 0
116 123 0
120 127 0
121 128 0
113 121 0
115 122 0
103 105 0
101 103 0
120 124 0
113 119 0
115 121 0
111 115 11
117 120 0
107 110 0
111 114 0
109 111 0
115 115 0
103 104 0
100 100 0
111 111 0
110 113 0
91 92 0
104 104 0
105 105 0
93 93 0
100 98 0
104 99 0
94 93 11
100 98 0
102 102 0
93 88 0
113 108 0
96 95 0
105 104 0
113 110 0
95 91 0
101 96 0
96 90 0
96 92 0
106 103 0
101 98 0
97 94 0
99 94 0
97 94 0
114 107 0
108 104 0
100 95 0
109 103 0
108 105 11
94 90 0
111 104 0
96 94 0
108 104 0
107 102 0
105 104 0
104 101 0
124 121 0
107 102 0
99 96 0
112 107 16
114 109 11
123 119 0
107 103 0
112 107 11
119 118 0
103 97 0
121 116 0
123 122 0
109 105 0
108 106 0
117 116 0
118 116 11
117 114 0
128 130 0
121 118 11
124 122 19
126 126 11
131 132 11
127 128 0
138 140 11
133 138 0
134 135 0
138 139 16
135 140 11
137 141 11
136 141 0
133 136 0
142 147 0
150 159 0
140 147 0
149 159 0
150 155 0
146 153 0
146 155 0
156 167 0
155 166 0
151 161 0
157 166 0
153 164 0
156 169 0
158 170 0
154 164 0
156 169 0
164 177 0
151 161 0
152 160 0
160 173 0
154 166 0
164 179 0
162 176 0
155 167 0
157 171 0
162 178 0
161 174 0
161 173 0
159 174 0
161 177 0
164 178 0
152 166 0
159 175 0
160 174 0
159 173 0
164 181 0
164 180 0
160 176 0
165 182 0
162 180 0
167 183 0
163 180 0
157 172 0
159 178 0
163 180 0
163 178 0
161 177 0
163 182 0
163 180 0
164 182 0
164 182 0
165 183 0
200 219 203
202 221 215
199 218 194
197 216 189
199 218 194
198 217 189
191 211 161
189 209 165
189 210 163
192 212 165
194 214 175
185 206 140
190 211 155
186 207 155
188 208 161
184 206 140
183 205 133
187 208 144
181 203 117
179 202 108
184 205 125
182 204 130
176 200 108
177 200 108
179 201 102
179 202 108
174 197 88
177 200 92
179 202 105
176 198 62
179 202 102
175 199 76
174 198 80
176 199 67
176 199 88
175 198 76
174 198 72
176 199 67
172 195 44
173 197 67
176 200 84
176 198 88
176 199 80
173 196 67
173 197 76
173 196 72
173 197 76
175 198 80
175 198 72
172 196 80
173 196 62
173 197 57
175 198 67
174 197 62
175 199 76
175 198 62
173 197 62
175 198 99
177 200 76
172 196 67
176 200 84
173 196 92
172 195 88
174 197 76
177 199 95
174 197 88
178 200 84
173 196 95
180 203 102
179 201 120
158 181 134
135 158 158
118 144 174
112 137 162
136 160 188
127 151 178
124 147 171
136 159 169
128 151 178
136 158 175
137 160 186
135 158 181
131 154 177
121 145 180
129 153 182
113 138 172
99 127 173
110 136 174
121 146 185
120 144 181
104 131 178
91 120 177
95 123 173
89 119 185
90 120 182
85 116 181
98 125 180
76 108 172
92 121 178
94 122 182
68 103 171
74 107 178
67 103 173
71 104 168
74 107 175
74 106 168
69 103 173
71 104 173
65 100 164
75 107 168
68 102 166
66 100 160
68 102 164
67 101 161
61 97 165
64 99 155
62 97 153
62 96 149
63 98 162
62 96 147
63 98 156
65 100 155
61 97 153
59 94 153
63 98 155
60 96 144
59 94 145
61 96 144
60 96 155
61 97 158
60 95 148
62 98 160
60 95 145
60 95 148
60 96 157
60 95 149
61 97 157
60 95 146
60 96 156
60 96 154
62 99 164
61 96 149
60 96 157
60 96 154
61 96 154
60 96 148
61 97 158
61 97 156
61 97 155
61 96 158
59 94 139
60 95 154
60 96 153
61 97 155
59 94 147
61 97 154
60 95 146
61 97 161
61 97 156
61 96 154
61 97 154
61 96 155
61 97 155
61 97 155
61 97 154
61 96 155
61 96 144
61 97 155
61 96 144
61 97 153
60 96 148
61 97 162
62 98 162
61 97 152
62 98 159
61 97 154
61 96 157
62 98 153
61 96 149
61 97 155
61 97 153
63 99 165
62 98 163
61 97 154
62 98 160
61 97 151
62 98 166
62 98 160
62 97 154
61 97 155
61 97 153
60 95 148
61 97 154
62 98 152
61 97 151
61 97 150
61 97 151
61 96 147
60 96 142
62 97 158
61 96 150
61 96 149
61 97 148
62 98 156
61 96 152
62 97 150
61 96 148
61 96 149
61 97 152
61 97 150
60 96 150
63 99 158
61 97 154
61 97 152
61 97 155
62 97 153
61 96 142
61 96 147
61 96 152
60 96 148
61 96 144
61 96 147
61 97 148
62 98 153
60 96 149
61 96 149
63 99 159
60 95 137
61 96 148
60 96 142
62 98 157
61 96 145
62 98 152
59 94 136
61 97 150
62 97 147
60 95 148
62 97 152
61 97 150
61 97 144
60 95 136
61 96 145
59 94 133
59 94 136
60 95 140
62 97 151
60 95 131
60 95 137
61 96 139
60 94 134
60 94 143
62 97 150
61 96 148
61 96 139
59 93 139
58 91 129
59 93 134
59 93 130
59 92 131
68 94 109
108 118 41
129 137 0
112 115 0
114 119 0
114 119 0
115 121 0
111 118 0
117 124 0
120 124 0
118 126 0
112 116 0
113 119 0
106 112 0
91 94 0
109 111 0
101 104 0
109 109 0
104 104 0
109 111 0
101 99 0
99 99 11
103 105 0
103 103 0
112 113 0
97 96 0
93 93 0
105 106 0
102 100 0
104 103 0
88 87 0
110 112 0
97 96 0
89 89 0
83 81 0
91 85 0
95 93 0
99 99 3
95 93 0
105 100 0
92 91 0
114 112 0
102 101 0
107 103 0
96 96 0
105 102 0
103 98 0
109 103 0
107 103 0
101 96 0
116 112 0
118 115 0
108 107 11
107 103 0
107 103 0
110 105 0
109 104 0
123 120 0
119 115 0
113 111 0
120 116 0
101 97 11
116 116 11
121 119 0
116 109 0
115 113 0
120 116 11
124 123 0
118 118 0
112 107 0
125 125 0
118 116 11
110 108 0
125 123 11
116 115 11
132 134 0
124 123 11
123 121 0
122 123 0
128 131 11
138 142 0
132 134 0
140 141 0
133 136 11
134 136 0
141 146 0
140 146 0
141 147 0
151 158 0
144 149 0
144 151 0
153 161 0
146 153 0
149 158 0
153 161 0
147 152 0
154 164 0
153 161 0
144 153 0
151 159 0
154 162 0
151 160 0
161 173 0
157 168 0
158 168 0
157 170 0
160 174 0
151 162 0
160 172 0
161 174 0
158 169 0
160 173 0
163 178 0
159 173 0
163 180 0
159 172 0
154 165 0
158 171 0
153 163 0
163 179 0
157 173 0
166 182 0
161 174 0
159 172 0
164 178 0
160 174 0
162 179 0
166 183 0
164 181 0
165 185 0
165 183 0
165 182 0
167 183 0
165 183 0
166 183 0
165 184 0
166 183 0
170 189 0
170 189 0
167 184 0
165 183 0
199 218 193
198 218 199
196 216 184
194 215 181
196 216 184
192 212 175
193 212 169
192 212 179
191 212 165
189 209 153
184 205 137
184 206 144
186 207 137
181 203 117
184 206 137
185 206 140
183 206 125
180 202 108
182 204 130
177 199 99
180 203 108
178 201 92
175 198 95
179 201 84
177 199 92
177 200 95
178 200 84
174 196 88
173 196 76
175 199 67
176 200 92
173 197 76
174 197 72
172 197 72
174 197 67
174 198 57
173 197 72
173 197 67
174 198 76
175 198 57
172 195 84
172 195 62
173 196 67
174 198 72
176 200 84
172 196 62
175 199 95
174 198 72
168 192 51
175 198 76
171 195 72
175 198 62
173 196 95
175 199 80
173 196 67
170 193 62
175 199 57
177 200 67
173 197 57
176 199 88
173 196 76
172 195 80
176 198 76
173 197 72
173 196 72
172 195 62
178 201 99
175 198 88
174 198 67
174 197 92
157 181 133
140 162 152
113 138 170
116 142 166
103 130 161
122 147 174
118 144 164
131 154 163
119 144 176
114 138 158
121 146 174
130 153 179
127 152 180
137 160 181
126 150 186
118 143 189
117 142 187
101 128 159
109 134 187
107 134 183
106 132 180
103 131 184
93 122 171
91 120 178
102 129 181
94 122 176
89 119 176
82 113 171
80 112 175
76 108 172
76 108 173
70 104 174
82 113 185
75 108 177
81 112 174
71 105 176
71 104 168
76 108 164
68 102 165
70 104 164
61 97 161
63 98 165
64 99 167
63 98 160
64 98 163
62 97 154
70 104 162
65 100 158
59 94 149
64 99 159
68 102 152
65 99 151
63 97 150
62 96 149
61 95 155
59 94 148
60 95 147
59 94 150
61 97 157
62 98 160
61 96 155
61 97 161
61 97 161
60 96 152
61 96 147
61 96 159
60 95 155
60 95 143
59 94 147
60 96 152
61 97 161
61 96 148
61 96 152
61 97 160
61 97 152
61 97 160
60 95 148
61 96 154
59 95 150
61 96 155
61 96 158
61 97 158
61 96 152
61 96 151
61 97 163
62 97 155
60 95 148
63 98 158
62 98 159
61 97 155
62 98 154
61 97 150
61 97 159
60 96 150
62 98 158
61 97 153
61 97 152
60 96 145
62 98 164
62 98 162
60 95 147
61 97 158
62 98 157
60 95 141
60 95 147
62 97 157
61 97 157
61 97 153
62 98 153
61 97 157
61 97 155
62 97 153
61 96 150
62 97 156
60 96 149
60 96 148
62 98 156
61 96 153
61 97 152
62 98 159
62 97 153
61 97 154
62 98 158
61 96 148
61 97 152
61 97 152
62 98 155
61 97 157
61 97 150
61 97 149
62 97 150
60 96 145
62 98 161
61 96 145
61 97 153
62 98 157
62 98 159
61 97 149
61 97 155
61 96 151
61 97 153
61 97 152
60 96 148
61 97 145
62 97 152
62 98 158
61 96 145
60 95 141
60 95 143
62 97 152
61 97 156
61 97 147
61 96 147
59 94 141
60 95 142
61 97 145
59 94 135
61 96 141
58 93 134
59 94 134
61 96 148
60 96 149
62 97 152
61 96 147
62 97 153
61 96 149
61 96 145
61 96 150
61 97 148
62 97 149
60 95 142
59 95 136
60 95 143
61 96 142
60 94 133
60 95 142
58 93 126
62 97 147
59 92 130
60 95 144
60 94 142
59 93 124
60 94 140
60 94 136
60 94 135
58 93 133
59 92 120
58 90 128
57 90 120
89 109 98
116 125 31
107 117 0
118 127 0
116 123 0
125 133 0
117 119 0
108 116 0
120 124 0
121 125 0
113 120 0
106 109 0
111 113 0
110 110 0
119 123 0
109 114 0
120 125 0
115 118 0
107 111 0
112 115 0
106 107 0
96 100 11
106 104 0
103 105 0
102 101 0
102 102 0
100 104 0
99 102 0
101 101 0
98 102 0
100 97 0
108 107 0
102 102 0
97 95 0
93 93 0
119 119 0
107 104 0
114 111 0
105 99 0
97 94 0
104 99 0
110 108 0
100 95 0
105 104 0
98 96 0
123 121 0
102 101 0
106 105 0
115 113 0
111 106 0
94 90 0
110 107 0
103 101 0
113 109 0
108 103 0
119 118 0
104 101 0
105 101 0
104 102 0
112 109 0
123 123 0
110 105 0
111 111 0
120 115 11
112 108 0
105 102 11
124 120 16
116 112 0
118 116 11
119 118 11
125 124 0
116 117 0
118 117 11
127 124 0
121 121 0
124 126 11
127 128 0
133 135 11
119 120 0
134 135 11
135 136 11
135 139 19
137 140 16
146 151 0
134 137 11
144 149 11
142 147 0
139 142 0
143 149 0
146 152 0
155 161 0
148 155 0
150 161 0
149 158 0
144 155 0
153 162 0
148 156 0
156 165 0
148 156 0
155 165 0
147 157 0
159 167 0
155 165 0
155 167 0
161 173 0
165 179 0
155 166 0
162 174 0
161 173 0
161 173 0
164 177 0
156 169 0
160 172 0
161 173 0
165 181 0
157 173 0
160 176 0
158 176 0
162 179 0
154 169 0
163 177 0
166 182 0
157 172 0
164 181 0
162 179 0
163 179 0
163 179 0
160 178 0
158 174 0
160 176 0
162 179 0
161 177 0
165 183 0
165 184 0
161 178 0
167 184 0
165 183 0
162 179 0
165 182 0
166 183 0
165 182 0
197 215 188
192 212 181
194 213 171
193 214 175
194 214 179
192 212 167
187 207 155
189 210 155
187 209 157
183 205 130
183 204 135
178 201 122
185 206 133
182 204 120
181 203 117
181 203 111
182 204 125
177 200 92
178 200 95
174 196 80
179 201 105
178 201 108
177 200 99
177 200 95
172 194 44
174 197 62
176 199 80
178 201 92
172 196 72
173 197 76
175 198 80
176 199 72
169 193 44
175 198 51
173 197 62
175 199 76
174 197 76
173 197 57
173 196 67
175 198 72
171 195 76
174 197 67
174 197 76
174 197 76
174 197 88
173 196 84
170 193 62
170 194 57
175 199 62
175 199 67
174 197 80
174 198 76
173 196 95
171 195 57
177 200 80
174 197 80
172 196 88
171 194 72
171 195 76
168 191 57
172 195 62
172 196 72
174 198 76
169 192 67
175 198 88
173 196 67
171 195 80
175 199 80
173 197 67
171 193 84
154 178 121
125 151 124
108 135 161
106 133 148
105 132 150
112 138 157
113 139 161
114 139 170
118 144 171
101 129 161
127 151 174
130 154 178
122 146 170
120 145 181
133 157 181
116 141 179
106 132 176
107 133 174
102 128 165
98 126 169
103 130 173
91 121 169
94 122 175
88 117 172
89 119 180
89 119 177
89 119 181
85 115 177
73 106 172
85 116 184
87 116 176
82 113 180
82 113 178
68 102 171
68 103 171
77 109 178
79 111 174
68 103 175
75 108 173
67 102 167
75 107 171
61 97 163
68 102 169
64 99 161
66 100 160
73 105 159
67 101 157
62 97 151
62 97 153
59 95 150
60 95 150
63 98 156
63 98 155
64 99 159
65 99 158
60 95 150
65 99 155
63 98 155
60 95 150
61 96 151
60 96 159
59 95 155
59 94 145
60 96 152
61 97 153
61 97 157
60 96 158
59 95 147
60 96 150
61 96 150
61 97 152
60 96 151
60 95 143
61 97 155
61 97 154
61 97 155
61 96 151
61 97 158
62 98 161
62 97 159
61 97 150
60 96 159
62 98 157
61 97 158
58 94 150
60 96 143
61 97 154
62 97 158
61 96 147
60 96 148
62 98 157
62 98 159
60 96 152
60 96 153
61 97 152
61 96 153
61 97 154
61 97 154
61 96 150
60 96 145
61 97 157
60 96 147
60 96 150
61 97 158
61 97 159
62 98 160
61 97 151
61 96 147
60 96 148
61 97 151
61 97 152
61 96 151
61 96 150
60 95 147
61 97 159
61 97 152
62 98 157
61 97 149
62 97 157
62 97 155
62 98 157
62 97 155
61 97 152
62 98 160
62 98 164
63 99 165
62 97 149
61 97 150
63 98 158
62 98 158
62 97 154
61 97 149
61 96 150
60 96 148
60 95 143
62 98 154
60 95 142
62 97 153
61 97 151
62 97 156
60 95 141
62 97 154
60 95 135
61 96 142
62 97 147
61 96 144
62 97 153
62 97 155
61 97 148
61 97 152
61 97 144
61 96 147
61 96 145
61 96 148
61 96 149
61 96 144
61 97 152
60 95 147
61 96 142
60 96 145
61 96 144
61 97 155
61 97 149
61 96 140
61 96 150
61 96 142
61 96 143
62 98 154
60 95 141
61 96 142
60 95 139
60 95 136
60 96 147
60 94 139
60 94 133
60 95 135
60 95 141
59 93 126
60 95 143
59 93 130
61 95 142
61 95 138
59 93 129
60 94 136
59 93 125
59 92 137
59 92 126
58 90 124
59 91 126
104 117 70
104 108 0
111 118 0
116 122 0
121 127 0
120 130 0
113 118 0
124 134 0
120 125 0
117 123 0
121 128 0
113 120 0
110 114 0
105 112 0
109 113 0
115 122 0
96 98 0
107 111 0
110 114 0
109 114 0
110 114 0
104 106 0
106 111 11
108 112 0
104 107 0
115 119 0
100 100 0
101 99 0
112 115 0
104 104 0
108 107 0
101 100 0
100 98 0
99 95 0
91 91 0
99 96 0
98 95 8
105 103 0
106 106 0
101 103 0
105 101 0
98 96 0
103 102 0
105 102 0
111 111 0
102 100 0
108 108 8
101 97 0
108 105 0
111 108 0
105 101 0
108 107 0
101 99 0
119 116 0
106 104 0
109 106 0
112 109 0
123 118 0
126 123 0
115 111 0
119 119 0
110 107 0
117 115 11
113 112 0
122 122 0
126 125 0
120 120 0
123 123 0
120 120 11
122 122 0
127 127 11
124 123 11
126 127 0
129 130 0
128 130 0
126 126 0
132 135 0
127 129 0
136 140 11
126 129 11
136 142 0
131 134 0
143 146 11
136 141 11
142 148 0
142 147 0
141 149 0
142 146 0
144 151 0
150 159 0
148 154 0
154 163 0
142 149 0
156 163 0
145 152 0
159 169 0
148 156 0
151 159 0
154 163 0
150 157 0
151 158 0
157 169 0
148 159 0
155 165 0
154 166 0
149 160 0
154 164 0
155 168 0
154 168 0
157 170 0
164 177 0
158 171 0
158 171 0
157 171 0
155 169 0
163 175 0
159 174 0
158 171 0
161 175 0
159 173 0
159 174 0
157 172 0
164 179 0
164 177 0
160 177 0
161 178 0
162 180 0
164 180 0
165 179 0
160 176 0
160 175 0
165 182 0
167 184 0
163 180 0
165 181 0
166 186 0
157 173 0
165 183 0
161 179 0
167 186 0
166 183 0
194 214 184
195 213 177
190 211 169
184 206 130
189 209 167
190 211 167
184 205 128
186 207 144
184 205 142
183 204 130
181 204 125
181 203 111
182 205 114
180 203 111
181 204 122
176 200 102
181 202 117
172 197 95
176 199 88
177 199 102
173 195 99
175 198 67
173 196 67
176 200 76
176 199 80
175 198 72
174 197 51
176 199 62
175 198 67
172 195 72
173 196 72
174 197 67
170 193 62
175 198 57
172 196 88
172 197 67
174 198 72
173 197 67
173 198 80
171 195 57
174 198 84
171 195 88
175 199 99
170 193 80
173 197 76
173 198 67
172 195 88
173 196 72
175 198 72
175 198 72
171 195 72
176 199 80
174 197 67
170 194 67
173 197 62
176 200 95
172 196 88
173 196 62
172 195 67
175 198 57
172 196 67
176 199 84
173 195 84
168 191 51
173 196 67
173 196 57
176 199 72
175 198 95
174 198 80
168 192 80
142 167 136
126 151 131
100 127 147
103 130 155
105 132 149
113 139 158
110 137 162
102 129 161
97 124 156
109 135 160
108 134 169
109 135 160
120 144 173
104 130 166
118 143 179
113 139 174
104 130 162
106 132 177
103 130 174
104 131 171
100 128 177
90 119 169
105 132 182
98 126 174
82 113 176
86 117 171
80 111 176
84 115 177
84 114 175
71 105 177
84 115 182
71 105 171
79 111 176
68 102 163
81 113 178
73 106 169
68 102 166
61 97 167
67 101 159
81 112 173
62 98 161
77 108 173
76 108 170
68 101 164
68 102 168
64 99 153
68 102 168
60 96 159
60 96 155
62 97 151
64 98 153
61 97 156
61 97 159
66 100 148
68 102 154
65 100 152
64 98 150
60 95 149
60 95 149
60 95 139
61 96 155
60 95 143
60 96 154
60 96 154
60 96 160
61 96 159
61 97 156
60 95 157
61 96 152
60 96 152
60 96 150
61 96 154
60 96 151
59 95 147
60 96 152
60 95 146
60 95 141
60 95 148
61 97 157
60 95 149
62 97 157
61 96 155
61 96 151
60 96 150
61 97 156
61 98 161
61 97 151
62 98 159
60 96 146
61 97 158
61 97 150
60 95 153
61 97 152
62 98 155
61 96 144
60 95 147
60 96 155
61 96 145
61 97 154
61 97 152
62 98 159
62 97 155
61 96 154
62 98 154
61 97 152
61 96 156
61 97 157
60 95 141
61 96 145
61 97 153
62 98 157
59 95 141
60 95 143
62 97 148
61 96 149
61 97 157
60 96 153
62 97 155
61 97 153
62 97 143
62 98 160
62 98 160
60 96 148
61 96 150
61 97 155
61 96 149
61 96 145
61 96 143
62 97 153
62 97 149
62 98 158
61 96 148
62 97 153
62 97 152
61 97 148
61 97 151
61 97 157
62 97 152
61 96 145
62 98 159
62 98 158
61 97 151
62 97 148
61 96 148
62 97 149
61 96 141
60 95 142
61 96 137
61 97 152
62 97 149
62 97 154
61 97 147
61 96 145
60 95 145
61 97 150
61 96 147
61 96 148
61 97 152
61 97 148
61 96 152
61 96 139
61 96 145
60 94 140
61 97 147
61 96 148
61 97 144
60 95 144
61 95 142
61 96 144
60 95 140
60 95 136
60 95 145
60 95 140
61 96 144
60 95 134
61 96 139
61 95 141
61 96 145
60 94 136
59 93 129
61 95 135
60 94 135
59 93 132
60 94 135
60 95 135
60 94 135
57 90 124
57 89 117
72 97 120
114 124 45
118 126 0
110 119 0
116 121 0
104 109 0
113 122 0
118 124 0
101 108 0
104 111 0
114 121 0
120 126 0
121 125 0
110 112 0
112 118 0
104 108 0
115 119 0
113 117 0
117 119 0
117 121 0
111 118 0
122 129 0
108 109 0
105 108 0
96 99 0
103 103 0
112 116 0
101 104 0
104 105 0
111 113 0
106 107 0
110 112 0
111 111 0
109 104 0
96 96 8
113 116 0
109 109 0
102 102 0
95 95 0
106 105 0
106 105 0
101 102 0
108 108 0
90 85 0
106 104 0
103 100 0
119 116 11
115 113 0
119 118 0
110 106 0
113 110 0
109 106 0
114 114 0
105 103 0
118 118 0
119 117 0
117 117 0
119 119 0
111 110 0
113 113 0
116 116 0
122 122 0
116 117 0
117 115 0
123 123 0
117 117 0
112 109 11
121 121 0
122 121 0
132 130 0
127 125 11
128 130 0
120 122 0
133 134 0
120 121 11
125 126 0
137 136 11
123 125 0
131 133 0
137 139 11
144 149 11
142 148 0
143 150 0
143 148 0
145 150 0
138 143 0
136 140 0
149 150 0
144 150 0
148 155 0
149 158 0
149 154 0
154 163 0
146 152 0
151 159 0
149 159 0
154 162 0
150 160 0
151 160 0
152 163 0
148 158 0
152 163 0
158 168 0
157 170 0
154 166 0
154 167 0
158 170 0
161 174 0
160 172 0
160 171 0
156 166 0
153 167 0
155 168 0
156 170 0
157 171 0
165 182 0
158 172 0
161 176 0
155 166 0
157 170 0
162 175 0
162 177 0
161 177 0
160 175 0
162 175 0
159 175 0
161 176 0
162 176 0
160 176 0
161 179 0
161 176 0
166 184 0
161 178 0
165 182 0
165 183 0
166 184 0
165 182 0
162 179 0
166 185 0
162 180 0
164 182 0
167 183 0
192 212 161
187 208 155
188 209 147
185 206 137
187 208 142
186 208 149
188 209 142
183 205 133
180 201 122
179 201 108
179 202 117
177 200 80
179 201 92
175 198 88
175 199 76
176 199 108
172 196 67
174 197 76
175 199 80
174 198 67
174 198 76
173 197 62
175 198 80
177 200 72
170 195 62
170 194 72
173 197 95
172 194 44
174 198 84
176 199 72
171 195 57
172 195 57
172 196 67
171 196 67
171 195 80
173 197 76
173 197 72
173 196 62
173 196 80
173 196 67
174 197 62
174 198 92
173 196 57
172 195 57
171 195 84
173 197 72
172 196 88
173 197 72
172 195 76
171 195 95
171 194 57
173 196 80
172 196 76
169 193 72
169 192 72
175 199 67
175 198 72
174 197 67
172 196 67
171 194 62
172 196 67
174 198 72
172 196 99
172 195 76
173 197 76
173 196 67
175 198 67
171 195 72
173 196 51
163 187 62
152 177 97
129 153 126
113 139 134
96 124 145
95 124 152
100 128 156
95 124 152
98 126 158
115 141 162
88 118 156
102 129 166
127 152 180
105 132 162
107 133 152
114 140 177
94 123 160
109 135 174
101 129 169
116 142 175
86 116 175
111 137 163
90 120 170
85 116 177
87 117 163
84 115 171
83 114 167
81 113 169
84 114 175
84 114 170
80 112 174
82 113 169
85 115 181
78 109 170
77 109 174
81 112 176
69 103 171
65 100 173
68 102 165
79 110 173
77 109 167
79 111 174
73 105 166
68 103 169
68 101 164
74 106 157
68 101 166
66 100 161
61 97 159
65 100 160
64 99 160
60 97 161
65 99 153
63 98 150
60 96 154
62 97 154
60 95 155
63 98 154
62 97 157
58 93 149
60 95 151
61 96 153
63 98 159
61 97 156
60 96 157
59 95 148
60 96 157
60 95 151
61 96 154
62 98 158
60 95 153
60 96 148
61 97 158
59 94 150
60 96 149
61 97 156
60 96 149
60 95 147
61 97 154
60 96 157
61 96 158
60 95 154
60 96 153
60 95 155
61 97 159
61 96 150
60 96 150
61 96 147
60 95 147
60 96 153
61 97 151
59 94 146
61 97 154
61 97 155
61 96 151
61 96 151
61 97 152
62 97 154
61 97 155
60 95 148
62 97 157
60 96 155
61 96 148
62 97 152
62 97 159
59 94 142
61 97 152
60 96 144
61 97 156
61 97 152
61 97 156
62 97 155
61 97 158
61 96 141
61 97 152
60 96 141
61 97 156
61 97 153
62 97 157
61 97 152
61 97 153
61 97 152
62 98 156
62 97 150
60 96 145
61 97 156
61 96 145
61 96 149
61 96 151
61 96 143
62 98 156
61 96 149
61 96 144
60 96 147
61 97 144
62 97 153
61 97 156
62 97 153
61 96 148
61 96 147
62 98 149
62 97 151
60 96 147
61 96 144
61 97 149
60 96 140
61 96 147
60 95 135
61 96 144
61 97 144
61 97 145
61 96 145
61 96 148
62 97 145
62 97 151
59 94 142
60 96 143
61 96 144
60 95 140
61 96 148
61 96 145
60 95 136
61 96 143
62 98 153
61 97 149
60 94 142
61 96 142
61 96 145
60 95 131
61 95 142
60 94 129
61 96 147
60 95 140
58 91 126
61 96 144
59 94 140
58 92 139
60 95 140
61 96 143
59 93 131
58 92 130
59 94 125
60 94 137
59 92 128
59 92 126
61 95 138
59 93 125
58 91 126
58 91 119
84 102 87
124 132 18
113 121 0
116 125 0
122 128 0
114 123 0
127 135 0
111 117 0
115 123 0
118 126 0
114 120 0
114 120 0
107 113 0
107 113 0
99 104 0
111 117 0
107 112 0
111 117 0
109 113 0
105 110 0
110 115 0
106 108 0
110 113 0
100 104 0
114 118 0
108 112 0
107 109 0
107 107 0
110 113 0
93 97 0
104 105 0
102 105 0
110 112 0
113 114 0
105 105 0
104 104 0
99 99 0
112 113 0
106 109 0
113 116 0
107 105 0
119 120 0
97 94 0
102 100 0
115 117 0
106 104 0
97 97 0
107 105 0
114 114 0
118 118 0
107 107 0
107 105 0
114 117 0
114 113 0
108 106 0
117 115 0
114 111 0
98 94 0
124 123 0
119 118 0
120 120 0
126 127 11
117 116 0
111 110 0
115 113 0
113 114 0
127 129 0
122 120 0
126 121 0
128 130 0
126 127 0
120 121 0
124 124 0
131 135 0
129 130 0
136 143 0
133 140 0
130 132 0
131 133 0
138 140 11
143 150 0
139 148 0
146 152 0
148 152 0
143 149 0
150 157 0
141 146 0
150 159 0
139 146 0
154 163 0
145 153 0
151 160 0
141 146 0
155 165 0
153 162 0
151 160 0
153 163 0
153 163 0
151 159 0
155 165 0
154 163 0
157 169 0
155 166 0
157 169 0
157 169 0
159 170 0
154 166 0
160 170 0
154 167 0
156 169 0
156 168 0
164 178 0
159 172 0
161 174 0
160 177 0
155 167 0
155 168 0
157 169 0
157 173 0
155 170 0
165 180 0
168 181 0
162 179 0
160 174 0
156 172 0
165 180 0
162 179 0
161 179 0
161 176 0
163 178 0
167 182 0
160 177 0
165 181 0
164 181 0
165 183 0
167 184 0
164 181 0
163 180 0
162 179 0
165 183 0
162 178 0
165 181 0
190 211 165
181 202 137
188 209 153
184 205 137
184 205 130
179 202 102
181 203 117
178 201 108
177 200 102
182 204 120
177 200 88
177 200 102
174 197 76
175 198 84
173 196 80
174 197 80
173 197 72
175 198 57
172 196 57
179 201 102
174 198 92
175 199 67
174 197 76
174 198 72
172 196 72
176 200 88
173 197 76
173 197 62
173 196 76
170 193 57
173 197 84
169 192 62
173 197 76
171 195 51
172 196 72
171 195 84
174 198 92
173 196 62
173 197 84
174 198 80
175 198 72
174 197 88
173 196 62
169 192 51
173 196 80
172 196 80
176 200 84
171 195 51
170 194 72
171 195 76
170 195 72
174 199 62
175 199 72
173 197 72
173 197 72
175 198 72
170 193 67
172 196 80
171 195 76
175 198 84
173 197 67
172 196 57
170 195 80
171 194 80
174 197 51
170 193 62
173 196 51
171 195 72
171 195 62
163 186 94
156 180 72
136 162 131
123 149 142
95 123 130
100 127 145
94 123 157
99 127 152
98 126 158
103 131 154
93 122 151
105 132 161
89 118 167
99 127 158
111 137 174
104 131 147
109 135 164
103 130 157
101 128 167
90 120 168
90 119 168
94 123 160
87 117 166
101 129 167
92 121 170
86 117 168
97 125 174
94 123 181
92 121 174
79 110 167
85 115 170
87 117 170
71 105 176
73 107 175
76 108 176
79 111 180
77 109 173
68 102 167
73 105 163
64 100 166
72 105 170
79 110 171
73 106 165
64 99 162
71 104 167
70 103 162
63 98 155
66 101 161
60 96 150
64 98 160
61 97 158
68 102 151
64 97 147
60 95 149
59 94 148
60 95 148
59 94 151
65 99 147
65 99 158
62 96 149
62 97 153
59 94 154
59 94 139
59 94 145
60 96 151
60 95 148
58 94 143
59 94 151
59 94 148
60 95 145
61 97 158
58 93 145
61 96 152
60 96 148
61 96 153
61 97 162
60 95 147
60 96 151
61 97 152
62 98 164
61 97 151
59 94 149
60 95 154
61 97 155
61 97 152
60 96 148
61 96 151
60 95 141
59 95 145
61 96 153
61 97 152
60 96 150
61 96 144
59 94 139
61 97 158
61 97 156
60 96 143
61 96 153
60 96 155
60 96 149
61 96 149
60 96 141
62 97 155
62 97 154
62 97 154
60 95 151
61 97 156
62 98 161
62 98 161
60 96 147
61 96 154
61 96 151
61 97 155
61 96 156
61 96 148
60 95 145
62 98 156
62 97 153
61 96 143
60 96 145
62 97 154
60 96 147
60 96 147
61 96 145
60 95 148
61 96 152
61 96 147
61 97 150
61 97 152
62 97 155
60 95 136
62 98 158
60 96 143
62 97 157
61 96 145
62 98 156
60 95 147
62 97 155
61 97 151
62 97 153
61 96 145
60 96 140
60 95 137
60 95 140
60 95 139
61 96 143
62 97 155
61 96 149
61 96 145
61 96 149
61 96 151
60 95 140
60 96 147
62 97 152
61 96 150
61 96 151
62 98 156
61 96 149
60 95 139
61 96 145
60 94 134
62 97 150
61 96 147
61 96 155
61 96 143
60 95 139
59 93 128
62 98 151
60 95 141
61 97 145
60 94 140
60 95 142
60 94 128
59 94 135
60 94 136
60 95 140
59 93 129
60 94 140
61 96 143
60 94 134
62 96 142
59 92 134
61 96 140
60 94 142
59 93 136
58 92 127
58 92 126
58 92 118
64 92 115
113 126 57
122 129 0
116 127 0
108 116 0
121 129 0
117 123 0
120 128 0
109 116 0
109 115 0
109 114 0
119 125 0
109 115 0
109 114 0
115 118 0
111 116 0
112 116 0
107 111 0
119 125 0
110 115 0
110 114 0
111 116 0
97 98 0
110 115 0
104 107 0
107 109 0
107 110 0
111 114 0
110 112 11
107 108 0
107 107 0
116 118 0
103 106 0
115 118 0
113 114 0
103 103 0
99 101 0
105 106 0
109 109 0
113 115 0
113 115 0
102 104 0
100 99 0
116 117 0
106 105 0
116 116 0
113 114 0
114 114 0
116 113 0
113 114 0
106 104 0
100 102 0
118 118 0
109 108 11
121 123 0
115 115 0
117 117 0
118 119 0
112 113 0
112 108 0
116 117 0
111 114 0
117 115 0
130 127 0
124 124 0
122 123 0
128 129 0
130 129 0
123 122 11
133 134 0
118 119 0
123 125 0
128 133 0
131 133 0
134 138 0
126 126 0
132 134 0
141 148 0
132 135 0
136 140 0
142 145 0
132 139 0
137 141 11
143 150 0
141 148 0
138 141 0
139 144 0
152 162 0
152 160 0
143 150 0
146 154 0
146 152 0
141 151 0
152 160 0
145 154 0
152 161 0
144 154 0
151 161 0
152 162 0
152 164 0
156 166 0
155 166 0
155 166 0
158 169 0
152 163 0
157 168 0
156 169 0
159 171 0
156 171 0
159 170 0
157 169 0
155 166 0
158 169 0
154 167 0
157 170 0
159 173 0
164 180 0
161 176 0
163 177 0
159 172 0
163 181 0
159 173 0
157 172 0
165 180 0
161 177 0
160 176 0
158 169 0
164 182 0
162 174 0
164 180 0
164 180 0
165 183 0
167 184 0
167 184 0
164 180 0
168 186 0
157 175 0
164 181 0
164 178 0
165 181 0
164 180 0
165 183 0
167 184 0
188 209 151
187 207 142
186 208 142
177 199 92
178 200 114
180 202 108
178 201 105
179 202 99
175 199 99
176 198 67
173 196 76
178 201 92
174 198 80
173 196 51
171 195 80
175 198 67
173 197 57
176 199 76
175 199 84
176 198 88
172 196 72
173 196 44
176 200 88
175 198 80
175 198 72
174 198 88
175 198 72
172 196 80
174 198 84
171 195 62
176 199 72
172 197 67
172 196 62
172 195 84
173 196 72
175 199 88
176 199 80
174 199 76
170 194 51
171 195 80
173 197 95
172 196 44
174 198 72
173 197 72
172 195 57
171 196 67
176 200 92
173 196 80
174 197 95
174 198 80
174 197 84
172 196 67
171 196 76
173 196 80
171 195 80
175 199 80
174 198 84
170 194 76
164 188 67
173 196 80
173 197 72
171 194 72
175 198 84
169 193 92
172 196 84
171 193 72
173 197 84
172 195 84
174 197 88
170 193 65
161 184 93
151 176 105
133 158 128
112 139 140
96 125 157
92 121 159
94 122 148
101 128 157
94 122 152
98 126 156
94 123 152
93 122 158
100 128 158
103 130 152
103 130 159
103 130 159
91 120 154
99 126 160
95 124 162
95 123 162
88 118 166
107 134 162
92 121 167
89 119 168
106 133 162
82 113 174
94 123 173
85 116 169
82 112 163
90 119 173
81 112 174
79 110 171
83 113 169
90 119 173
78 110 175
73 106 171
69 103 171
78 110 174
77 109 172
65 100 170
61 97 165
61 97 166
70 103 167
76 108 164
65 100 167
65 100 163
68 102 163
73 105 161
61 97 159
61 96 157
64 99 156
67 101 157
60 96 151
63 96 147
60 96 156
64 98 143
60 96 160
60 95 155
65 99 141
61 96 150
62 96 150
63 98 157
60 95 152
60 96 156
59 94 149
60 96 151
62 97 153
60 95 153
60 96 157
60 96 153
61 96 149
60 96 160
60 96 151
60 95 148
59 93 142
61 96 152
60 96 153
61 96 153
61 97 160
60 96 151
60 96 151
61 96 147
61 97 154
61 96 153
60 95 154
61 97 149
60 96 147
59 94 147
61 97 152
61 96 150
62 98 165
61 96 145
61 97 153
60 95 144
59 94 144
62 98 158
61 97 150
62 98 154
60 96 149
61 96 150
62 98 155
61 96 154
61 97 151
61 96 152
61 96 159
61 96 154
61 96 150
61 96 148
61 97 156
60 96 150
60 94 140
60 96 148
62 98 159
61 97 150
61 96 147
61 96 152
60 95 141
60 95 139
61 97 148
61 96 149
61 96 148
62 98 156
61 97 155
60 96 152
61 96 147
62 98 154
60 95 141
60 96 143
61 97 149
61 96 147
61 97 154
62 98 156
61 96 155
60 95 144
61 97 151
61 97 145
61 97 153
62 97 152
61 96 152
61 96 150
61 97 150
61 96 152
60 95 141
61 96 151
61 96 144
60 95 136
61 96 142
62 97 150
61 96 141
62 97 150
60 95 142
61 96 148
60 95 143
60 95 135
60 96 147
60 95 134
61 97 145
61 96 140
62 98 151
61 96 142
61 96 141
62 97 145
60 96 145
61 96 139
61 96 144
60 94 130
62 97 152
60 94 130
60 94 136
60 95 139
60 95 134
60 95 142
59 94 131
59 93 128
60 94 129
61 96 143
59 94 135
60 95 135
61 96 143
61 96 141
61 95 143
60 94 125
59 92 128
58 92 128
60 94 130
57 90 121
59 92 118
79 100 78
111 121 36
123 130 0
115 121 0
113 123 0
114 121 0
110 119 0
120 128 0
110 117 0
116 125 0
120 125 0
113 118 0
107 112 0
110 118 0
112 118 0
118 125 0
118 124 0
111 114 0
114 119 0
115 118 0
118 125 0
112 114 0
109 115 0
109 115 0
114 116 0
115 119 0
111 117 0
107 110 0
109 112 0
113 114 0
109 113 0
109 108 0
104 106 0
114 119 0
95 96 0
104 104 0
113 117 0
113 114 0
101 102 0
104 105 0
119 121 0
104 106 0
116 117 0
117 118 0
106 104 0
105 106 0
103 102 0
105 106 0
116 117 0
124 127 0
111 111 0
107 107 0
116 114 0
107 106 0
127 125 0
116 118 0
119 117 0
115 118 0
120 122 0
118 119 0
120 121 0
124 124 0
124 125 0
117 118 0
128 128 0
120 119 0
124 125 0
122 126 0
120 118 0
123 126 0
136 140 0
132 132 0
125 125 0
137 141 0
134 135 0
135 140 0
133 136 0
141 146 0
143 148 0
139 144 0
138 144 0
145 152 0
141 147 0
142 149 0
145 151 0
141 146 0
149 154 0
150 159 0
147 153 0
142 149 0
150 160 0
145 155 0
147 154 0
151 161 0
149 158 0
149 158 0
155 162 0
149 158 0
151 158 0
153 163 0
143 151 0
150 161 0
156 165 0
153 163 0
156 166 0
153 166 0
151 162 0
155 166 0
157 168 0
158 170 0
152 163 0
158 170 0
161 175 0
157 171 0
155 168 0
162 177 0
161 176 0
159 173 0
162 177 0
155 168 0
158 169 0
163 177 0
159 176 0
159 174 0
160 174 0
162 179 0
161 177 0
155 168 0
164 181 0
164 178 0
163 179 0
167 182 0
157 170 0
161 178 0
161 177 0
163 179 0
162 180 0
166 182 0
162 181 0
161 174 0
168 188 0
166 185 0
166 187 0
182 204 111
181 202 114
179 201 108
177 200 111
178 200 102
179 201 95
177 201 99
175 199 76
178 201 95
175 198 92
174 197 67
170 194 80
175 198 62
175 199 84
171 195 72
176 199 62
174 198 67
172 196 62
174 198 95
173 198 72
175 199 88
173 196 80
174 198 80
176 200 88
175 197 67
172 196 88
171 195 76
174 197 84
173 197 72
173 197 72
175 198 72
173 197 92
174 197 62
176 200 72
172 197 84
173 197 67
173 197 88
173 196 80
173 196 95
174 198 84
173 197 67
170 194 67
172 196 62
172 197 88
173 196 57
169 192 76
172 194 72
168 192 67
170 194 76
171 194 67
169 193 72
168 191 51
177 200 80
171 195 62
170 194 57
171 194 62
173 197 84
169 192 51
173 196 67
171 195 72
174 198 95
176 200 102
173 196 88
166 189 62
172 195 51
170 193 76
171 194 80
172 196 62
170 194 57
170 193 78
163 186 94
157 181 108
136 161 128
109 136 149
100 128 150
89 118 150
97 124 136
92 121 151
95 124 152
106 133 150
95 123 164
94 123 147
102 130 155
105 132 156
98 126 150
97 125 158
93 121 155
101 128 149
102 129 164
105 132 167
83 113 149
111 137 167
92 120 154
91 120 160
114 140 167
96 124 163
88 118 170
83 114 169
95 124 174
80 112 175
89 119 181
92 121 168
91 120 182
74 107 171
65 100 172
71 105 169
93 121 178
80 111 176
68 102 169
74 106 169
77 109 174
72 105 169
66 101 172
68 102 166
65 100 164
67 102 164
65 100 166
68 102 162
72 104 158
68 101 151
63 97 150
62 97 152
63 97 154
66 100 148
63 98 157
63 98 149
62 96 145
63 97 149
61 96 139
62 97 142
60 95 150
61 97 148
65 99 149
60 95 148
60 95 147
61 96 148
60 95 149
59 95 144
60 96 154
61 96 152
61 97 158
60 96 153
60 95 149
59 95 147
61 96 145
61 97 154
60 96 146
61 97 153
60 96 158
59 95 143
60 95 150
61 97 157
60 96 149
60 96 150
60 96 151
62 97 158
61 96 147
61 97 155
61 97 157
61 97 150
61 96 150
61 96 148
61 96 147
61 97 156
60 95 141
62 98 156
61 96 156
61 96 154
62 98 161
61 97 153
61 96 144
61 97 147
61 97 156
61 97 150
61 97 148
61 97 154
61 97 156
61 96 154
61 96 145
60 95 143
62 98 157
61 97 150
61 97 148
61 97 157
60 96 149
61 97 151
61 97 149
61 97 147
60 95 150
62 98 154
61 96 148
61 97 150
60 96 148
60 96 141
62 98 152
61 96 145
62 98 161
61 96 151
61 96 149
60 96 152
61 96 148
61 96 150
60 96 147
61 96 147
61 96 151
62 97 149
60 95 137
61 96 148
61 96 152
61 96 142
61 96 143
61 97 145
61 97 150
62 97 153
61 96 141
61 96 152
61 96 149
61 96 147
60 95 144
61 96 143
60 95 139
62 97 156
61 96 144
61 96 143
61 96 143
61 96 142
62 97 151
60 94 140
61 96 147
60 95 141
61 96 142
60 94 135
60 95 140
60 94 137
61 96 143
59 94 133
62 96 147
61 96 147
61 96 137
60 95 135
60 95 138
61 96 141
60 95 140
59 93 125
60 95 139
58 92 133
60 95 141
60 95 140
59 92 122
61 95 140
60 94 132
59 93 126
60 95 134
59 92 126
57 90 120
58 91 119
58 90 121
99 113 65
116 128 0
121 133 0
110 118 0
120 127 0
123 132 0
118 127 0
121 129 0
117 125 0
126 131 0
124 130 0
110 116 0
127 133 0
107 112 0
112 117 0
117 125 0
123 132 0
114 120 0
103 106 0
118 124 0
112 118 0
119 125 0
121 130 0
116 121 0
116 120 0
115 117 0
110 115 0
119 124 0
115 120 0
112 116 0
108 110 0
103 104 0
111 114 0
109 112 0
114 116 0
116 122 0
111 111 0
113 114 0
117 120 0
112 114 0
108 108 0
122 125 0
110 113 0
111 117 0
107 106 0
116 116 0
108 104 0
116 115 0
119 123 0
121 121 0
125 129 0
114 113 0
128 130 0
114 117 0
115 119 0
116 117 0
121 122 0
121 123 0
119 120 0
116 115 0
134 137 0
120 121 0
119 122 0
116 113 0
129 133 0
128 129 0
130 135 0
128 128 0
127 127 0
130 134 0
133 136 0
128 132 0
132 133 0
135 137 0
138 141 0
138 144 0
133 137 0
142 147 0
141 146 0
143 149 0
140 147 0
135 138 0
142 150 0
143 147 0
143 151 0
152 162 0
141 150 0
139 144 0
142 149 0
140 147 0
150 158 0
141 147 0
144 150 0
146 154 0
148 156 0
155 165 0
151 160 0
149 158 0
151 158 0
151 160 0
155 166 0
153 165 0
156 169 0
154 162 0
158 168 0
152 160 0
158 170 0
151 163 0
158 171 0
154 164 0
153 165 0
155 167 0
156 169 0
158 172 0
157 170 0
158 173 0
162 177 0
159 174 0
159 175 0
161 177 0
163 178 0
163 177 0
153 167 0
158 173 0
161 176 0
157 174 0
156 170 0
165 182 0
164 179 0
163 178 0
159 176 0
163 179 0
160 176 0
163 180 0
165 185 0
163 179 0
163 179 0
163 179 0
164 181 0
164 182 0
166 185 0
165 183 0
165 184 0
185 207 130
180 202 108
176 198 84
180 202 102
178 201 114
171 195 62
170 194 67
172 196 88
173 196 72
171 196 72
176 199 84
169 194 62
171 195 72
174 197 67
176 199 72
173 197 72
170 194 72
174 198 80
175 199 76
173 197 57
173 198 80
172 195 57
172 195 51
171 195 76
173 197 80
171 194 72
171 195 88
172 195 57
171 195 67
174 197 95
173 196 62
171 194 57
170 194 62
173 198 102
175 199 108
170 193 72
172 197 92
173 197 92
169 193 80
171 195 67
171 195 76
173 197 67
174 197 67
170 193 51
172 197 72
171 194 72
169 191 57
172 196 62
172 195 44
173 197 76
165 188 72
168 192 76
173 195 72
170 195 62
169 194 72
172 196 57
171 194 80
173 196 76
173 196 62
172 195 67
169 193 80
172 195 62
166 190 76
175 199 84
168 191 76
167 189 72
176 198 67
170 193 57
172 195 62
172 195 88
156 180 72
148 172 100
143 166 103
125 151 128
99 126 147
86 116 149
88 117 157
97 125 151
90 119 150
100 128 155
97 125 152
90 120 150
100 127 155
102 130 152
95 124 158
89 118 153
101 128 155
97 126 156
98 125 152
100 127 155
91 120 156
94 122 157
86 116 160
94 123 169
101 128 163
88 118 157
93 122 170
98 126 167
102 129 161
83 113 169
92 121 172
97 125 171
83 114 164
80 111 172
83 114 169
87 116 175
88 117 173
79 110 171
82 112 174
74 107 177
79 111 172
71 104 168
68 102 166
76 108 160
65 100 164
84 113 164
61 97 161
64 99 156
62 97 155
61 97 159
67 100 151
65 99 149
64 99 158
63 97 153
68 102 157
62 97 149
60 95 151
61 96 149
62 97 150
64 99 150
61 95 149
63 97 150
62 96 138
61 96 150
61 96 151
59 94 142
59 94 151
60 95 145
60 95 143
60 95 144
60 96 154
60 95 152
59 94 144
59 95 152
60 96 153
60 95 153
59 94 141
60 95 148
61 96 142
60 96 150
59 94 140
62 98 158
61 96 154
62 97 149
60 96 153
61 97 150
60 95 149
61 97 157
60 96 142
61 96 152
60 95 143
61 97 149
61 96 152
61 96 152
61 97 151
62 97 155
61 97 156
60 96 149
61 97 151
62 97 150
61 96 148
61 96 150
61 96 152
61 96 142
62 98 157
61 96 147
63 98 154
62 97 150
61 97 159
60 96 145
60 95 147
62 98 158
61 97 153
62 98 158
60 96 147
61 96 149
61 97 150
62 97 142
61 97 149
62 97 153
61 97 149
62 97 145
61 97 149
62 97 152
62 97 152
62 97 157
60 95 149
61 96 148
62 98 154
61 96 144
62 98 159
62 97 153
61 97 149
61 96 144
61 97 150
60 95 140
61 97 144
61 96 150
61 96 148
61 97 148
61 96 147
62 97 150
61 96 145
61 96 139
61 97 152
60 95 145
61 96 145
60 95 136
62 97 151
61 96 147
60 95 139
62 97 145
60 95 141
61 96 143
61 96 151
61 96 147
62 97 149
61 97 148
61 96 145
60 94 136
60 96 145
60 95 142
61 96 141
61 96 144
61 96 147
60 94 133
61 95 141
61 96 141
61 96 141
59 94 149
59 93 130
59 93 130
58 92 131
60 94 130
61 96 141
60 95 131
59 92 122
58 92 131
60 94 133
59 93 135
60 94 133
58 93 133
58 91 120
58 91 122
59 92 129
58 90 118
71 97 100
110 121 40
109 115 0
124 133 0
118 126 0
111 119 0
104 110 0
122 131 0
115 125 0
113 124 0
113 118 0
113 119 0
113 118 0
112 118 0
118 123 0
113 121 0
119 127 0
122 131 0
101 109 0
110 116 0
113 118 0
127 133 0
112 115 0
118 122 0
108 115 0
113 117 0
121 124 0
123 131 0
108 109 0
125 129 0
104 108 0
112 116 0
117 121 0
113 117 0
114 115 0
116 120 0
121 126 0
116 121 0
100 101 0
108 109 0
115 120 0
126 130 0
113 112 0
110 110 0
109 111 0
111 112 0
110 112 0
123 122 0
115 121 0
109 111 0
114 117 0
123 122 0
119 122 0
120 121 0
129 133 0
137 141 0
116 119 0
117 118 0
114 113 0
123 121 0
121 125 0
117 116 0
130 132 0
131 133 0
137 140 0
129 134 0
127 127 0
126 125 0
126 129 0
128 133 0
129 134 0
131 135 0
138 144 0
137 143 0
132 133 0
128 134 0
143 145 0
145 150 0
142 147 0
143 148 0
137 143 0
136 142 0
150 156 0
138 142 0
144 149 0
146 151 0
147 156 0
147 157 0
147 155 0
152 163 0
145 152 0
152 161 0
140 146 0
150 156 0
156 167 0
152 163 0
151 161 0
151 162 0
149 157 0
147 159 0
153 164 0
154 166 0
153 164 0
159 171 0
155 166 0
147 158 0
164 177 0
159 172 0
156 168 0
154 167 0
156 172 0
156 167 0
156 166 0
161 175 0
154 168 0
161 176 0
158 172 0
158 173 0
162 176 0
160 175 0
156 170 0
161 177 0
161 177 0
164 180 0
161 178 0
161 175 0
161 177 0
164 182 0
165 182 0
165 180 0
163 181 0
161 179 0
162 177 0
162 180 0
163 180 0
166 184 0
166 182 0
167 184 0
160 178 0
164 182 0
162 179 0
165 183 0
162 177 0
166 186 0
177 199 114
176 199 84
176 200 99
176 199 84
174 197 76
174 197 80
175 198 95
174 197 88
172 195 36
173 197 72
175 198 76
176 199 92
175 197 80
173 197 84
175 198 72
175 198 76
172 195 76
171 195 80
176 199 72
173 197 57
174 197 67
172 195 62
174 197 76
169 192 76
171 196 72
172 196 67
174 197 76
173 196 67
173 196 72
177 201 92
169 192 57
171 195 72
174 198 88
170 194 80
171 194 57
171 195 72
174 198 67
170 194 51
171 195 80
170 194 76
175 199 92
173 196 57
170 194 84
169 192 67
169 195 80
170 194 76
171 195 88
169 193 76
169 192 62
172 196 72
172 195 57
170 194 80
170 194 62
174 197 76
172 197 62
164 189 72
167 191 72
172 195 51
169 193 72
171 194 76
171 195 76
171 195 92
173 196 80
169 193 76
171 194 80
170 192 44
172 196 76
174 197 72
172 195 76
173 196 67
169 192 76
154 178 82
140 163 105
141 165 126
97 125 137
86 115 145
83 113 144
101 127 144
96 124 151
105 132 166
107 134 160
92 121 159
101 128 144
99 126 148
96 125 160
107 133 147
98 126 150
88 116 144
94 122 148
106 132 143
99 127 161
101 128 164
104 131 165
92 120 161
96 124 154
99 127 161
91 120 157
96 124 160
85 116 166
96 124 173
89 119 172
78 109 161
76 108 171
81 112 167
76 109 169
78 109 169
78 110 162
76 108 171
86 116 177
82 113 175
68 102 164
75 108 172
74 107 177
80 110 166
64 99 160
76 107 168
64 98 161
71 103 164
65 100 163
68 101 158
61 97 160
61 95 139
60 96 155
60 96 150
62 97 145
63 98 155
61 97 153
60 95 148
59 94 138
61 95 139
61 96 146
62 97 145
62 97 147
61 95 138
62 96 144
61 97 155
60 95 150
60 95 143
59 94 149
59 95 159
61 96 144
61 96 144
61 97 153
59 95 142
60 96 143
60 95 147
60 95 144
60 95 151
60 96 149
58 93 130
62 97 155
61 96 148
60 96 149
60 95 137
62 97 158
61 96 151
60 95 143
60 95 145
62 98 156
62 98 155
61 96 152
60 95 147
61 97 150
61 96 154
59 94 145
62 97 151
60 96 150
61 96 153
59 94 143
59 94 145
61 97 154
60 96 147
61 96 151
60 95 140
61 97 153
60 95 150
61 96 155
60 95 148
61 97 155
62 97 153
61 97 148
60 96 148
60 95 150
61 97 153
61 96 148
60 95 144
62 97 148
61 97 154
61 96 151
61 97 152
61 96 150
61 96 143
60 96 148
61 97 147
60 96 144
61 97 151
61 97 150
61 96 148
61 96 148
61 96 144
62 98 153
61 97 149
61 96 148
60 95 137
61 96 149
61 96 147
61 96 152
61 96 144
62 97 153
60 95 143
61 96 152
61 96 143
60 95 141
60 95 142
61 97 149
61 96 147
62 97 151
60 95 140
61 96 148
60 94 131
61 96 144
60 96 145
60 96 149
60 95 141
60 95 143
61 96 140
61 96 143
61 96 150
60 95 139
61 96 142
60 96 141
61 96 134
61 95 141
61 96 147
61 96 144
60 95 141
61 96 141
61 95 141
60 95 137
61 95 139
60 95 140
59 93 129
59 94 131
61 95 136
59 94 131
60 95 136
60 94 133
58 92 125
60 95 143
59 92 133
58 92 135
59 94 127
58 92 120
57 90 120
59 92 123
60 90 112
93 109 84
112 120 18
118 128 0
118 124 0
120 128 0
120 130 0
110 118 0
126 135 0
116 125 0
107 115 0
113 123 0
125 132 0
114 122 0
119 128 0
125 133 0
122 130 0
110 114 0
112 119 0
119 127 0
122 131 0
113 120 0
116 122 0
114 118 0
109 114 0
117 124 0
112 117 0
109 111 0
110 114 0
114 121 0
120 125 0
109 115 0
115 118 0
124 129 0
117 121 0
110 115 0
116 120 0
110 112 0
118 121 0
123 128 0
115 120 0
106 110 0
120 125 0
119 119 0
111 112 0
123 127 0
116 119 0
124 126 0
105 105 0
123 124 0
111 109 0
119 123 0
109 108 0
114 117 0
125 126 0
130 134 0
108 107 0
118 118 0
123 125 0
116 117 0
119 121 0
132 138 0
129 133 0
123 124 0
130 133 0
117 119 0
141 142 0
137 142 0
134 138 0
133 137 0
133 138 0
137 144 0
138 141 0
134 140 0
140 145 0
129 136 0
135 141 0
139 142 0
136 140 0
133 140 0
149 157 0
145 152 0
139 144 0
137 142 0
145 150 0
145 149 0
145 151 0
151 156 0
141 146 0
153 160 0
139 148 0
150 157 0
149 155 0
148 158 0
150 159 0
151 160 0
153 162 0
150 162 0
154 163 0
157 168 0
154 163 0
150 161 0
158 172 0
156 168 0
161 170 0
152 164 0
158 171 0
145 158 0
153 164 0
152 163 0
154 167 0
159 171 0
147 158 0
158 171 0
156 169 0
163 176 0
160 172 0
161 178 0
159 172 0
157 170 0
156 169 0
156 173 0
160 175 0
159 176 0
159 174 0
157 171 0
163 180 0
161 177 0
159 174 0
159 173 0
159 177 0
162 180 0
159 175 0
167 183 0
163 179 0
164 182 0
163 177 0
160 178 0
162 182 0
165 182 0
164 181 0
166 185 0
161 178 0
165 185 0
164 183 0
179 202 111
176 200 62
174 198 84
169 193 62
175 198 76
175 198 76
176 199 76
174 198 72
171 195 62
174 198 67
172 196 51
174 197 72
172 195 67
174 198 67
174 197 57
172 195 84
171 195 51
171 195 76
173 197 72
173 197 72
171 195 84
172 196 72
172 195 72
176 198 67
170 195 57
173 196 92
171 196 76
172 197 76
172 196 67
171 195 67
171 194 76
171 194 72
173 197 72
168 193 67
173 196 76
173 197 88
170 193 72
167 191 88
170 193 80
169 193 62
170 194 76
171 194 80
169 194 88
170 194 72
174 198 76
172 196 76
172 197 80
171 195 67
166 191 92
173 197 95
173 196 80
171 194 62
174 198 76
169 192 72
171 194 92
170 194 76
171 195 72
173 196 57
171 194 72
172 196 76
170 194 80
171 195 57
171 194 72
170 193 51
166 190 44
170 194 72
171 194 72
173 197 67
170 194 72
169 193 62
168 192 74
165 188 94
148 172 94
144 168 130
101 129 130
86 115 148
94 123 163
93 121 148
98 125 149
84 114 150
95 123 149
97 125 148
87 117 160
103 130 159
106 133 159
93 122 160
108 134 155
97 124 146
94 122 150
109 135 161
96 124 160
104 131 162
98 126 150
97 126 163
98 125 162
94 122 162
99 126 158
97 124 156
92 121 162
89 119 163
94 123 169
110 136 178
92 120 176
81 112 163
75 107 172
83 114 177
81 113 173
79 110 170
75 108 169
73 106 172
82 112 170
71 104 168
72 106 170
79 110 172
79 110 169
68 103 175
71 104 164
68 102 164
68 102 167
66 100 154
65 100 163
62 97 156
59 94 143
62 97 155
60 96 154
60 95 151
65 100 148
64 99 152
61 95 135
61 95 151
66 98 143
63 97 152
59 95 144
60 95 147
59 93 145
61 95 140
57 91 140
60 96 151
61 96 155
61 96 148
60 95 150
62 97 157
60 95 148
60 96 150
60 95 144
61 96 150
60 95 147
62 98 154
60 96 141
60 96 149
62 97 154
61 97 153
61 97 153
59 94 145
62 97 155
62 97 158
61 96 150
60 95 150
60 95 153
59 94 143
61 96 148
61 96 149
60 95 143
60 95 143
61 96 150
61 96 147
62 97 155
59 94 150
61 97 153
61 97 152
61 96 149
61 96 149
61 96 144
60 95 149
60 95 140
61 96 148
61 96 147
61 96 145
60 95 136
60 95 147
62 98 157
61 96 149
61 97 148
61 97 152
62 97 153
61 96 151
62 98 158
61 96 153
62 98 152
60 96 144
61 97 145
62 97 150
62 97 149
62 97 157
61 97 153
61 96 137
61 96 142
60 96 145
60 95 140
61 96 150
61 96 142
60 95 133
61 96 145
61 96 148
61 96 145
62 97 148
61 97 148
60 95 140
61 96 144
62 97 152
61 96 140
62 97 149
61 96 147
61 95 140
60 95 140
61 97 147
61 96 141
61 96 147
61 96 144
61 96 142
62 98 157
61 95 141
61 96 144
60 95 140
60 95 144
60 95 143
61 97 150
61 95 148
60 95 135
59 93 135
60 95 140
61 97 150
61 96 143
59 93 128
60 95 139
61 97 142
60 95 140
60 95 139
61 95 140
61 96 144
60 95 143
59 93 129
60 95 135
60 95 136
61 96 147
62 97 149
58 92 115
58 92 132
59 94 135
58 91 125
58 93 126
60 93 136
58 91 120
59 92 120
57 89 117
79 101 106
110 122 51
130 143 0
118 127 0
118 127 0
112 122 0
107 116 0
121 132 0
115 123 0
119 127 0
111 120 0
114 122 0
121 127 0
112 119 0
121 131 0
115 120 0
104 112 0
116 125 0
127 135 0
123 129 0
117 128 0
117 124 0
117 122 0
116 122 0
114 120 0
118 127 0
117 124 0
123 129 0
109 115 0
105 111 0
123 129 0
117 122 0
118 124 0
114 119 0
122 125 0
106 109 0
114 115 0
120 122 0
100 101 0
114 117 0
109 111 0
110 114 0
120 125 0
118 120 0
111 114 0
121 123 0
119 125 0
112 116 0
122 125 0
119 123 0
118 119 0
118 120 0
124 129 0
114 118 0
116 119 0
123 124 0
127 130 0
132 136 0
125 127 0
126 132 0
129 133 0
131 137 0
129 131 0
133 136 0
133 135 0
127 129 0
132 134 0
136 139 0
134 136 0
137 139 0
135 138 0
128 128 0
143 151 0
132 134 0
131 139 0
133 137 0
136 140 0
146 152 0
139 147 0
134 138 0
145 151 0
140 148 0
145 150 0
146 153 0
154 162 0
149 155 0
144 150 0
144 153 0
151 158 0
139 144 0
152 163 0
151 160 0
147 157 0
144 151 0
150 159 0
153 165 0
148 159 0
154 166 0
150 160 0
156 167 0
156 169 0
151 161 0
153 163 0
151 165 0
152 163 0
151 160 0
146 156 0
160 173 0
159 173 0
151 163 0
153 163 0
160 175 0
157 169 0
154 168 0
161 176 0
160 174 0
155 166 0
158 173 0
161 177 0
159 173 0
158 173 0
157 169 0
164 181 0
158 174 0
159 175 0
162 178 0
151 167 0
167 184 0
164 179 0
163 178 0
165 182 0
154 168 0
158 173 0
161 177 0
164 183 0
161 176 0
162 178 0
163 182 0
162 178 0
162 179 0
164 184 0
167 183 0
167 185 0
169 187 0
165 182 0
175 198 72
176 199 67
170 193 44
175 198 72
170 194 67
175 199 84
174 198 84
169 194 80
172 195 44
172 195 62
176 200 99
173 196 57
170 194 72
172 196 62
172 196 62
171 196 80
176 200 95
173 197 72
173 198 76
171 195 57
173 198 67
172 196 92
174 197 62
173 196 72
171 195 72
172 195 76
169 194 76
174 198 72
171 195 62
173 196 57
172 197 84
170 195 72
168 192 84
171 196 88
170 194 51
172 197 84
169 193 57
172 196 62
174 198 76
170 194 62
170 194 80
174 198 76
172 197 84
173 196 95
172 196 88
176 199 67
171 195 67
172 195 80
173 196 62
173 195 67
168 190 51
171 195 76
168 192 36
170 193 84
168 191 72
172 195 72
173 196 72
171 194 84
170 194 80
173 197 84
169 192 57
173 197 80
166 190 51
173 197 88
169 194 92
168 192 67
169 193 62
165 189 57
165 187 62
173 196 102
172 195 51
173 197 82
158 180 103
146 169 118
128 154 114
99 125 130
82 112 145
82 111 131
98 126 157
88 116 144
85 115 147
100 128 150
89 117 155
96 124 141
94 122 157
104 130 147
84 114 153
101 129 153
91 120 156
99 127 150
99 126 150
100 127 154
107 134 154
89 118 155
98 125 163
100 127 162
96 123 158
95 123 163
95 124 160
89 119 160
99 127 171
93 122 162
88 118 170
76 108 162
81 112 169
81 112 173
92 120 166
86 116 177
84 114 175
84 114 175
71 103 165
68 103 172
87 117 174
74 107 166
71 104 167
60 96 155
69 102 167
72 105 176
69 102 165
67 101 158
61 96 154
60 95 145
63 96 150
60 96 155
61 97 155
61 96 149
62 97 155
64 98 147
60 95 143
63 99 157
60 95 145
59 94 150
60 96 154
62 96 144
61 95 144
64 98 149
61 95 135
60 96 150
59 93 146
60 95 145
60 95 151
61 96 150
60 95 142
59 93 131
59 95 153
60 95 143
59 95 144
60 95 152
59 93 140
59 94 144
60 95 148
60 96 147
60 95 146
61 96 150
60 95 145
61 96 150
61 97 153
59 94 140
60 95 140
62 97 154
60 95 148
60 95 149
60 96 146
60 96 150
61 97 150
60 95 143
60 95 145
61 96 150
60 95 146
61 96 150
60 95 139
61 96 149
60 96 151
61 96 150
61 96 144
61 96 149
61 97 147
61 97 153
60 96 148
60 95 145
61 97 152
62 98 152
60 95 142
61 96 151
60 96 148
60 96 140
60 95 145
60 95 150
61 96 140
61 96 148
61 96 147
60 94 140
61 96 143
61 97 150
61 96 145
60 96 145
59 95 139
61 97 149
60 95 139
62 98 156
62 98 154
60 96 147
61 96 149
62 97 149
61 96 142
60 96 141
61 96 143
61 96 145
62 98 158
62 97 149
60 95 140
60 95 145
60 95 148
60 95 135
61 97 152
60 94 129
60 95 139
60 95 139
60 95 137
60 95 139
58 92 120
61 96 147
61 96 148
61 96 143
59 93 134
61 96 143
61 97 144
60 94 128
61 96 142
60 96 137
60 95 136
60 95 136
61 95 142
59 94 131
61 96 140
59 93 131
60 95 143
60 95 125
61 97 144
59 93 120
61 96 147
59 94 130
59 93 127
57 91 124
61 95 140
60 94 126
59 93 129
59 93 124
59 92 125
58 91 126
59 93 133
58 92 125
57 90 110
58 91 117
64 94 110
98 116 72
114 127 25
115 125 0
116 127 0
122 135 0
121 133 0
122 133 0
114 123 0
109 119 0
115 123 0
113 122 0
117 126 0
123 134 0
120 129 0
128 138 0
119 127 0
124 133 0
113 122 0
118 127 0
113 121 0
111 118 0
114 123 0
128 131 0
111 118 0
118 123 0
126 132 0
118 123 0
123 127 0
122 127 0
101 109 0
124 134 0
122 128 0
114 122 0
122 127 0
121 125 0
116 122 0
119 124 0
115 121 0
118 124 0
122 124 0
115 120 0
122 128 0
130 134 0
129 133 0
120 125 0
122 125 0
122 124 0
107 109 0
119 125 0
115 116 0
126 130 0
123 124 0
118 119 0
134 140 0
134 140 0
121 123 0
127 128 0
119 124 0
135 139 0
115 119 0
117 122 0
127 133 0
139 144 0
114 116 0
133 138 0
132 136 0
122 124 0
132 138 0
129 137 0
131 137 0
132 137 0
133 137 0
139 146 0
133 137 0
137 140 0
129 132 0
137 142 0
145 154 0
142 147 0
137 145 0
142 147 0
136 142 0
141 150 0
142 146 0
145 151 0
139 144 0
151 161 0
140 147 0
139 148 0
150 158 0
141 149 0
154 161 0
151 160 0
154 161 0
152 161 0
148 159 0
147 158 0
161 172 0
156 167 0
158 168 0
155 165 0
153 165 0
147 155 0
155 168 0
160 173 0
153 164 0
150 160 0
152 164 0
154 166 0
159 170 0
150 162 0
158 172 0
159 174 0
158 173 0
158 172 0
163 174 0
159 172 0
160 172 0
156 167 0
163 178 0
160 174 0
164 177 0
158 175 0
157 171 0
161 174 0
158 173 0
159 177 0
163 179 0
160 175 0
157 175 0
165 182 0
156 171 0
168 187 0
170 188 0
166 184 0
163 181 0
161 180 0
161 175 0
164 182 0
164 182 0
158 176 0
166 183 0
159 174 0
167 187 0
164 182 0
175 197 76
173 197 76
172 196 72
172 196 80
171 195 67
171 195 57
173 196 62
173 197 72
173 198 72
174 198 67
174 198 72
174 197 99
172 195 67
175 199 72
170 194 80
172 196 76
173 196 62
173 197 84
171 195 84
169 193 67
173 196 57
172 196 62
173 197 72
171 195 57
170 193 67
170 194 72
168 192 80
172 196 51
171 196 76
170 194 76
172 197 80
173 196 76
173 197 80
170 194 67
171 195 102
171 195 80
169 194 72
171 195 57
168 193 57
173 196 67
170 194 72
171 194 44
170 194 57
171 194 51
172 195 67
171 195 44
169 193 67
173 196 84
173 197 88
171 194 62
167 190 62
174 198 80
168 191 51
166 189 67
166 190 57
169 194 72
175 199 84
167 191 57
167 189 62
169 194 72
174 196 84
172 196 88
170 194 92
170 192 76
166 190 76
167 191 62
170 193 76
166 189 44
168 192 72
167 190 67
169 193 72
169 191 70
163 186 88
151 176 103
135 159 121
108 134 139
83 112 144
89 119 147
97 125 145
99 126 147
107 134 149
89 118 156
98 126 155
99 127 150
102 129 153
96 125 162
110 136 153
100 127 153
99 126 156
92 121 151
101 127 158
89 117 144
96 124 153
96 123 147
105 131 143
91 120 161
96 124 160
103 130 169
87 117 150
84 114 149
93 121 166
99 126 157
81 112 167
81 112 171
88 117 167
91 120 165
81 112 173
81 112 168
78 110 168
85 115 169
71 105 176
76 108 168
68 103 170
67 101 162
64 99 159
71 104 166
77 108 169
74 107 167
79 110 166
65 99 155
61 97 158
64 99 159
62 97 149
60 95 152
62 97 152
60 96 149
60 95 148
65 99 151
62 96 143
63 97 151
62 96 144
61 97 150
64 99 154
63 97 139
61 95 140
59 93 147
61 96 143
60 95 144
60 95 144
60 96 148
61 96 147
60 95 144
59 94 144
58 93 134
59 94 143
61 97 152
59 94 136
61 96 155
61 97 152
60 95 141
60 95 147
60 96 152
62 97 161
60 95 144
60 95 148
61 96 150
62 97 150
61 96 154
62 97 149
58 93 133
60 96 144
61 96 150
60 95 141
61 96 152
62 98 158
60 95 144
61 97 149
62 98 157
60 94 137
61 97 148
60 95 147
61 96 153
61 96 147
60 95 142
59 93 143
61 96 151
61 95 146
60 95 137
60 96 149
60 96 147
61 97 156
60 95 147
60 96 143
60 95 147
61 96 147
61 96 144
60 95 137
61 97 145
61 97 149
61 97 152
61 96 143
61 97 153
61 96 147
61 96 153
61 97 151
60 96 147
62 97 151
62 98 151
61 97 145
60 95 142
61 96 143
61 97 144
60 95 145
61 96 141
60 95 140
61 97 151
59 94 135
60 94 144
60 96 145
61 96 148
60 95 134
62 97 150
61 97 152
60 95 140
61 97 148
60 94 137
60 95 137
61 96 143
62 97 150
60 95 135
60 95 140
59 94 141
60 95 137
60 95 135
60 95 142
60 95 139
61 96 145
61 96 148
60 94 141
60 95 140
60 95 134
60 96 141
59 94 131
62 97 149
61 96 141
59 94 131
60 94 128
61 95 140
60 95 135
61 96 137
61 96 143
60 95 134
61 96 141
59 93 139
60 95 136
60 94 130
58 92 122
61 95 139
60 94 131
57 90 117
58 91 126
60 95 134
57 90 115
55 87 101
68 96 108
103 119 65
116 128 0
116 127 0
123 135 0
123 133 0
114 119 0
123 134 0
117 128 0
118 129 0
123 133 0
119 129 0
124 135 0
112 121 0
104 115 0
116 124 0
133 143 0
120 129 0
123 133 0
126 133 0
119 124 0
114 119 0
118 125 0
117 125 0
118 126 0
118 126 0
119 125 0
115 123 0
119 123 0
110 117 0
118 124 0
127 136 0
118 123 0
120 126 0
115 121 0
120 126 0
122 128 0
117 124 0
116 120 0
123 131 0
118 122 0
120 127 0
120 124 0
120 123 0
122 127 0
122 125 0
124 128 0
127 132 0
124 129 0
129 135 0
120 123 0
112 111 0
122 125 0
114 116 0
126 129 0
126 131 0
128 130 0
129 132 0
128 134 0
127 132 0
125 128 0
127 130 0
137 141 0
132 136 0
138 146 0
133 137 0
123 130 0
140 144 0
126 129 0
133 137 0
138 141 0
133 134 0
136 143 0
137 142 0
133 138 0
141 147 0
142 149 0
138 143 0
141 149 0
133 139 0
143 151 0
143 152 0
147 155 0
139 147 0
139 143 0
150 159 0
150 157 0
146 151 0
142 150 0
141 148 0
153 161 0
137 145 0
146 156 0
151 160 0
147 157 0
149 160 0
151 162 0
151 162 0
158 172 0
150 158 0
156 166 0
153 163 0
156 167 0
156 168 0
152 164 0
152 162 0
152 163 0
147 157 0
150 160 0
156 167 0
160 175 0
154 165 0
148 160 0
158 172 0
160 173 0
158 173 0
161 177 0
159 175 0
160 173 0
159 175 0
164 180 0
163 179 0
163 179 0
160 176 0
155 170 0
160 176 0
161 177 0
161 178 0
161 177 0
160 176 0
166 182 0
163 180 0
162 175 0
167 185 0
166 182 0
166 184 0
166 183 0
162 180 0
165 184 0
165 182 0
165 183 0
163 180 0
162 180 0
164 181 0
160 178 0
162 179 0
175 198 72
171 195 57
169 193 80
169 194 84
173 196 62
172 195 76
175 199 62
175 198 84
172 196 95
175 198 67
169 192 62
171 195 80
170 194 84
171 195 80
175 199 92
174 198 88
173 197 80
174 198 84
172 197 80
172 196 57
173 197 84
173 197 88
173 197 62
172 196 67
173 196 88
172 195 36
171 195 72
170 195 76
173 196 80
171 194 57
175 199 84
170 193 88
171 195 62
169 193 67
169 193 57
169 193 72
171 196 80
173 196 51
171 195 67
173 197 72
172 196 72
167 191 72
166 190 72
170 193 51
173 196 57
170 194 57
167 191 76
169 193 62
166 190 62
168 191 72
172 195 88
169 193 62
170 194 80
173 197 67
168 191 57
175 199 92
171 194 62
170 194 51
169 193 67
169 191 62
168 191 80
170 193 84
173 197 95
169 192 67
170 194 72
165 189 57
167 190 72
171 194 76
164 188 62
167 190 76
170 193 76
167 191 88
165 189 97
161 184 80
151 175 111
122 147 117
95 122 140
89 118 143
85 115 144
95 123 137
87 117 150
99 127 146
88 117 139
87 117 150
87 116 151
80 110 146
100 127 144
103 130 149
103 130 158
84 112 149
106 132 150
102 129 158
93 121 151
90 119 145
91 120 151
101 128 150
83 112 150
97 126 158
99 126 156
95 122 145
86 116 163
92 121 156
78 110 158
92 121 159
84 114 161
85 115 160
92 120 175
75 107 171
73 106 167
81 112 168
76 108 166
84 114 175
73 106 169
67 101 164
77 108 163
73 105 168
69 103 164
67 100 158
67 101 164
67 101 159
60 96 156
71 103 157
62 96 145
61 97 162
62 96 151
60 95 145
61 96 150
65 99 143
62 97 145
65 99 138
61 95 144
61 95 143
63 97 148
62 97 147
64 98 140
65 99 144
60 95 151
62 97 149
59 94 144
60 95 154
60 95 153
60 94 136
60 95 139
60 95 144
60 95 143
59 95 147
60 95 144
61 96 147
61 96 148
61 97 153
60 95 148
60 95 148
59 95 143
59 95 143
63 98 154
60 95 147
60 95 149
61 96 150
61 96 149
61 97 158
61 97 153
60 96 148
60 96 142
61 96 142
61 97 149
60 96 145
61 96 153
61 97 157
61 96 142
61 97 149
60 95 144
61 97 149
60 96 147
62 97 149
61 97 151
61 96 139
61 96 150
60 95 139
59 94 139
62 97 150
61 96 143
61 96 148
61 97 150
61 97 151
62 97 154
59 94 139
59 94 133
61 96 144
60 95 143
61 97 147
59 94 140
60 96 140
61 97 148
61 97 151
61 96 142
62 97 148
61 96 139
60 95 142
61 96 144
61 97 148
61 96 140
62 97 152
61 96 141
61 96 145
60 96 144
61 96 145
61 96 142
61 96 143
60 96 144
60 95 131
60 94 135
61 96 141
61 95 137
60 95 137
62 97 150
60 95 135
60 95 141
60 95 135
60 95 139
61 96 141
60 94 136
60 95 142
59 94 133
60 95 134
59 94 141
60 94 137
59 93 133
60 95 136
60 95 145
61 97 144
60 94 134
61 95 140
60 95 138
59 94 128
60 95 137
59 93 125
60 95 137
59 94 133
60 95 135
61 95 140
59 94 125
59 93 133
60 95 143
57 90 122
59 93 126
60 94 132
59 93 126
58 92 125
59 93 129
59 93 119
58 91 126
56 89 121
58 91 120
60 93 117
73 95 89
108 120 25
108 117 0
128 142 0
129 140 0
117 126 0
111 121 0
116 126 0
121 130 0
126 139 0
122 131 0
123 130 0
117 126 0
99 107 0
124 133 0
118 128 0
114 124 0
117 126 0
124 133 0
113 122 0
122 131 0
108 117 0
111 119 0
119 129 0
115 122 0
121 131 0
114 122 0
116 123 0
125 132 0
122 128 0
119 126 0
117 121 0
117 123 0
125 133 0
116 123 0
115 118 0
125 132 0
115 122 0
123 126 0
120 124 0
124 129 0
121 123 0
121 128 0
132 137 0
118 123 0
131 135 0
130 138 0
128 134 0
130 135 0
123 129 0
131 136 0
124 128 0
121 123 0
123 125 0
131 136 0
126 131 0
124 129 0
134 141 0
123 129 0
125 132 0
128 133 0
136 143 0
135 140 0
135 140 0
132 138 0
136 141 0
139 143 0
127 133 0
133 138 0
135 142 0
137 140 0
130 135 0
140 144 0
133 138 0
133 142 0
136 142 0
137 143 0
140 146 0
148 157 0
139 147 0
139 149 0
133 138 0
146 154 0
139 146 0
147 157 0
150 160 0
151 160 0
145 154 0
147 151 0
149 158 0
150 161 0
150 159 0
148 157 0
144 153 0
146 155 0
155 166 0
151 163 0
143 152 0
146 155 0
155 164 0
151 163 0
154 164 0
152 164 0
149 160 0
150 162 0
154 167 0
153 164 0
151 162 0
159 172 0
149 161 0
155 167 0
158 171 0
155 170 0
157 169 0
157 172 0
159 175 0
162 178 0
155 169 0
158 171 0
162 180 0
158 172 0
159 173 0
159 174 0
158 173 0
158 172 0
158 175 0
161 176 0
166 182 0
162 178 0
162 178 0
159 174 0
162 179 0
160 177 0
161 177 0
165 182 0
160 176 0
162 179 0
162 180 0
165 182 0
169 189 0
165 183 0
166 184 0
167 186 0
164 181 0
167 184 0
169 187 0
176 200 76
174 198 62
176 200 67
175 197 67
174 198 92
171 195 72
175 199 72
172 196 76
173 197 84
171 194 67
172 196 80
171 195 80
171 195 62
172 197 92
169 194 57
172 196 57
172 196 51
170 194 62
173 196 80
172 196 62
172 196 84
174 198 88
171 195 72
173 197 76
173 197 67
172 197 72
169 193 76
170 194 67
172 196 92
172 196 72
169 194 80
170 195 88
173 197 72
169 193 67
171 194 62
171 196 72
171 195 62
172 196 88
172 195 76
166 190 76
169 193 57
168 191 36
169 193 62
173 197 67
169 193 51
164 188 67
173 197 84
172 196 76
168 191 51
169 193 84
173 197 92
168 191 72
164 187 62
170 193 62
168 191 72
170 195 84
171 195 62
171 196 67
171 195 92
169 193 76
169 192 72
168 191 44
169 193 62
165 189 84
164 188 62
172 195 62
163 187 72
169 192 80
165 189 76
166 190 57
165 188 72
167 191 84
160 183 67
155 179 86
150 174 108
119 145 114
107 133 129
93 121 131
83 113 142
101 128 153
93 121 148
94 122 143
82 112 136
103 130 150
95 123 146
103 130 154
98 126 147
96 124 155
101 128 143
96 124 155
102 129 152
102 129 153
103 130 153
109 136 166
98 125 148
92 121 145
100 128 159
103 130 148
84 114 153
102 129 162
113 138 160
88 117 154
95 122 155
107 134 169
93 121 171
95 124 171
87 115 161
79 110 169
85 115 173
75 107 159
81 112 174
71 105 166
76 108 168
76 108 166
77 108 168
71 104 168
79 110 167
71 105 173
62 98 164
66 100 159
67 100 162
60 96 158
66 100 158
65 100 160
60 96 145
64 99 155
60 95 147
62 97 145
60 94 147
59 94 147
64 98 148
62 96 144
64 98 139
61 95 139
63 97 149
62 96 142
62 96 138
60 95 141
59 93 134
63 97 142
60 95 145
60 96 151
58 93 133
60 96 149
60 95 140
60 95 147
60 95 148
60 94 143
60 95 140
59 94 148
60 95 148
61 96 149
61 97 154
60 95 137
59 94 140
60 95 136
59 94 143
60 96 149
60 95 149
61 97 152
59 94 139
61 96 145
61 96 150
61 96 145
61 96 146
60 95 144
61 97 154
61 96 148
62 97 152
61 96 142
61 96 149
62 98 155
60 95 141
60 96 143
61 96 145
62 97 150
61 97 151
61 96 144
61 96 143
62 98 161
60 95 147
60 95 140
61 96 149
60 95 143
60 95 141
61 97 144
60 95 143
60 96 141
59 94 136
61 96 144
60 96 148
60 95 137
61 96 147
61 96 144
60 96 140
60 96 144
61 97 153
61 97 148
61 96 147
61 97 153
60 96 145
61 95 147
60 95 137
61 97 150
61 96 148
62 97 142
61 96 147
60 96 148
60 96 144
61 95 141
59 94 131
62 98 149
60 95 149
60 95 133
60 95 140
60 95 139
59 94 135
62 97 142
60 95 134
60 94 137
61 96 144
60 94 131
60 95 140
60 95 140
60 95 139
60 95 148
60 95 141
60 95 136
60 95 135
61 96 141
60 95 137
61 95 135
58 92 129
60 94 135
60 94 133
60 94 136
61 96 142
60 94 137
59 93 125
60 95 129
59 93 127
59 93 122
60 95 140
60 95 138
60 94 131
59 94 134
61 95 136
59 93 137
59 92 125
59 93 129
59 93 124
57 90 125
56 88 110
69 94 97
105 119 57
121 133 0
125 137 0
119 127 0
120 131 0
119 130 0
102 111 0
134 145 0
128 139 0
121 129 0
114 125 0
129 140 0
114 124 0
124 132 0
130 140 0
120 132 0
132 144 0
128 139 0
116 125 0
128 139 0
123 133 0
119 126 0
109 116 0
124 134 0
113 121 0
133 142 0
124 132 0
118 124 0
126 134 0
126 132 0
114 122 0
123 126 0
117 121 0
120 126 0
112 116 0
117 122 0
117 121 0
105 113 0
121 126 0
124 131 0
117 122 0
117 120 0
116 123 0
123 129 0
130 135 0
121 127 0
114 120 0
128 132 0
129 135 0
121 125 0
129 135 0
121 126 0
127 132 0
126 133 0
124 129 0
116 121 0
129 135 0
124 129 0
134 139 0
117 122 0
128 134 0
131 136 0
141 148 0
131 138 0
140 146 0
130 134 0
142 146 0
129 133 0
133 137 0
136 140 0
140 146 0
140 145 0
137 144 0
133 140 0
145 151 0
144 150 0
137 142 0
138 146 0
142 149 0
132 140 0
140 147 0
139 146 0
137 143 0
147 154 0
149 158 0
140 147 0
147 156 0
151 160 0
148 157 0
145 153 0
152 162 0
147 154 0
147 157 0
155 166 0
152 162 0
148 157 0
157 167 0
150 158 0
155 166 0
154 164 0
157 168 0
154 165 0
151 164 0
157 170 0
155 166 0
154 167 0
154 167 0
154 167 0
154 165 0
159 173 0
152 164 0
161 174 0
159 173 0
154 165 0
159 169 0
158 171 0
156 170 0
157 168 0
158 173 0
161 176 0
160 174 0
158 174 0
164 181 0
155 171 0
154 170 0
156 171 0
162 179 0
164 183 0
159 177 0
163 180 0
164 181 0
161 178 0
161 177 0
162 179 0
164 181 0
168 184 0
157 173 0
164 182 0
163 180 0
167 185 0
164 184 0
163 183 0
167 184 0
164 181 0
164 183 0
165 184 0
173 197 76
174 197 67
175 198 76
172 195 80
173 197 88
171 195 67
175 198 80
173 197 76
170 194 62
171 194 57
171 195 51
170 194 72
168 190 57
173 196 72
172 196 76
170 194 62
171 195 76
175 198 57
172 197 80
170 194 62
172 196 76
171 195 84
170 194 57
174 197 80
173 197 57
175 199 92
172 196 72
173 196 62
172 196 62
172 196 95
174 198 84
170 194 84
166 190 72
172 195 67
172 195 57
169 192 57
169 194 95
170 194 72
170 194 72
169 193 72
167 192 72
168 193 80
174 197 62
172 196 57
172 196 62
172 195 57
166 189 72
170 194 88
165 189 51
170 194 80
165 188 80
170 194 84
168 192 44
170 193 72
168 192 84
170 195 80
167 191 44
166 190 80
166 189 51
173 196 57
168 191 62
171 195 72
171 194 105
171 194 80
170 194 102
167 190 62
165 189 62
169 192 57
169 193 88
171 195 88
167 190 72
167 191 92
173 197 92
165 188 70
161 184 94
133 158 113
109 136 129
103 130 135
97 125 148
88 117 159
101 129 165
85 114 144
99 127 150
97 126 145
86 115 156
85 115 154
98 125 144
81 111 148
85 115 155
99 126 150
91 120 155
100 127 158
101 128 151
84 113 156
88 117 143
96 123 154
92 120 156
97 125 155
94 122 151
112 138 178
98 125 153
96 124 156
101 128 152
90 118 160
87 116 150
84 115 159
83 113 174
79 111 166
84 114 161
89 118 173
79 111 163
88 118 178
83 114 175
78 110 177
73 105 163
74 106 167
70 103 162
81 111 168
80 110 162
66 100 161
69 101 162
71 102 152
70 102 162
63 97 158
65 99 145
66 101 155
60 95 153
65 98 143
64 99 156
65 100 147
64 99 159
61 95 148
63 97 140
63 97 145
61 95 143
60 94 139
60 95 145
59 94 141
63 96 138
60 95 145
60 96 139
58 92 137
60 95 145
60 95 151
61 96 149
60 95 149
59 93 143
60 95 146
59 94 140
60 96 145
60 95 148
60 95 137
61 96 150
60 94 140
60 96 149
60 95 144
61 96 140
60 95 139
61 96 148
60 95 141
59 94 139
60 95 145
60 96 147
61 96 142
59 94 144
60 95 144
60 95 150
61 96 144
60 96 145
60 96 137
61 96 149
62 97 148
61 96 147
61 96 147
60 95 139
60 95 137
61 96 150
61 96 148
62 97 147
60 96 148
60 95 141
61 96 145
60 95 136
60 95 140
60 95 145
61 97 154
62 97 151
61 97 145
61 96 147
59 94 135
60 95 140
61 96 150
60 96 144
61 96 150
60 94 137
60 96 147
61 97 142
60 96 147
61 96 143
61 96 148
61 97 148
60 95 149
61 96 148
59 94 134
60 95 142
61 96 141
60 95 144
61 96 149
60 95 137
60 94 137
60 95 141
60 94 140
62 97 151
61 96 143
61 96 144
61 96 149
61 96 144
59 93 131
58 92 130
61 96 142
59 94 131
59 95 144
59 94 124
60 94 125
60 95 144
60 95 135
60 95 141
61 96 141
61 96 148
61 96 141
60 95 136
61 96 141
60 95 133
60 96 144
60 94 133
61 96 134
59 93 126
59 93 131
58 92 128
60 95 135
59 94 134
60 94 135
60 95 135
60 94 135
59 93 135
59 93 129
58 91 118
60 94 122
57 90 117
58 92 125
58 90 125
58 91 120
59 89 107
95 115 90
113 125 31
119 134 0
122 134 0
115 128 0
121 136 0
126 135 0
125 137 0
130 141 0
116 125 0
127 139 0
111 118 0
119 129 0
127 139 0
123 133 0
123 131 0
114 124 0
122 132 0
120 130 0
114 121 0
122 130 0
119 130 0
128 140 0
120 128 0
128 137 0
127 134 0
114 120 0
126 134 0
124 132 0
131 139 0
125 132 0
119 125 0
116 123 0
111 118 0
127 134 0
121 130 0
123 130 0
129 137 0
125 133 0
122 128 0
123 130 0
126 134 0
114 121 0
108 112 0
124 128 0
129 135 0
116 123 0
129 135 0
113 120 0
122 125 0
124 129 0
128 133 0
127 133 0
138 146 0
127 132 0
124 130 0
113 115 0
127 134 0
132 139 0
132 138 0
133 140 0
141 147 0
137 144 0
131 135 0
132 138 0
132 138 0
131 137 0
142 149 0
130 136 0
134 142 0
140 145 0
131 139 0
144 152 0
147 157 0
145 153 0
143 151 0
141 151 0
147 157 0
140 149 0
152 161 0
137 143 0
147 157 0
144 151 0
144 152 0
144 151 0
150 161 0
143 148 0
143 154 0
153 163 0
142 150 0
150 159 0
152 163 0
149 158 0
143 152 0
151 158 0
150 162 0
149 159 0
153 164 0
152 165 0
149 160 0
154 166 0
160 174 0
158 168 0
152 165 0
157 170 0
160 171 0
152 163 0
155 166 0
156 171 0
155 165 0
157 168 0
159 173 0
157 170 0
158 170 0
152 167 0
154 167 0
158 173 0
155 171 0
159 173 0
157 173 0
161 175 0
156 172 0
165 182 0
164 180 0
161 178 0
156 171 0
161 179 0
159 175 0
156 171 0
159 176 0
157 173 0
164 181 0
164 182 0
164 180 0
163 180 0
164 182 0
158 174 0
165 182 0
159 174 0
163 180 0
167 184 0
161 177 0
164 180 0
158 175 0
165 184 0
160 179 0
165 183 0
174 198 76
174 197 44
174 197 76
173 196 51
174 197 62
175 199 72
168 191 57
173 196 62
170 193 80
176 199 57
173 197 72
173 197 67
175 197 72
172 196 80
172 197 72
170 195 72
170 194 57
172 196 67
171 196 76
174 197 72
174 197 80
172 197 84
173 196 67
173 196 36
171 195 67
170 194 84
169 193 76
171 194 76
170 193 76
173 197 76
172 196 72
167 192 80
175 199 72
171 194 80
170 194 62
172 196 88
169 194 92
170 195 80
169 193 80
170 194 76
168 192 62
168 192 62
170 194 84
167 191 67
169 192 57
168 192 51
167 191 76
174 198 67
169 193 62
164 188 44
166 190 62
170 194 72
164 188 57
166 190 72
164 188 84
171 194 57
167 192 76
171 195 57
163 187 84
161 185 72
166 188 72
166 189 76
170 194 92
164 187 62
168 191 88
167 191 44
168 190 80
168 192 57
166 190 44
165 188 67
166 188 76
173 195 84
167 190 84
167 191 86
157 180 76
157 180 97
129 154 124
104 131 129
81 109 131
104 131 150
99 126 149
96 123 148
93 121 144
89 118 145
101 127 144
89 117 139
90 118 145
103 130 163
99 127 157
98 125 148
86 115 153
97 125 157
85 114 140
103 129 143
92 120 152
85 114 154
94 122 152
102 129 158
97 125 149
98 125 154
95 123 154
85 114 159
94 123 160
86 115 151
88 117 158
102 129 157
86 115 160
77 109 158
91 120 159
87 117 169
83 113 166
84 114 165
79 111 174
84 114 171
77 109 171
71 105 173
74 105 166
78 109 175
66 99 149
76 107 166
65 100 159
64 99 156
63 98 155
64 98 153
60 96 162
64 98 152
63 97 146
62 97 157
65 100 155
60 95 150
63 96 147
62 98 165
62 96 137
60 95 144
60 95 144
61 96 151
59 95 148
59 93 139
59 94 145
58 93 136
59 94 143
60 95 145
60 94 144
60 94 143
60 95 143
61 96 153
60 96 149
59 94 134
59 93 135
59 93 135
60 95 144
61 96 154
60 95 137
60 95 143
59 94 140
61 96 150
61 96 144
60 96 146
60 95 145
60 95 141
62 97 157
61 96 143
60 95 147
61 96 147
60 95 144
61 96 149
60 95 143
61 96 146
61 97 150
59 93 142
60 95 139
61 96 145
61 96 150
61 96 147
61 96 145
60 95 135
60 95 140
61 96 141
59 94 134
61 96 144
61 96 151
60 96 143
61 96 155
61 96 141
60 95 140
61 96 144
60 95 144
59 94 135
61 97 151
62 97 148
62 97 149
61 96 149
62 98 154
61 96 151
61 96 140
61 96 141
61 96 139
61 96 143
61 96 142
61 96 143
61 96 142
61 96 144
61 97 148
61 96 143
60 94 136
60 95 139
61 97 147
60 94 133
60 95 139
61 96 144
60 95 139
61 97 148
61 97 147
62 97 145
59 94 131
59 94 130
61 96 145
61 96 145
59 93 126
61 95 136
59 94 133
61 97 148
61 95 142
60 95 140
61 96 147
60 95 145
60 95 135
60 95 137
61 96 147
59 94 133
59 93 135
60 94 136
61 96 139
59 94 124
59 93 130
59 93 126
58 92 126
60 94 129
60 94 134
60 94 135
61 95 137
60 94 134
59 93 126
60 94 133
58 92 125
59 93 131
59 93 126
58 91 115
59 92 122
58 92 124
58 92 115
57 90 120
86 110 107
97 114 45
123 136 18
120 133 0
129 142 0
126 137 0
117 129 0
121 133 0
122 133 0
119 129 0
115 125 0
117 125 0
116 128 0
120 131 0
111 123 0
113 124 0
124 135 0
121 131 0
128 135 0
118 128 0
117 127 0
118 127 0
130 139 0
120 128 0
133 144 0
118 128 0
112 118 0
125 135 0
127 137 0
129 135 0
138 149 0
127 134 0
124 131 0
127 138 0
111 119 0
125 133 0
135 143 0
129 138 0
115 122 0
143 151 0
130 138 0
127 134 0
129 139 0
125 131 0
127 133 0
116 121 0
113 117 0
131 137 0
135 143 0
133 140 0
135 144 0
119 127 0
136 145 0
124 132 0
125 127 0
125 128 0
124 130 0
122 128 0
132 137 0
131 136 0
135 145 0
131 138 0
136 142 0
130 135 0
138 143 0
133 140 0
142 150 0
129 133 0
131 139 0
130 139 0
135 138 0
136 142 0
137 142 0
133 139 0
137 147 0
146 154 0
144 151 0
142 150 0
146 155 0
138 146 0
145 156 0
148 158 0
147 155 0
140 148 0
146 152 0
145 156 0
147 156 0
149 158 0
147 155 0
147 154 0
146 157 0
152 162 0
145 154 0
151 160 0
153 162 0
153 165 0
144 153 0
147 158 0
152 162 0
151 165 0
157 168 0
152 162 0
158 171 0
159 171 0
164 179 0
149 164 0
152 164 0
155 167 0
160 173 0
155 166 0
151 163 0
155 166 0
154 166 0
156 169 0
160 174 0
161 173 0
162 176 0
154 167 0
157 171 0
164 180 0
162 179 0
163 179 0
159 175 0
161 176 0
162 178 0
160 174 0
159 178 0
165 182 0
161 178 0
159 174 0
163 180 0
162 179 0
163 178 0
162 175 0
165 184 0
161 177 0
167 184 0
165 182 0
160 177 0
163 181 0
156 173 0
161 176 0
160 177 0
167 184 0
161 179 0
159 179 0
169 189 0
161 180 0
172 196 62
175 199 84
173 196 51
177 200 92
171 195 80
171 195 25
172 196 84
170 194 57
171 196 72
174 197 72
172 195 51
172 195 57
171 196 76
174 197 67
171 194 62
167 190 67
172 197 84
172 196 72
170 194 72
171 194 67
170 194 72
169 193 72
169 193 76
172 195 67
172 197 99
173 196 72
171 195 80
172 196 62
174 199 99
170 194 67
167 191 99
167 191 80
168 192 76
167 191 67
171 194 57
166 189 57
172 195 84
169 193 80
167 192 80
172 197 92
169 193 62
169 193 51
171 194 51
173 197 84
169 193 57
173 196 84
165 189 84
167 192 76
167 190 57
166 189 51
165 189 51
172 195 88
168 192 62
164 188 72
172 195 62
169 192 44
170 194 72
166 189 72
164 187 76
168 192 84
167 191 76
170 193 84
165 189 80
164 186 57
168 191 51
169 193 99
170 194 92
169 192 67
167 191 76
164 187 62
165 188 80
172 195 80
168 191 67
166 189 62
163 186 88
148 172 78
138 162 118
113 138 118
97 124 144
81 111 144
96 123 129
85 114 153
83 112 133
78 108 136
99 126 149
95 122 140
104 131 160
88 116 139
94 121 137
97 124 155
97 124 150
96 124 152
96 123 154
91 119 143
97 124 154
104 130 150
93 120 151
87 115 151
88 116 157
94 122 140
97 124 146
96 124 149
93 122 164
96 123 145
90 119 155
84 113 153
91 120 149
95 124 161
98 125 164
78 110 166
78 109 167
88 117 166
85 116 167
90 119 167
83 113 169
74 107 173
79 110 160
75 107 166
67 101 158
61 96 159
73 105 160
71 103 152
65 98 148
65 100 159
68 100 151
62 96 146
67 101 151
67 100 146
60 96 151
63 97 150
65 99 148
65 98 135
60 95 150
65 99 141
60 95 148
61 95 139
61 94 135
62 97 147
61 96 134
61 95 142
58 93 143
60 95 147
59 94 141
60 96 151
59 94 144
59 94 144
60 96 154
59 93 137
60 94 137
60 94 142
60 95 138
61 96 143
60 94 140
59 95 143
60 95 142
61 96 154
60 95 149
60 96 145
60 95 142
59 93 141
60 95 141
61 96 151
61 96 143
59 95 145
62 97 152
61 96 143
60 95 134
61 97 152
61 96 144
60 95 144
61 96 145
61 96 146
61 96 147
59 94 151
60 94 136
61 96 143
60 95 142
61 96 145
61 96 147
60 95 147
60 95 148
61 97 150
61 97 147
59 94 142
60 96 144
60 95 150
60 95 142
61 96 147
60 95 139
60 95 142
61 97 149
61 96 149
60 95 141
60 96 148
60 95 136
62 97 149
60 95 142
62 97 150
60 94 135
60 95 130
60 95 140
61 96 147
61 97 145
61 97 149
61 96 141
61 96 142
61 97 144
60 95 140
61 96 148
61 96 147
60 95 136
59 94 133
62 97 144
61 96 136
60 95 133
61 96 139
61 95 139
60 95 137
61 96 136
60 95 137
61 95 139
61 96 143
61 96 139
62 96 142
59 94 128
60 95 134
59 94 131
60 94 140
59 93 129
60 95 133
59 93 131
60 94 125
60 95 135
61 96 142
58 91 131
59 93 126
59 94 130
60 94 130
60 95 139
60 94 134
60 95 147
59 94 135
59 94 135
58 92 122
59 93 122
59 93 131
58 92 115
58 92 128
59 93 126
58 90 122
56 89 110
62 91 101
93 111 70
119 132 25
112 125 0
115 126 0
115 126 0
112 121 0
125 134 0
119 130 0
118 127 0
117 129 0
121 133 0
127 139 0
127 138 0
115 124 0
109 120 0
112 125 0
115 125 0
121 132 0
125 136 0
120 130 0
106 115 0
124 133 0
121 132 0
123 130 0
122 131 0
118 125 0
132 141 0
111 120 0
113 121 0
123 132 0
128 137 0
132 140 0
128 136 0
136 146 0
126 135 0
125 129 0
129 138 0
131 139 0
135 145 0
122 130 0
122 131 0
123 131 0
119 129 0
123 130 0
132 142 0
126 132 0
127 135 0
123 129 0
126 135 0
133 140 0
130 140 0
124 132 0
133 141 0
127 134 0
132 140 0
126 133 0
120 128 0
135 144 0
126 132 0
133 139 0
132 141 0
130 137 0
129 133 0
138 149 0
137 143 0
129 135 0
139 146 0
133 141 0
139 148 0
135 143 0
135 142 0
137 145 0
137 144 0
145 153 0
139 150 0
139 146 0
137 144 0
141 151 0
137 145 0
141 149 0
152 162 0
143 151 0
143 153 0
148 161 0
145 155 0
148 158 0
148 158 0
149 161 0
143 152 0
144 155 0
155 166 0
151 162 0
151 162 0
152 161 0
151 162 0
144 155 0
145 153 0
150 161 0
150 161 0
157 167 0
149 160 0
155 163 0
150 163 0
151 161 0
152 164 0
158 170 0
154 169 0
160 175 0
156 171 0
155 168 0
150 161 0
160 175 0
157 170 0
153 165 0
156 169 0
153 167 0
157 169 0
155 168 0
151 163 0
161 176 0
161 179 0
162 179 0
163 180 0
157 173 0
156 172 0
161 176 0
162 174 0
160 175 0
158 176 0
160 176 0
160 176 0
159 174 0
158 174 0
161 177 0
158 174 0
159 177 0
160 175 0
164 181 0
165 183 0
167 185 0
163 181 0
163 183 0
162 181 0
165 183 0
169 186 0
165 185 0
163 180 0
166 185 0
176 199 67
175 199 88
172 196 62
172 196 57
175 199 88
173 197 67
170 194 84
174 198 62
174 197 76
173 197 67
174 197 57
171 194 76
170 194 67
169 195 88
167 192 62
172 196 67
173 198 99
171 195 76
169 193 67
170 194 92
169 193 57
174 197 67
170 194 80
172 196 80
169 193 84
171 194 80
170 194 67
173 197 72
169 193 67
169 193 84
169 193 76
174 197 67
172 196 62
172 195 62
168 192 62
171 194 51
170 194 72
170 195 76
171 195 84
169 193 62
168 192 76
171 196 80
168 191 57
171 196 80
167 192 72
163 187 62
169 193 72
171 194 62
167 191 62
171 195 88
169 193 88
172 195 84
165 189 72
165 188 67
166 189 51
171 195 88
167 191 67
164 187 44
168 192 80
167 190 62
166 190 67
165 188 57
172 195 67
165 188 76
163 186 67
167 190 80
161 184 67
166 189 62
169 193 80
165 188 57
167 190 76
166 189 44
164 187 88
160 184 72
164 188 76
158 181 84
146 170 92
133 157 111
113 139 129
95 123 148
85 114 147
94 122 144
94 122 147
81 112 145
90 118 126
89 118 154
71 102 142
87 116 143
109 134 156
103 130 143
92 120 156
88 116 144
93 120 147
104 131 162
96 124 154
95 122 139
109 135 150
89 117 148
97 125 158
95 123 162
107 133 161
96 123 151
92 121 145
93 121 151
96 123 151
89 118 157
95 123 164
89 119 160
98 126 161
75 107 151
94 121 160
80 111 162
81 112 172
83 114 164
88 116 161
68 102 167
77 109 168
81 111 172
64 99 162
69 102 156
69 101 147
70 103 163
70 102 161
65 100 162
61 96 155
65 98 153
59 94 139
65 99 157
65 99 145
60 95 150
60 94 145
59 94 139
60 95 145
63 97 153
60 95 144
62 96 140
66 100 142
62 96 141
61 95 140
59 93 141
63 97 141
59 94 139
59 94 133
60 95 141
60 95 139
60 96 143
60 95 143
60 95 143
61 97 150
59 93 129
61 96 150
59 95 141
61 96 149
60 94 140
59 94 137
61 96 139
61 96 147
60 95 143
59 94 139
59 95 143
60 95 138
60 94 145
61 97 149
60 95 143
60 95 144
61 96 139
59 94 136
61 96 145
61 96 144
60 94 139
60 95 142
61 96 148
60 94 137
60 95 144
60 95 134
61 96 148
60 95 140
60 95 135
60 95 139
61 96 142
61 96 150
61 96 147
60 95 145
60 95 142
61 96 147
61 96 139
59 94 129
60 95 136
60 95 137
60 95 144
60 94 142
59 94 139
61 97 150
61 96 140
62 97 150
61 96 142
60 95 133
59 94 133
60 95 143
60 95 137
61 96 144
61 96 140
60 95 136
61 96 147
61 96 142
60 95 143
61 97 143
59 94 137
60 96 143
60 96 147
59 94 142
60 95 134
60 95 144
60 96 143
61 96 139
60 95 137
60 94 133
61 96 142
62 97 144
60 95 133
60 94 131
60 95 131
61 96 142
59 93 130
61 95 143
61 95 135
60 95 135
60 95 139
59 94 128
58 92 126
60 94 129
60 94 128
60 94 130
61 95 145
59 93 128
60 95 143
59 94 131
61 95 140
60 95 136
59 93 131
58 91 120
58 92 133
60 94 128
59 92 121
59 93 121
59 92 123
59 92 120
59 92 121
60 94 126
57 91 107
59 92 121
90 111 85
105 120 54
122 133 0
124 136 0
126 140 0
122 134 0
132 145 0
114 125 0
121 129 0
112 123 0
132 146 0
121 130 0
119 128 0
119 130 0
118 128 0
117 130 0
119 129 0
126 134 0
118 128 0
129 141 0
125 135 0
120 131 0
120 132 0
119 130 0
112 120 0
110 118 0
128 138 0
128 141 0
126 136 0
121 135 0
126 138 0
117 126 0
119 127 0
119 128 0
127 137 0
120 129 0
126 137 0
120 130 0
134 144 0
131 140 0
130 139 0
125 132 0
119 124 0
127 134 0
126 136 0
129 138 0
138 147 0
127 136 0
126 132 0
124 132 0
122 130 0
121 128 0
127 134 0
123 127 0
124 130 0
128 137 0
134 141 0
137 144 0
134 141 0
138 146 0
119 125 0
132 139 0
142 151 0
137 143 0
133 143 0
134 141 0
139 146 0
138 146 0
136 141 0
127 136 0
134 144 0
137 143 0
138 145 0
136 142 0
139 147 0
151 163 0
142 151 0
139 145 0
150 160 0
156 168 0
147 158 0
146 156 0
144 153 0
148 156 0
144 154 0
144 153 0
147 155 0
158 171 0
148 158 0
153 163 0
153 168 0
137 146 0
148 158 0
152 164 0
151 161 0
153 164 0
154 165 0
155 169 0
147 157 0
151 161 0
155 167 0
159 171 0
153 164 0
151 163 0
150 162 0
151 162 0
154 168 0
148 159 0
157 171 0
154 168 0
155 169 0
157 173 0
157 169 0
156 169 0
154 166 0
157 173 0
153 169 0
164 179 0
158 172 0
158 172 0
164 181 0
156 169 0
161 176 0
159 175 0
162 177 0
160 176 0
160 176 0
160 178 0
156 173 0
162 176 0
163 179 0
163 181 0
165 183 0
158 173 0
165 183 0
165 182 0
164 183 0
161 178 0
162 180 0
162 180 0
164 181 0
162 177 0
162 179 0
163 181 0
166 183 0
165 185 0
164 181 0
165 184 0
167 186 0
171 195 67
173 196 80
174 197 88
169 193 62
175 198 51
172 195 57
174 198 84
170 194 36
172 196 80
172 195 80
173 197 57
173 197 51
172 195 51
173 196 44
171 193 67
167 191 57
173 197 76
174 197 76
170 194 76
171 195 84
171 195 57
168 192 57
172 196 67
171 194 76
170 194 76
171 196 80
168 192 57
171 196 67
171 194 72
171 194 72
172 196 62
172 196 76
172 196 67
167 191 72
167 191 57
175 198 80
170 194 57
169 193 62
172 197 72
167 190 57
169 193 84
172 194 72
171 196 72
171 195 80
173 196 92
172 195 67
166 189 62
170 194 57
168 193 67
168 192 80
171 195 95
168 192 72
170 193 44
166 190 67
167 191 62
167 190 76
162 186 80
161 184 67
168 192 88
167 190 62
170 193 36
166 190 80
170 193 67
167 192 80
166 190 88
169 192 67
164 188 67
163 186 67
162 185 62
158 181 67
161 183 57
166 190 67
163 188 84
162 184 67
165 188 67
166 189 67
153 177 113
141 165 111
116 141 118
94 122 146
88 117 145
86 115 138
91 119 139
87 115 136
78 108 134
103 129 138
98 126 154
95 122 141
99 126 151
83 113 149
92 121 156
82 111 141
96 123 150
102 129 161
96 123 149
94 121 138
100 126 157
92 119 154
97 124 152
99 126 147
89 118 160
95 123 144
91 119 147
98 125 147
98 125 143
89 118 159
92 120 132
99 126 154
92 121 156
86 115 156
88 117 160
82 112 163
89 118 171
77 108 163
79 110 164
69 102 156
81 111 168
64 99 163
79 110 169
77 108 161
79 109 171
65 100 159
61 96 160
64 98 153
63 98 160
62 96 154
63 98 155
65 99 156
60 95 149
59 94 144
59 94 144
63 97 140
64 98 147
63 97 143
63 97 144
59 93 143
59 94 144
68 100 139
60 94 134
63 96 129
61 95 143
60 94 139
60 95 141
58 93 142
60 94 147
60 95 147
60 95 134
60 95 138
59 94 137
60 94 134
59 94 139
59 93 138
59 94 147
60 95 144
59 94 132
60 95 140
59 94 143
60 95 145
60 95 141
60 95 143
60 96 142
59 94 139
60 94 136
61 96 147
61 96 143
60 95 150
60 94 139
61 97 151
61 96 141
61 96 144
60 95 141
61 96 143
62 97 153
60 94 131
61 96 148
60 95 144
60 96 136
60 95 141
62 97 148
61 97 148
61 96 140
60 96 142
60 94 141
61 96 143
60 94 135
61 96 143
60 96 140
60 95 134
60 95 140
61 97 148
61 97 143
60 95 142
59 94 137
62 97 150
59 93 134
60 95 142
60 95 130
62 97 150
61 96 144
59 94 131
61 97 145
60 95 140
61 96 141
60 95 133
61 96 145
61 96 139
61 96 142
61 96 141
61 95 137
61 96 141
61 95 137
60 94 134
60 95 136
60 94 135
60 95 131
62 97 143
61 97 141
61 96 139
60 94 128
59 94 128
60 95 137
60 95 145
60 94 133
60 95 135
60 94 131
61 96 143
60 94 133
59 94 135
60 95 140
58 92 111
57 91 120
59 93 126
60 94 131
59 93 130
61 95 133
59 93 129
60 94 135
60 95 134
58 92 130
59 93 131
60 94 140
60 94 133
58 91 121
60 94 126
56 89 120
59 92 126
60 94 120
58 91 116
58 92 121
56 88 110
71 95 96
116 130 57
122 134 19
119 131 0
122 133 0
123 136 0
117 128 0
124 137 0
118 128 0
116 129 0
117 130 0
115 128 0
125 137 0
131 142 0
107 118 0
119 129 0
126 136 0
114 124 0
117 127 0
116 124 0
122 133 0
116 126 0
133 145 0
122 134 0
112 121 0
124 133 0
117 127 0
126 134 0
130 137 0
123 132 0
125 136 0
129 139 0
132 141 0
126 137 0
124 134 0
129 142 0
128 137 0
122 131 0
118 124 0
123 132 0
121 130 0
135 145 0
123 132 0
122 129 0
130 138 0
125 133 0
129 135 0
134 144 0
137 148 0
140 146 0
133 142 0
133 139 0
134 142 0
128 138 0
128 136 0
140 149 0
133 141 0
130 138 0
129 136 0
132 139 0
140 148 0
143 152 0
134 141 0
134 142 0
135 144 0
146 151 0
137 146 0
125 133 0
140 149 0
139 146 0
143 155 0
145 154 0
136 146 0
146 156 0
134 140 0
134 143 0
138 143 0
138 148 0
135 142 0
150 160 0
140 151 0
142 151 0
146 155 0
140 149 0
145 153 0
146 156 0
147 158 0
149 161 0
148 159 0
150 160 0
148 162 0
143 150 0
149 160 0
150 159 0
147 159 0
150 163 0
148 160 0
154 163 0
154 165 0
146 160 0
147 158 0
154 166 0
153 166 0
157 173 0
150 161 0
159 175 0
151 166 0
155 166 0
156 167 0
155 169 0
153 166 0
160 176 0
156 170 0
150 165 0
161 177 0
162 177 0
158 173 0
156 169 0
159 171 0
161 176 0
155 169 0
162 177 0
162 177 0
161 176 0
159 176 0
158 173 0
160 175 0
160 174 0
163 176 0
162 179 0
158 174 0
164 181 0
162 179 0
161 179 0
164 181 0
156 171 0
158 174 0
167 184 0
162 178 0
160 177 0
168 185 0
166 185 0
164 183 0
164 183 0
163 182 0
164 182 0
160 177 0
167 186 0
167 184 0
167 188 0
173 197 76
173 196 76
168 192 72
173 197 72
172 196 72
172 195 72
172 196 76
175 199 92
171 195 76
173 197 95
171 195 84
175 200 99
172 195 76
172 196 72
172 197 80
173 197 80
168 192 67
173 197 62
172 196 51
169 193 84
172 196 67
171 195 76
170 195 57
168 193 67
174 199 80
173 197 76
171 194 67
166 189 72
172 196 92
173 197 76
172 196 80
168 192 88
169 194 72
166 190 62
169 194 99
170 195 80
171 194 67
171 194 76
170 193 80
173 197 92
169 192 62
172 196 88
171 195 95
169 193 72
166 189 67
169 192 51
170 193 76
167 191 57
166 190 72
170 194 67
166 189 44
171 194 72
168 191 67
163 187 80
167 191 72
170 194 62
168 192 80
168 192 72
168 191 72
171 195 80
167 190 80
166 189 62
166 189 67
169 193 62
164 188 67
164 187 62
171 194 62
166 189 44
167 191 76
166 190 67
166 190 57
164 187 57
162 185 62
165 188 67
162 185 62
164 187 80
163 185 67
150 173 88
116 140 106
97 123 125
100 126 141
93 122 143
86 114 150
86 115 133
93 121 148
98 126 147
101 127 151
84 113 148
80 109 144
93 121 149
90 118 148
98 125 153
99 124 149
87 116 154
87 115 148
79 110 148
89 117 150
95 123 143
95 121 147
99 125 149
93 120 140
87 115 145
107 132 150
96 123 143
98 125 147
94 122 147
106 131 160
93 122 162
95 122 149
84 113 160
95 123 164
91 119 167
83 113 160
86 115 161
79 109 167
80 111 163
90 119 172
81 111 169
61 97 155
79 110 169
66 99 155
72 103 156
70 103 163
62 96 152
61 97 154
63 98 159
65 98 146
63 98 158
62 96 151
60 95 152
59 94 146
64 98 144
60 94 134
61 97 156
65 99 148
63 96 140
62 96 137
62 96 141
64 98 141
65 99 147
62 97 137
60 95 145
58 93 142
57 91 137
60 95 139
58 93 144
60 95 142
60 96 148
60 95 137
59 93 136
60 94 142
60 95 144
59 94 137
61 96 144
61 97 147
61 96 145
57 91 127
61 96 144
60 96 145
62 97 147
61 96 140
61 96 140
60 95 145
60 95 140
60 95 138
60 95 137
59 94 128
60 95 145
60 95 142
59 94 131
61 96 145
59 94 144
60 95 144
60 95 137
59 94 140
60 96 149
63 98 154
60 96 147
60 94 137
60 95 133
60 95 137
60 95 140
60 95 139
60 95 147
60 96 144
59 94 134
60 95 147
60 94 134
60 95 137
62 97 145
60 95 141
60 95 136
60 94 141
62 97 153
59 94 133
59 94 135
60 96 140
60 95 134
61 96 145
61 96 144
59 94 137
60 95 141
61 96 142
61 96 144
60 95 135
60 95 139
60 95 135
62 97 144
60 94 129
60 94 140
60 94 134
60 95 141
59 94 131
60 95 143
60 95 137
59 94 126
61 96 139
59 94 130
60 95 143
60 94 136
60 94 137
62 97 154
60 94 134
61 96 141
61 96 140
60 95 129
61 96 137
60 94 131
60 94 129
60 94 133
59 93 126
59 94 129
60 94 133
61 95 140
59 93 131
59 93 125
59 93 128
59 93 126
59 93 129
61 96 141
58 91 128
59 93 126
60 94 122
60 95 131
57 90 117
57 91 120
58 92 120
56 89 113
56 88 110
57 89 101
76 99 80
103 115 19
120 132 0
111 120 0
121 131 0
113 125 0
113 124 0
117 129 0
115 128 0
124 136 0
124 135 0
115 126 0
128 140 0
119 130 0
133 148 0
127 137 0
125 136 0
127 136 0
115 126 0
132 145 0
119 130 0
117 126 0
124 135 0
123 134 0
121 133 0
116 126 0
130 139 0
124 135 0
131 141 0
118 128 0
122 131 0
128 139 0
118 128 0
129 138 0
124 133 0
131 141 0
130 142 0
134 144 0
127 136 0
121 126 0
127 138 0
121 133 0
125 136 0
130 142 0
138 149 0
139 151 0
126 135 0
138 148 0
125 132 0
130 137 0
134 143 0
128 137 0
134 143 0
135 145 0
113 120 0
126 135 0
139 148 0
129 138 0
138 147 0
138 148 0
124 129 0
134 141 0
139 147 0
143 154 0
126 132 0
141 149 0
134 143 0
146 155 0
140 149 0
146 153 0
147 155 0
134 140 0
137 142 0
142 150 0
142 149 0
144 152 0
148 159 0
146 156 0
145 156 0
147 156 0
141 149 0
148 158 0
145 154 0
151 160 0
144 154 0
151 160 0
150 163 0
153 163 0
142 154 0
146 155 0
150 160 0
157 168 0
147 159 0
148 161 0
146 157 0
150 163 0
153 164 0
146 159 0
149 158 0
155 163 0
148 157 0
150 163 0
155 168 0
148 158 0
152 166 0
158 171 0
151 163 0
157 171 0
159 174 0
151 165 0
154 166 0
153 167 0
160 172 0
159 176 0
155 167 0
160 172 0
158 174 0
154 168 0
157 171 0
160 175 0
160 175 0
158 173 0
158 173 0
157 170 0
156 171 0
161 177 0
163 178 0
160 178 0
157 174 0
164 178 0
159 176 0
160 177 0
160 176 0
162 180 0
164 182 0
164 181 0
163 182 0
163 179 0
160 179 0
165 182 0
161 177 0
163 179 0
165 184 0
166 185 0
162 180 0
166 183 0
164 182 0
162 179 0
164 181 0
161 182 0
175 198 67
175 198 80
173 196 62
172 196 84
174 198 80
169 194 67
173 198 84
172 197 92
171 194 62
172 195 99
167 191 62
169 193 57
173 197 51
172 197 84
172 195 57
172 196 72
172 196 84
170 193 72
166 191 88
173 197 76
168 192 44
172 196 62
170 193 84
168 191 76
173 196 57
170 195 88
169 194 84
172 196 67
167 192 62
169 193 51
174 198 80
171 195 76
168 191 67
168 193 67
171 196 72
172 196 84
173 197 80
169 194 76
169 194 76
167 191 80
167 191 72
171 195 92
171 195 62
166 190 51
168 192 67
168 192 67
167 192 88
169 193 84
167 191 76
169 192 80
169 193 57
166 189 67
167 192 62
169 194 72
169 192 72
166 191 84
162 185 80
167 190 36
165 189 67
166 190 76
165 189 80
163 187 76
164 187 57
171 195 95
163 186 76
162 186 62
168 191 57
164 187 44
165 188 51
168 191 99
161 185 80
164 188 80
162 184 62
170 192 76
166 189 84
160 184 67
161 184 57
160 183 76
144 168 114
129 154 125
93 120 130
95 123 147
96 124 137
87 116 137
96 123 134
89 116 134
85 114 143
87 115 141
93 120 143
93 120 145
89 117 149
93 120 139
94 120 148
93 120 152
86 115 151
89 116 144
75 107 148
102 129 140
98 124 150
99 125 149
85 114 151
93 121 151
101 127 153
97 124 148
81 111 146
96 123 154
81 112 145
100 126 145
94 122 162
103 129 154
91 120 155
92 120 154
92 120 163
81 112 162
78 109 165
83 112 168
73 105 161
87 116 175
77 108 163
68 102 165
70 103 165
62 97 159
70 102 155
64 98 155
65 98 153
70 100 151
63 98 155
65 98 149
62 96 148
62 97 144
62 96 143
60 96 141
61 95 142
61 96 153
62 96 149
62 96 141
62 96 130
61 95 143
58 92 135
60 95 145
63 97 144
60 95 145
59 94 141
62 97 144
58 92 136
59 93 134
59 93 134
60 95 137
60 95 136
59 93 133
60 96 139
59 94 134
60 95 140
60 95 139
59 94 139
59 93 134
58 92 131
60 95 145
60 94 141
60 95 146
60 94 133
60 95 138
60 94 132
59 93 139
60 95 137
60 96 144
61 96 141
61 96 146
61 97 150
60 96 145
60 95 145
58 93 135
60 95 143
61 96 137
59 94 128
59 94 133
61 96 148
60 95 134
60 95 137
60 95 139
60 95 130
60 95 142
59 94 135
58 93 133
61 97 143
62 97 147
60 95 148
60 95 136
60 95 137
60 95 139
60 94 141
60 95 140
59 94 130
60 95 144
60 95 136
59 94 131
60 95 139
59 94 137
61 96 144
60 94 135
60 95 139
59 93 126
60 95 130
61 96 141
59 94 130
60 95 134
61 96 140
59 93 130
61 96 141
60 95 129
61 96 147
59 93 129
59 94 133
61 95 141
60 95 131
60 95 135
60 94 135
60 95 139
61 95 142
61 96 149
60 95 139
60 95 131
59 94 130
60 95 131
60 94 128
60 95 133
59 94 131
60 95 128
60 95 136
61 96 142
61 95 128
58 92 121
59 93 133
59 93 118
58 92 121
59 94 134
59 93 129
58 92 117
58 92 120
60 93 134
58 90 115
58 92 130
59 93 122
57 91 115
58 92 119
58 91 113
59 92 120
57 90 107
57 90 113
79 104 85
99 119 65
116 128 19
118 131 0
122 136 0
126 136 0
116 129 0
130 143 0
124 137 0
113 124 0
124 136 0
128 140 0
125 136 0
118 130 0
112 123 0
128 142 0
116 128 0
121 134 0
132 146 0
120 130 0
115 126 0
128 140 0
126 138 0
125 137 0
126 140 0
132 146 0
115 125 0
123 132 0
128 140 0
121 130 0
130 139 0
121 130 0
127 138 0
135 145 0
135 145 0
127 139 0
124 132 0
128 137 0
135 144 0
127 136 0
127 134 0
133 144 0
137 148 0
134 142 0
134 143 0
134 145 0
128 136 0
133 142 0
132 141 0
135 144 0
122 131 0
137 144 0
136 146 0
129 139 0
137 148 0
131 140 0
136 147 0
127 133 0
130 139 0
133 141 0
140 149 0
137 148 0
140 150 0
136 146 0
135 146 0
134 143 0
136 146 0
140 149 0
131 142 0
135 141 0
149 158 0
143 154 0
138 148 0
134 143 0
141 151 0
131 139 0
142 153 0
147 155 0
144 154 0
141 152 0
146 156 0
148 158 0
142 151 0
143 153 0
149 161 0
151 161 0
143 156 0
157 170 0
141 150 0
143 156 0
149 161 0
141 154 0
148 158 0
147 158 0
154 168 0
147 159 0
150 162 0
143 153 0
150 161 0
152 163 0
149 160 0
148 162 0
157 171 0
152 162 0
153 166 0
153 167 0
154 170 0
155 171 0
163 178 0
151 166 0
152 164 0
153 167 0
158 172 0
162 176 0
156 171 0
156 168 0
152 167 0
151 164 0
160 176 0
161 178 0
159 174 0
160 176 0
160 177 0
167 185 0
156 170 0
159 174 0
158 174 0
160 175 0
158 174 0
161 178 0
161 178 0
167 185 0
158 173 0
160 176 0
161 177 0
165 183 0
160 175 0
161 181 0
160 176 0
157 175 0
163 182 0
158 175 0
162 179 0
161 179 0
165 185 0
162 180 0
163 180 0
161 179 0
162 178 0
164 181 0
159 176 0
174 198 67
173 196 88
172 196 62
175 199 99
172 196 76
172 196 84
170 193 72
174 197 80
173 197 76
172 196 84
168 192 67
171 195 57
173 196 72
169 192 67
173 196 84
174 198 76
171 196 92
170 194 72
169 193 67
171 194 62
174 198 80
170 194 67
171 194 62
169 194 72
170 194 80
170 194 80
168 192 80
172 196 51
169 193 92
169 193 72
172 197 84
170 194 76
171 195 88
171 195 80
169 194 67
168 192 67
167 191 67
170 195 72
167 192 80
169 192 62
170 194 76
167 191 72
166 189 84
165 190 88
171 195 57
166 189 57
164 187 25
163 187 84
165 190 88
170 193 67
170 194 76
171 195 67
167 192 72
170 193 80
170 194 92
169 193 44
163 188 51
164 188 62
165 188 67
158 182 57
168 192 80
166 190 80
169 193 72
172 196 95
169 192 62
161 185 57
162 185 80
161 184 62
167 190 84
164 188 95
162 185 72
158 181 80
163 187 72
166 190 72
159 183 67
167 190 76
163 187 88
160 183 76
145 169 95
143 168 114
111 137 125
89 118 136
96 124 144
100 127 146
88 116 129
85 114 148
94 121 145
90 118 131
88 116 148
98 124 150
92 119 132
94 121 145
92 120 143
101 127 151
93 122 159
80 110 144
98 124 145
99 126 151
85 113 142
85 114 146
101 128 149
93 120 136
88 117 155
94 121 150
106 132 143
96 124 147
98 124 145
101 128 153
93 119 143
100 126 147
97 124 153
97 124 154
82 113 159
98 125 160
76 108 168
83 113 158
95 123 175
81 110 165
78 108 164
75 106 162
70 103 164
69 101 149
62 98 160
66 99 149
65 99 153
68 101 153
65 98 149
65 98 149
65 99 151
59 94 140
63 97 149
61 97 158
60 95 149
64 98 143
60 96 149
62 96 139
60 94 131
65 98 137
68 100 143
59 94 144
60 95 142
60 94 143
62 97 134
59 94 140
57 92 128
59 94 138
61 96 148
59 94 143
59 94 138
59 94 137
59 94 133
61 97 150
59 93 139
59 94 137
59 94 136
62 97 154
59 94 140
61 96 149
61 96 142
60 95 130
60 94 138
61 95 144
59 94 137
60 95 142
59 94 141
59 93 132
61 97 147
60 95 136
59 94 140
60 95 136
61 96 142
60 95 143
59 93 138
61 96 140
61 96 149
60 95 136
59 94 135
60 95 140
61 97 145
60 95 139
60 95 143
61 96 142
61 96 147
61 97 145
59 94 133
62 97 148
61 96 143
60 94 139
60 95 136
61 96 144
61 96 142
60 94 136
60 96 142
60 95 139
61 96 144
60 95 140
60 95 144
61 96 148
61 96 147
62 97 151
60 94 128
60 95 135
61 95 134
59 94 134
61 97 147
61 96 143
60 95 139
59 93 133
59 94 129
60 95 128
60 94 133
60 95 135
59 93 128
59 94 130
60 95 137
60 94 130
60 95 130
60 95 131
59 93 128
59 93 122
60 95 136
60 94 131
59 94 128
58 91 128
60 94 131
60 94 134
58 93 115
59 94 129
59 93 128
60 94 129
58 91 129
58 91 129
59 93 128
59 94 134
59 93 133
60 94 134
59 93 130
60 94 131
59 93 122
60 94 126
59 93 123
58 92 122
57 89 118
58 91 129
58 91 120
58 92 122
56 88 105
57 90 115
66 93 97
90 110 70
117 130 25
107 116 0
119 133 0
118 133 0
116 128 0
119 131 0
129 143 0
118 132 0
114 124 0
134 146 0
123 135 0
120 133 0
119 131 0
124 137 0
117 128 0
118 130 0
130 143 0
126 137 0
129 140 0
137 151 0
128 141 0
121 130 0
128 139 0
134 144 0
123 133 0
126 140 0
128 139 0
138 149 0
126 135 0
140 152 0
126 136 0
132 143 0
123 132 0
126 140 0
128 140 0
128 140 0
130 142 0
126 137 0
129 140 0
133 144 0
119 129 0
124 136 0
141 154 0
133 142 0
133 143 0
127 136 0
122 130 0
138 147 0
124 134 0
137 147 0
127 134 0
131 140 0
136 148 0
139 148 0
128 139 0
133 143 0
141 151 0
135 145 0
140 149 0
135 143 0
131 140 0
137 149 0
135 144 0
142 154 0
141 152 0
132 140 0
136 144 0
132 142 0
144 155 0
154 166 0
141 148 0
143 152 0
144 153 0
146 153 0
143 155 0
134 143 0
139 151 0
140 150 0
143 154 0
147 159 0
150 161 0
149 160 0
140 150 0
145 156 0
146 156 0
150 162 0
154 168 0
149 159 0
151 161 0
149 158 0
156 170 0
151 164 0
146 155 0
144 156 0
158 170 0
154 162 0
150 161 0
149 162 0
146 158 0
153 165 0
151 165 0
149 161 0
150 162 0
156 171 0
152 168 0
155 171 0
158 172 0
154 172 0
152 164 0
160 174 0
157 172 0
151 166 0
158 174 0
158 173 0
157 173 0
155 168 0
154 171 0
154 169 0
160 177 0
159 177 0
158 172 0
158 175 0
159 175 0
155 170 0
163 180 0
157 171 0
164 178 0
166 182 0
160 175 0
163 179 0
165 182 0
159 173 0
159 175 0
162 179 0
158 176 0
160 177 0
160 178 0
162 180 0
162 178 0
160 179 0
164 182 0
167 187 0
159 176 0
161 180 0
160 178 0
166 187 0
168 187 0
168 190 0
168 186 0
164 184 0
176 200 72
175 199 80
170 193 57
174 197 111
169 193 76
174 198 80
169 192 44
174 198 84
171 195 67
172 196 76
170 194 67
169 193 62
172 196 84
173 197 72
170 193 76
171 195 62
172 197 80
173 196 57
171 195 67
173 198 76
171 196 80
167 190 67
169 193 80
169 193 84
169 193 57
174 197 67
170 194 76
169 194 76
171 195 72
165 189 51
166 190 80
168 193 72
172 196 72
170 193 67
169 193 51
172 195 72
172 195 72
170 194 57
164 187 57
172 195 51
167 190 80
169 193 72
166 191 92
164 189 88
160 183 62
169 194 80
170 194 51
167 192 88
173 196 92
168 192 72
165 189 62
164 187 72
167 191 67
171 193 67
169 194 105
161 184 62
160 184 57
164 187 62
170 194 84
166 190 84
159 183 76
164 189 67
163 188 84
162 185 57
167 189 76
167 190 88
169 192 92
167 190 67
166 190 80
156 179 67
159 182 62
161 183 72
165 188 36
167 191 76
165 188 72
163 186 57
161 184 57
162 185 72
150 172 67
150 173 110
109 134 126
104 130 134
93 120 141
95 122 149
90 118 129
90 119 141
100 127 142
98 124 143
87 115 146
93 121 153
86 113 130
98 125 144
89 117 141
104 130 139
91 118 138
96 123 150
91 119 149
97 123 141
93 119 151
104 129 144
103 128 148
87 115 141
88 115 153
100 127 136
92 120 149
91 119 157
94 122 141
88 117 146
96 123 151
84 113 147
89 117 151
94 122 158
87 115 144
89 117 157
88 116 160
82 113 159
87 116 164
76 107 154
93 120 160
81 112 171
72 105 161
71 103 165
67 100 154
66 99 152
64 99 156
69 101 147
74 104 157
59 94 143
67 99 148
63 98 155
62 98 155
63 97 145
59 94 145
65 98 140
62 97 151
58 92 139
62 96 140
64 97 130
61 95 139
62 96 141
62 95 134
59 93 132
59 94 134
58 92 128
58 93 136
60 95 149
60 95 137
59 94 148
60 94 133
59 93 136
58 93 134
58 93 129
58 92 127
61 96 149
60 95 144
60 95 138
59 93 137
59 93 141
59 94 130
60 94 139
61 96 144
61 96 142
59 94 133
59 93 139
59 94 134
60 95 135
59 94 141
59 93 128
60 95 144
60 94 139
60 95 143
59 93 135
61 96 146
59 94 131
60 95 141
60 95 139
61 96 143
61 96 142
59 93 131
60 95 133
60 95 144
60 95 137
60 95 136
59 93 135
60 95 139
59 94 140
60 95 136
61 95 145
59 94 131
60 95 147
62 97 144
61 97 147
61 96 150
60 95 140
59 93 139
59 94 130
59 93 131
60 95 133
60 95 140
59 94 139
58 93 128
61 96 144
59 93 129
60 95 143
60 95 131
61 95 130
59 94 128
60 95 130
61 97 150
61 95 134
60 95 137
60 94 136
60 95 142
60 95 140
60 94 136
60 95 141
60 94 130
58 93 124
59 94 144
60 94 133
59 94 130
60 94 134
59 94 122
61 96 141
62 97 149
62 97 144
60 95 134
59 94 130
60 95 133
59 94 130
60 95 131
59 93 125
59 93 129
59 93 125
60 94 133
58 92 126
59 93 120
59 93 117
60 95 134
59 92 115
59 93 118
61 96 136
58 91 124
58 92 126
58 91 114
58 91 126
55 87 111
70 96 96
88 109 79
101 117 44
115 126 0
128 141 0
116 130 0
115 127 0
118 131 0
112 126 0
119 131 0
109 121 0
128 140 0
127 141 0
117 130 0
118 130 0
127 140 0
118 129 0
113 124 0
124 137 0
125 137 0
123 135 0
122 133 0
116 128 0
122 132 0
123 135 0
134 146 0
124 137 0
125 135 0
119 131 0
124 136 0
120 133 0
127 140 0
133 148 0
130 142 0
131 144 0
134 145 0
125 138 0
123 133 0
129 142 0
123 134 0
131 143 0
138 147 0
123 133 0
128 138 0
124 135 0
139 152 0
134 144 0
111 122 0
137 147 0
126 134 0
130 142 0
132 148 0
133 146 0
130 138 0
137 144 0
135 144 0
130 141 0
134 145 0
133 144 0
138 149 0
139 151 0
142 154 0
136 145 0
138 148 0
137 147 0
139 148 0
141 149 0
137 148 0
140 150 0
142 155 0
147 155 0
138 149 0
138 150 0
139 147 0
148 160 0
144 155 0
141 149 0
146 156 0
149 160 0
149 157 0
144 155 0
146 158 0
150 160 0
153 167 0
146 155 0
149 164 0
150 162 0
146 158 0
146 158 0
151 162 0
147 158 0
142 153 0
151 161 0
150 160 0
145 156 0
144 152 0
149 161 0
150 164 0
155 166 0
152 167 0
159 172 0
153 164 0
155 169 0
153 166 0
157 172 0
151 163 0
152 164 0
154 168 0
153 164 0
159 174 0
150 165 0
154 169 0
153 166 0
156 169 0
157 172 0
158 172 0
148 163 0
157 173 0
152 166 0
157 173 0
151 164 0
155 167 0
155 170 0
166 184 0
154 171 0
164 181 0
160 176 0
159 175 0
155 172 0
157 170 0
162 180 0
159 173 0
164 181 0
166 182 0
162 179 0
163 181 0
161 179 0
163 181 0
166 185 0
162 180 0
158 174 0
159 178 0
162 181 0
165 183 0
160 177 0
158 176 0
163 183 0
159 177 0
167 184 0
164 183 0
169 189 0
162 181 0
167 188 0
171 195 67
173 196 92
171 195 62
170 193 76
175 199 76
170 193 51
173 197 62
167 192 76
171 196 76
167 191 62
175 200 80
173 196 80
171 194 92
172 194 44
170 194 67
174 197 84
175 199 84
169 192 57
170 193 67
168 192 72
168 193 72
172 195 67
172 196 92
167 190 76
169 193 76
169 193 62
170 193 88
170 194 76
175 199 80
171 195 72
171 196 95
172 197 80
168 192 76
168 192 62
170 194 76
167 191 57
167 191 72
171 194 67
164 188 67
168 191 62
167 191 57
171 195 95
165 188 62
163 187 62
171 196 92
164 188 67
166 191 72
167 191 76
169 194 88
167 190 44
169 193 67
167 190 57
169 193 84
165 188 62
170 194 84
170 195 80
168 192 67
159 182 51
164 187 62
162 186 67
166 190 76
164 188 51
166 189 72
164 188 67
164 188 84
165 189 67
163 186 51
162 186 72
157 181 84
161 184 67
161 185 84
163 187 72
164 188 80
160 183 51
165 189 80
160 184 76
162 185 57
164 188 80
161 185 94
154 178 86
137 160 97
107 132 127
87 115 130
102 128 134
97 124 144
95 123 159
90 117 122
89 118 150
89 118 143
85 114 136
95 122 153
98 125 148
80 110 130
97 124 133
94 121 157
103 129 152
85 114 143
91 118 137
91 119 139
82 111 149
91 118 142
99 125 148
91 119 147
101 128 137
104 129 139
95 122 147
99 126 149
88 115 148
97 125 153
89 117 146
82 112 143
89 117 147
85 114 150
82 112 154
79 110 155
85 114 168
69 102 158
79 110 161
80 110 155
71 104 156
90 117 169
70 103 161
68 102 160
79 109 158
79 108 158
76 106 160
66 99 151
63 97 146
69 100 153
58 93 135
63 97 146
63 97 142
61 96 151
61 95 149
65 99 149
59 94 141
58 92 125
64 98 147
58 92 131
60 95 147
65 99 149
63 97 143
61 94 129
58 93 144
58 92 131
60 95 145
58 92 127
60 95 130
59 94 139
60 95 148
58 93 139
58 92 130
59 94 143
61 97 149
60 95 139
60 95 140
60 95 141
60 95 142
59 94 143
59 93 121
59 93 126
59 93 129
59 94 136
60 95 140
60 95 137
59 94 138
59 94 140
60 94 133
61 97 148
60 95 137
59 94 138
61 96 148
61 96 153
62 97 152
60 95 137
59 94 135
59 94 135
60 94 137
61 96 141
61 95 140
59 94 129
61 97 147
60 95 141
61 96 147
59 94 131
61 96 145
61 96 139
60 95 131
60 94 136
60 95 144
59 94 134
59 94 131
60 95 131
59 94 136
60 95 139
61 97 147
60 95 139
60 94 136
59 93 134
61 96 139
60 95 142
60 95 140
60 95 134
61 96 141
60 95 140
61 96 143
59 93 129
60 94 139
58 93 128
62 96 147
60 95 128
61 96 144
60 95 133
60 95 139
58 92 130
59 94 133
59 93 128
59 94 131
60 95 133
58 92 124
62 97 149
60 95 139
60 94 130
60 94 124
59 94 125
60 95 135
60 94 125
61 95 136
61 95 135
59 94 130
61 97 140
60 94 130
57 91 120
58 92 124
59 93 125
58 92 117
58 92 118
59 93 133
58 91 110
59 93 130
58 92 114
57 90 110
59 93 130
56 89 114
57 89 114
55 87 103
55 87 107
77 103 95
99 116 44
115 131 18
123 137 0
115 129 0
119 132 0
119 132 0
129 142 0
125 137 0
127 142 0
111 124 0
127 136 0
105 120 0
128 140 0
119 132 0
119 132 0
131 145 0
122 136 0
121 135 0
122 137 0
133 146 0
128 144 0
132 143 0
126 139 0
122 133 0
124 137 0
117 128 0
122 133 0
137 148 0
114 125 0
123 136 0
133 145 0
135 149 0
132 143 0
122 132 0
126 141 0
126 138 0
129 140 0
130 142 0
131 142 0
132 144 0
131 140 0
122 132 0
134 146 0
125 135 0
135 146 0
134 145 0
127 136 0
125 133 0
134 145 0
133 143 0
140 151 0
131 144 0
137 149 0
130 141 0
136 146 0
137 148 0
138 147 0
138 150 0
136 146 0
151 163 0
140 150 0
135 146 0
133 142 0
139 150 0
139 150 0
143 156 0
133 142 0
134 143 0
134 144 0
142 151 0
129 138 0
138 150 0
143 155 0
142 152 0
137 149 0
143 153 0
147 158 0
139 148 0
148 160 0
141 151 0
142 152 0
136 145 0
146 158 0
148 160 0
144 153 0
150 161 0
150 163 0
149 162 0
152 167 0
153 165 0
152 164 0
151 162 0
155 168 0
146 156 0
153 167 0
149 161 0
157 170 0
155 168 0
152 166 0
154 165 0
153 167 0
153 169 0
159 172 0
148 158 0
160 174 0
151 165 0
157 172 0
154 167 0
159 175 0
156 170 0
155 169 0
159 177 0
160 177 0
158 173 0
158 173 0
155 170 0
154 169 0
151 165 0
159 177 0
157 172 0
163 179 0
162 180 0
161 178 0
160 176 0
155 172 0
161 179 0
162 179 0
160 176 0
160 177 0
160 179 0
163 180 0
159 177 0
163 179 0
163 180 0
166 183 0
161 178 0
166 184 0
165 183 0
163 180 0
167 182 0
163 183 0
166 183 0
164 182 0
161 179 0
162 179 0
165 184 0
166 187 0
164 182 0
162 181 0
166 185 0
166 185 0
161 178 0
173 196 36
171 195 80
174 197 62
169 192 44
174 197 80
175 198 57
171 195 80
171 195 76
170 193 67
171 195 88
167 191 44
172 197 84
169 194 84
168 192 67
170 195 72
169 193 72
172 196 80
172 196 67
173 198 80
167 191 62
171 195 72
169 192 72
171 195 80
170 193 88
171 196 57
169 192 67
171 195 57
170 195 88
168 192 72
169 192 67
170 194 57
172 197 84
170 194 67
171 196 80
169 193 51
171 195 76
168 193 76
169 194 62
165 190 51
168 192 62
166 190 67
167 190 62
168 193 84
164 187 84
161 184 51
164 189 88
168 192 95
168 191 76
167 192 72
166 190 57
159 184 76
165 189 57
166 189 57
163 187 84
163 187 51
164 188 88
156 180 57
166 190 80
167 191 57
166 190 88
162 185 62
167 190 62
159 183 84
168 192 88
169 193 80
161 185 72
162 186 84
165 188 76
163 185 51
164 188 88
161 184 44
167 190 80
159 184 76
160 184 72
161 184 76
155 177 62
158 181 72
162 185 84
152 175 76
156 178 80
141 165 90
132 156 100
101 127 122
82 111 133
90 118 122
95 123 150
86 115 128
95 122 149
93 121 149
99 126 144
93 121 140
87 116 149
102 128 141
90 116 123
86 114 136
90 118 152
98 125 157
101 127 144
92 118 143
88 116 150
99 125 135
105 131 151
90 118 141
102 128 150
91 118 145
96 122 147
93 120 140
97 123 155
96 123 149
103 129 146
94 120 152
89 117 146
90 119 159
86 115 144
93 119 149
84 113 161
92 119 159
72 104 156
73 105 160
88 116 169
68 102 165
69 102 157
75 106 154
77 106 153
74 105 159
70 102 154
67 100 149
61 96 156
60 96 152
64 97 149
64 98 151
60 95 141
60 95 143
60 95 137
59 94 137
59 94 141
62 97 136
61 95 128
64 97 137
58 92 131
58 93 134
57 90 115
60 93 129
58 92 136
59 93 129
60 95 141
59 93 127
59 94 129
58 93 131
59 94 144
59 94 137
60 94 139
60 95 141
58 92 120
60 95 140
60 95 137
59 94 131
59 94 140
59 94 133
61 96 148
60 95 144
59 93 129
60 95 141
57 91 123
58 92 128
60 95 135
60 95 130
60 95 141
61 96 149
60 95 145
60 95 145
60 95 139
59 94 133
60 94 131
59 94 136
60 95 139
59 94 139
60 95 140
61 96 140
59 94 141
60 95 137
59 94 140
60 94 133
62 97 147
61 96 141
61 96 142
60 95 142
60 95 136
61 96 140
61 96 141
61 97 140
60 95 143
61 96 139
60 95 137
59 94 131
61 96 150
61 96 149
61 96 150
61 95 143
60 95 129
59 93 128
60 95 131
59 93 129
59 94 131
60 94 140
59 94 136
60 94 137
60 95 134
60 95 135
60 95 141
60 94 136
59 94 129
61 95 135
59 93 122
60 95 137
59 94 126
58 92 125
60 94 125
60 94 130
60 95 129
60 94 131
58 92 125
60 94 142
59 93 121
59 93 126
59 94 129
58 92 121
60 94 136
60 95 135
60 94 131
60 94 135
60 94 137
59 93 122
60 94 134
58 92 130
58 91 115
60 94 131
58 90 120
59 94 129
59 93 125
59 93 134
59 92 125
57 89 115
56 89 107
56 89 110
56 89 101
77 102 92
106 122 74
118 130 18
113 125 0
123 135 0
110 123 0
121 135 0
126 142 0
121 133 0
120 134 0
131 145 0
119 131 0
118 131 0
125 139 0
111 124 0
128 141 0
133 145 0
125 139 0
121 133 0
124 137 0
118 132 0
119 131 0
114 126 0
120 133 0
125 138 0
122 134 0
126 136 0
134 147 0
129 141 0
125 137 0
129 144 0
125 140 0
134 145 0
126 137 0
135 149 0
125 138 0
138 150 0
118 129 0
133 143 0
121 133 0
136 148 0
125 137 0
121 132 0
136 145 0
128 141 0
127 138 0
131 144 0
127 138 0
133 144 0
130 143 0
137 151 0
129 139 0
133 142 0
135 148 0
131 143 0
141 153 0
136 151 0
138 151 0
133 142 0
134 144 0
137 148 0
136 148 0
133 145 0
125 137 0
131 142 0
138 149 0
147 158 0
147 159 0
139 146 0
137 144 0
142 153 0
135 145 0
140 152 0
152 165 0
141 152 0
141 153 0
142 151 0
147 158 0
138 150 0
148 159 0
130 137 0
152 163 0
141 151 0
144 157 0
150 165 0
138 149 0
149 161 0
145 158 0
147 160 0
148 162 0
151 164 0
145 157 0
149 161 0
154 166 0
156 170 0
155 170 0
155 168 0
151 163 0
151 165 0
154 168 0
151 164 0
152 165 0
151 163 0
153 168 0
150 164 0
147 159 0
155 169 0
142 155 0
150 163 0
152 167 0
151 165 0
156 171 0
156 169 0
154 170 0
156 169 0
156 169 0
156 170 0
159 175 0
161 179 0
159 176 0
159 171 0
162 178 0
156 172 0
162 179 0
160 176 0
167 185 0
159 175 0
160 176 0
157 175 0
154 169 0
163 181 0
163 180 0
162 180 0
167 185 0
162 180 0
160 177 0
158 175 0
165 182 0
164 180 0
160 177 0
162 179 0
163 180 0
161 178 0
163 181 0
163 181 0
160 177 0
163 180 0
166 185 0
160 178 0
164 183 0
166 184 0
164 181 0
169 187 0
168 186 0
173 196 72
173 197 76
172 195 67
174 199 105
174 198 80
175 198 72
171 195 88
173 197 95
170 194 84
173 197 67
171 195 62
170 194 62
171 195 95
171 196 108
171 195 76
172 196 80
168 193 88
169 193 76
173 197 76
169 192 67
172 196 72
171 195 76
169 194 84
170 194 92
165 190 80
170 194 67
170 194 88
168 192 84
173 197 80
167 191 62
169 193 92
167 191 67
168 192 88
170 194 72
168 191 57
168 193 84
168 192 67
163 187 72
163 187 57
168 191 67
169 193 67
166 190 80
169 192 72
164 188 67
166 191 80
164 187 62
165 189 80
166 190 72
165 189 62
170 194 88
166 190 88
163 188 76
166 191 67
164 188 80
167 190 72
166 191 72
169 193 62
163 187 72
165 190 88
165 188 57
165 189 72
163 186 44
167 191 62
167 189 72
166 189 72
164 188 99
159 183 62
166 190 67
167 191 72
158 181 51
164 188 72
157 179 44
159 183 72
166 190 84
162 185 67
166 188 84
158 180 80
160 182 72
161 184 92
156 178 62
160 182 82
133 157 100
113 138 115
88 116 126
80 109 110
90 119 140
100 127 151
92 119 134
93 121 139
92 119 129
92 120 144
90 118 134
82 111 140
96 123 139
97 124 133
90 118 153
92 120 143
98 125 154
94 121 143
85 113 144
95 122 147
89 116 140
91 119 138
100 126 144
101 127 147
89 117 143
97 125 141
103 129 145
98 125 157
96 123 136
97 123 146
98 124 141
82 111 135
96 123 151
88 117 158
85 114 160
80 110 153
74 106 156
84 113 163
80 111 160
83 113 173
79 108 162
81 110 163
75 105 156
73 105 161
69 101 154
73 103 148
66 98 146
66 99 147
63 97 144
64 98 151
63 98 151
65 98 143
60 93 129
61 95 138
60 95 143
59 94 137
59 94 142
60 95 143
62 96 138
63 96 123
67 100 136
64 95 119
59 94 136
59 94 147
60 95 147
59 93 128
59 94 131
58 92 120
59 94 133
60 95 138
60 95 145
59 93 133
61 96 141
61 96 152
61 96 142
61 96 150
60 94 129
59 94 139
59 94 133
60 95 141
60 95 133
59 94 131
59 94 129
60 95 139
58 93 125
60 95 133
61 95 141
59 93 135
61 95 129
59 94 135
59 94 137
59 94 133
60 94 130
61 96 149
60 94 137
59 94 133
60 94 134
60 95 136
61 96 140
59 93 137
61 95 139
62 97 147
60 95 136
61 96 134
60 95 145
60 95 135
60 94 135
60 95 144
61 96 145
59 94 131
60 95 139
60 94 139
61 96 143
59 94 133
59 94 129
60 94 121
60 95 141
60 95 141
61 96 139
60 95 131
59 93 129
61 96 148
59 94 126
61 96 139
61 95 137
60 94 137
60 94 133
58 92 124
61 96 144
61 96 139
60 94 133
59 93 131
60 94 134
59 93 131
59 94 135
61 95 137
61 96 137
59 94 128
59 93 125
61 95 131
58 92 118
58 92 129
59 93 118
58 91 117
59 94 136
59 93 122
58 92 120
60 94 133
58 91 114
58 92 122
59 94 126
59 94 130
58 92 122
60 94 134
61 96 135
59 92 129
59 93 129
58 92 120
59 92 122
58 91 115
58 92 117
58 92 114
57 91 114
57 89 108
75 102 104
92 111 65
111 127 31
121 135 0
125 139 0
122 136 0
129 144 0
130 144 0
116 130 0
124 138 0
120 136 0
131 143 0
121 134 0
127 142 0
120 135 0
119 133 0
126 140 0
122 134 0
130 141 0
122 133 0
117 129 0
120 133 0
125 138 0
133 147 0
125 138 0
129 142 0
116 129 0
127 138 0
131 143 0
128 143 0
127 140 0
131 142 0
140 153 0
124 136 0
126 137 0
121 132 0
131 140 0
136 150 0
128 141 0
130 140 0
135 148 0
119 130 0
140 154 0
140 151 0
141 154 0
130 141 0
124 133 0
128 140 0
132 142 0
136 150 0
139 152 0
141 155 0
135 147 0
142 157 0
134 147 0
123 134 0
139 149 0
134 145 0
137 150 0
124 135 0
150 162 0
143 155 0
134 146 0
145 155 0
137 151 0
141 152 0
143 154 0
138 151 0
143 153 0
136 147 0
137 146 0
138 151 0
150 163 0
138 147 0
142 152 0
140 151 0
139 150 0
137 147 0
142 152 0
148 158 0
146 159 0
148 158 0
148 160 0
152 165 0
142 151 0
146 159 0
145 154 0
140 153 0
145 158 0
151 164 0
143 155 0
140 151 0
150 163 0
149 161 0
149 164 0
154 168 0
152 164 0
154 167 0
146 161 0
156 172 0
154 170 0
155 169 0
144 155 0
153 169 0
156 170 0
150 162 0
157 172 0
157 170 0
162 178 0
154 168 0
156 169 0
149 162 0
153 170 0
150 165 0
155 171 0
148 163 0
154 169 0
160 175 0
166 184 0
163 179 0
161 178 0
161 176 0
162 179 0
158 175 0
156 171 0
158 175 0
160 178 0
162 180 0
160 176 0
163 179 0
162 178 0
156 172 0
162 178 0
162 177 0
162 180 0
160 178 0
162 181 0
161 177 0
162 181 0
170 191 0
159 176 0
158 175 0
157 172 0
160 179 0
169 188 0
162 181 0
161 177 0
159 178 0
161 179 0
167 186 0
162 181 0
162 181 0
165 182 0
160 178 0
165 182 0
167 190 62
171 195 88
173 197 84
174 198 67
169 193 76
170 195 105
172 196 72
175 199 67
168 192 84
170 194 57
174 198 88
170 194 67
172 197 80
172 196 51
173 197 84
175 200 95
170 194 80
170 194 84
170 195 84
171 196 88
170 194 84
173 199 111
174 198 84
165 189 72
171 195 80
169 192 67
170 193 72
170 194 76
168 192 72
168 192 72
166 191 80
170 195 95
166 190 44
167 191 72
168 192 72
172 195 67
165 189 92
166 190 67
163 188 51
169 194 88
167 191 76
167 191 62
169 193 72
168 192 67
169 193 57
169 194 88
166 189 44
168 192 88
161 184 67
171 196 92
169 193 80
165 189 44
166 190 76
165 189 76
163 187 57
163 187 76
164 188 72
157 180 57
159 183 57
159 183 51
164 187 57
163 188 67
162 186 57
164 189 84
164 187 57
166 189 88
163 186 76
164 188 88
159 182 72
157 182 67
165 189 62
157 181 36
153 175 62
161 184 44
154 177 72
160 182 72
161 185 76
169 192 72
159 181 72
156 179 67
156 178 67
150 173 72
123 147 97
92 119 118
90 118 130
94 122 141
94 122 149
83 112 130
90 118 139
81 110 129
96 124 143
91 118 121
98 125 144
87 115 143
95 122 144
97 123 144
91 118 138
82 111 133
94 121 155
104 130 147
104 129 151
101 128 149
108 133 150
93 120 147
103 128 150
92 117 132
92 119 140
104 130 136
97 124 144
101 128 139
98 125 142
93 120 147
96 123 148
79 108 152
105 131 149
91 118 157
93 120 158
102 127 160
93 120 165
83 112 148
82 111 167
76 106 158
61 97 155
72 103 156
75 104 153
71 101 149
76 104 151
63 98 154
68 99 140
65 99 152
61 95 141
62 95 140
61 96 142
62 96 136
66 98 135
61 95 136
64 97 135
60 94 136
58 92 134
58 92 133
63 96 130
61 95 132
67 98 118
58 93 123
65 97 134
61 95 136
60 95 136
60 94 133
59 93 134
61 96 142
59 93 138
59 94 141
59 94 132
59 94 124
59 93 126
60 95 136
60 95 143
58 92 139
59 94 136
59 94 130
58 92 128
59 93 126
59 93 136
60 95 140
61 96 145
60 95 141
59 93 130
60 95 141
61 96 139
60 95 140
60 95 135
61 96 150
59 94 130
61 96 136
59 94 131
61 96 145
60 95 141
61 95 139
60 94 136
60 96 142
61 96 140
60 95 145
61 95 144
60 95 135
61 96 150
59 94 125
59 94 136
60 95 130
60 95 137
61 95 144
59 95 130
60 95 136
59 94 134
60 95 140
59 93 128
60 94 134
60 95 135
59 94 128
60 94 140
61 96 136
60 95 131
58 92 131
60 94 131
61 96 143
60 94 133
60 95 139
60 95 139
61 95 143
59 93 131
59 94 136
60 95 131
60 95 140
59 93 129
59 94 130
60 95 134
59 94 128
59 94 126
60 94 130
59 94 129
60 94 137
60 94 131
59 93 125
59 94 124
60 94 131
59 94 129
58 92 125
57 90 117
59 93 128
58 91 124
61 95 143
60 94 133
59 93 128
59 93 124
59 93 121
58 92 120
58 92 125
58 91 124
59 93 125
58 92 121
59 93 117
57 90 121
58 92 115
59 94 126
57 90 117
62 91 111
90 112 94
94 109 36
110 123 18
116 128 0
110 122 0
111 124 0
116 128 0
114 126 0
121 134 0
119 136 0
116 130 0
122 136 0
127 141 0
114 128 0
133 147 0
120 134 0
124 135 0
121 136 0
127 142 0
126 139 0
118 128 0
123 139 0
121 135 0
128 143 0
116 127 0
134 145 0
119 130 0
121 134 0
115 128 0
125 138 0
128 141 0
131 144 0
126 139 0
133 146 0
121 132 0
123 135 0
125 135 0
127 140 0
131 141 0
134 146 0
138 151 0
131 144 0
127 139 0
135 145 0
130 141 0
133 145 0
128 142 0
132 142 0
135 147 0
130 142 0
129 143 0
142 155 0
132 141 0
143 154 0
141 154 0
142 155 0
136 147 0
140 151 0
141 154 0
140 152 0
138 147 0
143 156 0
144 157 0
141 151 0
134 148 0
140 154 0
138 150 0
133 145 0
141 152 0
141 154 0
136 146 0
150 162 0
145 157 0
147 160 0
143 153 0
144 153 0
140 152 0
146 157 0
137 151 0
140 151 0
146 160 0
142 153 0
141 154 0
155 169 0
146 159 0
151 164 0
151 162 0
147 161 0
149 161 0
154 168 0
146 154 0
139 152 0
155 167 0
143 155 0
156 172 0
146 157 0
145 159 0
154 168 0
151 163 0
150 164 0
146 159 0
151 163 0
151 166 0
144 159 0
154 169 0
149 163 0
161 176 0
153 169 0
153 165 0
144 158 0
161 175 0
151 164 0
153 168 0
155 170 0
153 167 0
151 168 0
155 168 0
158 174 0
161 178 0
160 176 0
157 172 0
155 170 0
160 176 0
158 174 0
160 178 0
156 173 0
162 179 0
164 181 0
162 178 0
159 176 0
163 176 0
165 184 0
161 179 0
160 177 0
158 175 0
161 177 0
159 176 0
162 179 0
159 175 0
153 168 0
167 184 0
162 180 0
163 183 0
162 181 0
163 182 0
162 181 0
161 181 0
158 174 0
161 180 0
165 184 0
166 186 0
162 180 0
159 176 0
161 182 0
164 183 0
172 195 76
169 193 62
172 196 62
172 195 57
172 195 67
171 195 76
168 191 67
170 193 62
169 193 57
172 196 76
170 195 88
169 193 72
170 196 92
169 192 76
172 196 84
171 194 67
166 190 76
167 191 76
170 193 76
171 196 84
170 195 72
170 194 84
172 196 88
171 195 62
171 194 36
172 196 51
170 194 80
167 191 67
172 196 72
170 194 80
170 192 62
170 194 67
171 196 72
165 189 57
170 194 80
166 190 84
167 192 84
167 190 62
164 189 76
166 190 67
164 189 92
162 187 76
168 192 80
168 191 62
166 189 72
168 192 67
165 189 67
166 190 62
166 190 62
168 192 88
168 192 67
171 196 88
167 191 72
171 193 76
164 188 76
165 189 80
164 188 72
165 190 80
164 187 57
161 185 72
162 186 80
158 182 57
153 176 62
150 173 25
158 182 72
163 187 99
161 185 76
159 182 76
161 185 51
157 180 51
165 188 72
165 188 67
154 177 51
162 185 92
164 187 72
160 182 57
161 184 51
161 183 67
162 185 80
156 179 57
157 181 67
157 179 76
142 166 88
121 146 110
99 125 130
89 117 131
94 121 134
95 123 144
87 114 113
78 107 129
87 115 126
98 125 146
102 127 141
104 130 144
93 120 145
95 122 141
94 121 138
87 116 146
96 122 141
87 114 141
98 124 141
93 120 146
101 127 152
93 119 137
102 127 151
86 113 136
94 122 140
89 116 149
99 124 137
99 125 142
99 126 144
104 130 145
88 115 145
96 122 142
97 124 145
98 123 153
85 113 153
97 123 154
92 120 158
82 112 163
80 110 163
77 108 164
66 99 145
80 110 169
76 105 151
81 110 156
73 103 153
67 100 159
61 96 149
65 97 152
67 99 147
71 101 150
64 97 141
65 99 146
62 97 145
59 94 138
60 95 137
60 95 145
60 95 142
70 101 134
67 100 139
61 95 128
60 93 122
59 93 129
60 95 135
61 94 135
57 91 122
59 93 135
60 94 136
59 94 121
59 93 130
60 95 141
60 94 130
61 96 145
58 92 122
60 94 141
58 92 128
61 96 140
60 95 136
60 94 134
58 93 133
59 94 133
59 93 130
60 95 136
60 95 137
60 95 140
58 92 118
60 95 140
60 95 135
60 94 130
60 95 136
60 94 136
59 94 130
60 96 139
60 95 135
60 96 136
60 95 135
58 92 124
59 94 137
59 94 138
60 94 136
61 95 142
59 93 134
60 94 135
59 93 134
60 94 133
59 93 137
59 94 128
59 94 126
61 96 145
60 95 137
57 90 120
62 97 145
61 96 143
60 95 139
60 94 137
60 94 136
59 94 134
59 95 133
59 94 131
61 95 135
60 94 134
60 94 126
58 92 125
61 96 143
60 94 122
60 95 136
61 96 137
59 93 126
59 94 126
58 92 125
60 94 140
59 94 129
58 92 120
60 94 126
60 95 131
58 92 124
59 93 131
60 95 130
58 92 118
58 92 122
59 94 122
59 93 131
58 92 120
59 93 125
60 94 122
59 93 133
59 94 130
58 92 120
58 92 108
59 93 122
58 93 126
58 92 115
58 92 124
59 93 125
57 90 114
60 93 124
58 91 120
59 93 123
56 89 113
56 89 113
57 89 103
56 89 97
56 88 108
86 106 92
103 122 70
114 127 25
113 127 0
117 130 0
129 145 0
125 138 0
115 129 0
111 123 0
128 143 0
119 133 0
122 133 0
110 124 0
112 126 0
124 137 0
120 136 0
133 147 0
125 139 0
124 137 0
130 144 0
126 139 0
125 138 0
133 146 0
127 138 0
124 136 0
126 138 0
125 137 0
112 124 0
120 133 0
117 127 0
123 138 0
122 134 0
132 143 0
135 149 0
130 144 0
123 136 0
132 145 0
135 149 0
129 140 0
137 151 0
134 147 0
130 144 0
124 136 0
134 146 0
141 154 0
128 139 0
132 144 0
137 151 0
133 143 0
133 145 0
133 144 0
138 150 0
127 138 0
137 149 0
131 144 0
129 140 0
140 154 0
132 144 0
138 149 0
139 149 0
138 149 0
145 157 0
139 152 0
139 150 0
131 142 0
137 148 0
141 155 0
141 154 0
138 150 0
144 156 0
145 160 0
150 165 0
138 149 0
135 147 0
143 154 0
145 155 0
152 165 0
148 159 0
142 154 0
145 157 0
150 166 0
143 156 0
156 171 0
150 164 0
143 156 0
150 164 0
149 161 0
149 163 0
140 152 0
151 164 0
149 163 0
154 170 0
157 169 0
156 172 0
154 169 0
150 164 0
147 161 0
156 170 0
155 169 0
159 174 0
156 172 0
150 164 0
147 162 0
155 168 0
149 161 0
150 165 0
149 163 0
160 175 0
153 167 0
150 165 0
153 167 0
157 171 0
155 170 0
158 174 0
159 173 0
163 178 0
157 174 0
155 170 0
160 177 0
151 166 0
162 177 0
163 180 0
150 166 0
161 179 0
156 170 0
161 179 0
160 175 0
153 169 0
164 183 0
161 180 0
150 165 0
155 171 0
166 184 0
168 187 0
159 175 0
164 181 0
160 179 0
160 179 0
166 186 0
165 184 0
157 173 0
162 179 0
159 176 0
162 179 0
167 184 0
163 180 0
163 181 0
155 173 0
165 182 0
163 181 0
165 184 0
161 181 0
164 183 0
164 181 0
167 185 0
163 179 0
171 193 76
170 194 72
171 194 67
173 197 80
174 198 80
168 192 51
171 195 62
171 195 67
169 194 57
172 195 62
172 196 92
169 193 80
171 195 84
172 195 57
168 192 57
174 199 88
169 194 84
170 194 84
173 198 84
168 192 72
172 196 84
171 195 95
169 193 67
166 190 62
166 191 80
166 191 62
170 195 76
171 196 84
166 190 57
169 193 72
170 194 88
168 192 88
171 195 57
171 194 62
164 189 76
171 196 99
171 195 72
171 195 57
171 195 72
167 191 84
168 192 76
165 189 44
165 189 51
165 190 62
168 193 57
166 190 80
164 188 57
169 193 84
167 191 88
167 192 95
161 185 67
167 189 72
165 189 72
166 191 95
164 188 62
166 191 99
161 185 57
161 184 57
165 188 44
163 186 76
161 186 95
162 185 67
162 186 88
164 187 76
162 186 67
160 184 76
166 190 67
164 188 67
164 187 57
161 185 62
163 187 84
153 177 57
156 179 84
158 181 76
162 185 88
162 185 62
162 185 67
160 184 62
159 182 57
161 183 84
159 182 80
161 185 72
154 177 67
132 156 76
111 136 118
87 114 119
81 110 123
88 115 125
90 117 136
96 123 145
91 119 142
86 114 129
83 112 132
95 121 133
79 107 127
85 113 143
90 118 140
94 121 133
88 115 136
99 125 148
97 123 147
102 128 153
106 131 151
100 125 152
99 125 143
86 114 139
95 122 141
94 121 144
92 118 135
115 139 143
100 125 156
91 118 146
97 123 138
97 124 141
96 122 158
97 124 152
97 124 155
96 124 145
75 106 149
80 109 153
80 110 158
72 103 149
78 108 162
77 108 155
69 100 146
72 103 157
74 104 152
70 101 150
71 101 150
73 103 148
66 99 140
65 98 146
67 99 144
66 98 138
64 98 150
66 98 138
64 97 135
62 96 140
61 95 124
63 96 141
59 94 140
66 98 127
62 95 129
63 95 128
67 100 135
59 93 135
59 93 137
58 93 131
59 93 132
59 93 130
58 92 121
59 94 135
58 93 117
60 95 140
58 92 126
59 94 137
59 93 128
59 93 131
59 94 128
60 94 134
60 94 133
58 93 124
60 95 140
60 95 134
59 93 127
59 94 134
60 95 134
58 93 131
59 93 136
61 96 145
60 94 142
59 93 131
61 96 139
61 96 145
58 93 125
59 93 126
59 94 143
59 94 141
60 94 137
60 94 133
59 94 128
59 93 136
58 92 125
59 94 130
62 97 143
59 93 132
60 95 133
59 93 126
61 96 142
59 94 130
59 93 133
60 94 128
59 94 126
61 96 137
60 95 141
61 95 139
58 91 121
60 95 140
59 94 131
58 92 124
58 91 117
59 93 129
60 94 134
60 95 141
60 95 142
59 94 122
60 95 134
58 92 117
60 94 133
59 93 126
60 95 139
61 96 137
59 93 131
59 93 121
58 92 118
59 93 128
60 94 128
58 93 131
60 94 134
60 94 126
60 94 131
58 92 122
59 93 125
60 94 131
59 93 136
58 92 124
59 93 124
58 92 125
58 92 129
59 93 121
59 93 120
57 91 121
60 94 130
57 90 108
58 91 121
58 92 118
59 93 126
57 89 114
57 90 118
58 92 121
57 90 108
58 90 117
59 92 120
82 104 104
100 115 62
114 129 0
115 130 0
128 142 0
115 132 0
125 141 0
115 131 0
127 142 0
123 137 0
120 135 0
118 134 0
121 134 0
122 135 0
127 141 0
127 142 0
131 143 0
120 131 0
130 146 0
127 141 0
120 133 0
131 145 0
124 139 0
119 132 0
127 141 0
136 150 0
134 149 0
123 136 0
124 137 0
129 143 0
129 141 0
132 148 0
136 150 0
115 129 0
127 140 0
129 141 0
131 144 0
134 146 0
124 135 0
137 152 0
133 146 0
130 142 0
134 146 0
131 140 0
144 159 0
134 145 0
128 141 0
130 143 0
130 142 0
137 150 0
133 145 0
131 143 0
131 145 0
138 152 0
132 141 0
130 144 0
134 146 0
142 156 0
140 154 0
141 155 0
141 156 0
143 157 0
137 150 0
137 150 0
138 151 0
136 147 0
145 158 0
140 153 0
134 146 0
138 150 0
147 160 0
149 162 0
139 152 0
138 152 0
142 156 0
145 156 0
141 153 0
141 156 0
148 160 0
145 158 0
146 159 0
143 155 0
146 159 0
148 161 0
149 160 0
150 165 0
145 159 0
147 160 0
150 166 0
146 159 0
150 164 0
143 156 0
148 160 0
146 159 0
157 172 0
147 161 0
149 163 0
156 169 0
146 162 0
153 167 0
153 168 0
144 158 0
159 175 0
150 160 0
144 156 0
149 164 0
153 167 0
157 171 0
155 171 0
156 171 0
154 166 0
159 175 0
157 172 0
155 171 0
157 173 0
158 173 0
158 174 0
153 171 0
156 173 0
160 177 0
154 168 0
151 167 0
154 168 0
157 172 0
159 175 0
161 178 0
161 177 0
161 178 0
162 177 0
160 178 0
161 178 0
164 181 0
159 174 0
167 186 0
164 180 0
162 177 0
164 181 0
160 177 0
167 186 0
167 186 0
163 180 0
157 173 0
164 183 0
164 181 0
165 185 0
163 182 0
162 178 0
159 177 0
167 186 0
161 180 0
164 184 0
166 186 0
162 179 0
165 185 0
167 186 0
162 182 0
162 180 0
171 195 62
171 194 51
174 197 72
172 196 72
169 194 88
173 196 80
171 195 72
166 191 62
168 192 72
170 195 72
168 191 76
172 196 44
172 196 88
167 192 80
167 191 57
170 194 80
170 194 62
172 197 84
173 197 72
168 193 88
172 196 72
171 196 80
168 192 62
172 195 62
170 193 72
170 195 102
167 191 51
173 197 80
166 189 44
170 194 62
168 192 92
168 192 44
168 191 80
168 193 84
171 195 72
169 193 72
168 192 80
166 190 62
170 194 67
169 193 80
170 195 72
171 195 57
165 190 57
161 186 76
165 189 57
167 192 80
158 182 36
163 188 51
164 188 84
166 190 84
163 187 76
166 190 84
164 188 72
168 193 80
159 182 72
160 184 57
164 188 84
164 188 84
160 185 92
164 188 67
152 177 88
160 184 67
168 192 88
163 187 57
159 184 76
166 189 88
155 179 57
166 189 76
162 186 62
163 187 92
164 187 80
157 180 76
153 176 67
157 180 72
155 179 72
153 176 76
154 177 80
156 179 72
156 179 76
159 182 57
156 178 67
153 176 78
161 184 67
143 166 67
143 167 114
98 124 117
76 106 127
105 131 137
82 111 130
94 120 128
81 110 129
80 109 131
97 123 129
81 110 128
71 101 118
89 116 133
92 119 139
98 124 140
109 134 135
88 116 139
91 118 138
97 122 143
99 124 143
95 121 138
99 125 148
90 118 154
94 121 147
92 120 153
93 121 142
85 113 136
102 128 143
88 115 129
86 114 134
97 123 144
95 122 141
92 117 145
91 119 151
90 119 151
88 116 151
93 120 161
79 110 160
86 114 159
78 108 157
83 111 163
73 104 154
70 102 156
74 105 157
66 99 149
70 101 148
64 99 158
65 97 147
66 97 133
64 97 145
67 100 150
66 99 145
60 94 141
61 95 129
62 96 141
64 97 126
65 98 132
65 97 136
68 100 131
70 101 130
61 94 125
68 100 124
59 92 123
58 92 138
57 91 122
59 94 132
60 94 137
58 92 136
59 93 133
59 94 136
58 93 126
60 95 138
59 93 132
59 93 135
58 92 120
59 93 140
60 95 129
59 93 124
60 95 139
58 92 117
60 95 145
59 93 134
59 94 128
60 95 140
58 92 123
60 95 139
60 95 134
59 94 133
59 93 131
60 95 141
61 96 142
60 96 141
60 94 135
59 94 130
61 95 134
58 93 127
60 95 137
58 92 124
57 91 129
60 95 131
59 93 125
60 94 134
59 93 133
59 93 128
60 95 134
61 95 130
60 95 135
61 96 140
60 95 133
59 93 129
60 95 134
60 95 131
60 94 135
59 94 134
59 93 130
61 96 136
60 94 133
57 91 118
59 94 128
59 93 126
59 94 131
59 93 118
58 92 125
59 94 120
59 94 129
59 94 122
60 95 130
60 95 130
60 94 139
60 94 134
59 94 131
60 94 131
59 93 126
59 94 133
58 92 118
59 93 122
59 93 125
59 92 121
57 91 118
58 92 121
59 93 130
60 95 137
60 94 136
58 92 124
60 95 136
58 92 120
59 94 126
59 93 131
60 94 130
59 93 118
55 88 107
58 92 115
58 91 115
58 91 120
57 90 118
57 91 110
57 90 115
58 92 122
56 88 113
74 98 90
87 105 74
113 130 40
129 144 18
120 135 0
113 128 0
119 133 0
123 137 0
122 138 0
111 123 0
125 140 0
119 131 0
117 133 0
133 147 0
126 142 0
123 138 0
125 139 0
128 142 0
124 136 0
139 155 0
127 140 0
134 150 0
117 132 0
133 147 0
134 147 0
126 140 0
127 141 0
131 146 0
121 135 0
124 137 0
132 147 0
136 151 0
125 139 0
136 150 0
131 146 0
127 139 0
136 148 0
141 155 0
132 144 0
136 150 0
136 152 0
133 145 0
131 144 0
140 153 0
135 150 0
134 149 0
136 151 0
134 147 0
138 151 0
135 149 0
139 152 0
129 140 0
136 150 0
137 151 0
141 154 0
140 154 0
133 146 0
129 139 0
143 157 0
135 146 0
143 155 0
133 143 0
132 139 0
138 150 0
144 158 0
137 151 0
145 159 0
147 161 0
146 160 0
137 148 0
143 157 0
147 161 0
144 156 0
136 148 0
146 159 0
142 153 0
145 159 0
145 156 0
152 165 0
145 161 0
143 159 0
147 159 0
148 160 0
149 162 0
146 160 0
150 164 0
148 161 0
144 159 0
145 156 0
150 163 0
143 155 0
147 160 0
151 164 0
148 160 0
150 164 0
149 161 0
149 162 0
147 160 0
157 174 0
155 169 0
148 162 0
143 156 0
155 171 0
158 172 0
156 170 0
156 172 0
157 171 0
147 160 0
150 166 0
154 168 0
153 168 0
161 178 0
159 174 0
160 176 0
158 172 0
150 166 0
157 172 0
150 166 0
156 170 0
154 169 0
160 176 0
158 174 0
149 164 0
163 182 0
157 173 0
163 181 0
164 182 0
159 174 0
158 171 0
165 182 0
157 173 0
164 182 0
155 172 0
159 176 0
160 177 0
161 179 0
159 175 0
159 176 0
163 181 0
162 179 0
160 176 0
163 181 0
163 181 0
165 182 0
159 175 0
165 184 0
160 179 0
162 180 0
166 185 0
164 182 0
160 178 0
164 184 0
163 182 0
162 180 0
165 183 0
162 181 0
164 184 0
164 183 0
172 195 80
173 197 67
172 196 72
171 196 80
168 192 51
173 196 57
169 193 72
171 196 88
171 195 76
172 195 88
171 195 62
168 192 80
172 197 92
168 192 67
171 195 84
173 197 67
170 193 62
170 195 76
169 193 80
169 193 88
171 195 57
168 191 80
169 194 62
167 191 62
168 192 67
171 195 76
172 198 102
166 190 72
166 190 84
164 188 80
167 192 72
165 189 67
168 192 76
170 193 76
165 189 44
169 194 92
169 194 84
165 190 72
168 191 67
170 194 80
166 191 72
166 190 57
163 188 76
168 193 76
169 193 67
165 189 62
166 192 84
168 191 62
167 191 67
168 192 88
167 191 67
164 187 67
168 191 67
162 186 67
164 187 57
164 188 57
168 192 51
163 187 72
163 187 95
170 192 51
160 184 67
163 186 80
164 187 57
162 185 0
166 189 95
153 176 62
161 185 78
154 178 76
162 185 57
157 180 76
158 182 62
163 187 88
158 182 57
157 181 88
157 180 72
163 186 62
157 180 80
157 180 67
156 178 80
155 178 80
158 182 88
151 173 80
160 183 76
156 179 100
142 165 92
124 148 90
95 123 147
89 116 128
94 121 130
93 120 128
94 120 128
90 117 136
91 119 137
98 125 143
95 121 133
95 121 143
86 113 125
95 121 126
102 127 152
98 125 152
94 119 131
88 116 146
94 121 150
102 127 145
91 118 140
90 117 149
89 116 139
99 125 143
90 117 148
90 116 137
100 125 141
95 121 136
84 113 135
109 133 140
93 119 131
86 114 146
99 126 144
87 115 137
94 120 141
79 109 150
87 116 159
85 114 157
84 113 162
79 109 162
77 106 153
73 105 161
65 98 150
72 103 155
69 101 155
68 99 146
64 98 146
69 100 146
70 100 143
64 97 137
61 94 137
64 97 142
61 95 137
63 97 133
60 94 129
62 96 134
63 96 119
58 92 127
67 99 124
63 97 137
61 94 133
66 99 128
62 95 133
56 90 118
57 91 127
58 92 136
59 93 129
60 95 134
58 92 130
60 94 140
58 92 122
59 93 140
59 93 126
57 91 124
58 93 131
59 94 127
60 94 134
58 92 127
60 94 130
60 94 134
59 94 130
59 94 129
58 93 136
59 94 133
59 93 129
58 93 131
59 93 133
61 96 143
59 94 129
60 94 129
60 95 140
59 93 134
59 94 122
58 92 131
60 94 125
60 94 136
59 94 133
60 94 129
59 93 126
61 96 134
61 95 133
58 92 126
59 94 128
59 94 122
60 95 130
59 93 126
60 94 131
61 96 136
60 94 131
59 93 131
60 95 135
59 94 133
59 94 133
60 95 135
58 93 125
60 94 128
61 95 134
60 95 130
60 95 131
60 95 142
60 94 136
60 95 135
58 92 122
58 92 121
60 95 133
60 94 140
60 94 126
60 95 129
59 93 134
60 94 139
58 93 124
60 94 121
58 91 121
60 95 135
60 94 125
58 92 115
59 93 125
60 94 124
60 95 128
59 93 125
59 93 121
59 93 124
59 93 122
60 95 130
57 91 114
58 92 121
58 91 120
58 92 121
57 90 110
58 92 108
58 92 126
59 93 117
57 90 115
57 90 115
59 93 122
56 88 97
55 86 95
66 94 95
78 97 65
103 119 47
106 120 0
117 132 0
116 129 0
116 129 0
125 139 0
115 129 0
117 130 0
125 139 0
108 121 0
118 132 0
120 135 0
123 137 0
120 135 0
125 139 0
125 140 0
113 129 0
126 139 0
125 140 0
122 136 0
121 135 0
130 144 0
124 138 0
124 138 0
141 156 0
127 141 0
127 142 0
130 144 0
136 150 0
130 143 0
129 142 0
130 145 0
139 153 0
137 149 0
137 151 0
136 149 0
131 144 0
137 152 0
135 147 0
138 153 0
138 153 0
134 146 0
135 149 0
128 142 0
138 152 0
139 152 0
131 142 0
128 143 0
130 142 0
136 148 0
137 152 0
131 146 0
136 150 0
133 146 0
136 153 0
138 153 0
138 152 0
133 145 0
144 157 0
129 144 0
138 152 0
135 150 0
142 155 0
132 145 0
149 162 0
143 156 0
140 151 0
141 155 0
153 168 0
146 159 0
150 165 0
134 145 0
142 154 0
143 157 0
146 158 0
142 156 0
146 158 0
139 151 0
131 144 0
148 162 0
146 158 0
148 163 0
147 161 0
149 160 0
150 167 0
153 168 0
150 163 0
143 156 0
147 163 0
146 162 0
150 162 0
144 157 0
155 168 0
150 166 0
150 164 0
154 167 0
157 175 0
145 160 0
150 162 0
147 160 0
153 166 0
153 165 0
152 166 0
150 164 0
145 158 0
154 168 0
161 175 0
154 169 0
161 179 0
154 171 0
155 169 0
156 171 0
155 169 0
157 173 0
157 172 0
160 179 0
156 172 0
156 175 0
159 177 0
160 177 0
160 175 0
157 173 0
165 181 0
158 175 0
160 177 0
160 176 0
161 178 0
164 181 0
159 177 0
161 178 0
164 181 0
169 187 0
161 179 0
162 179 0
163 181 0
163 182 0
162 180 0
161 180 0
159 176 0
159 177 0
162 181 0
162 179 0
162 181 0
167 186 0
157 175 0
161 182 0
157 176 0
163 181 0
164 184 0
164 183 0
164 182 0
162 180 0
163 184 0
167 185 0
166 183 0
167 184 0
165 185 0
170 194 80
174 197 80
172 196 84
169 194 62
171 195 80
171 195 92
170 195 76
169 192 72
173 197 76
171 195 67
174 198 88
172 196 72
171 196 76
174 199 99
171 195 57
167 192 92
173 197 88
168 192 72
169 193 76
168 192 72
172 196 80
168 191 57
170 195 92
169 193 72
168 193 84
171 196 67
166 191 72
172 197 88
167 191 62
171 194 44
170 195 84
167 191 72
166 190 88
172 197 92
166 191 76
167 191 72
169 194 92
166 191 72
167 192 72
173 197 76
168 192 72
166 190 67
166 190 67
166 189 57
165 190 67
169 192 62
171 194 62
164 187 72
161 185 67
164 189 67
169 193 102
160 184 76
164 188 57
164 188 51
162 186 88
162 186 72
161 185 36
167 191 95
163 187 76
161 184 44
155 180 67
158 181 67
164 188 88
164 186 57
158 181 76
161 185 72
162 185 80
163 188 84
161 184 67
168 191 76
162 186 67
161 183 76
164 187 67
152 175 67
161 183 44
152 174 44
156 180 62
155 178 44
153 175 67
150 173 44
158 180 67
162 186 67
159 182 80
157 179 62
152 174 72
146 170 100
103 128 115
103 129 136
85 113 123
86 113 120
92 118 143
81 110 120
95 123 140
80 108 139
87 116 129
94 121 148
108 133 151
102 127 150
99 125 133
99 124 145
94 121 133
98 124 139
81 110 144
88 115 137
85 112 141
91 117 133
111 135 154
86 114 135
99 125 146
91 118 137
84 112 137
110 134 139
93 120 139
99 125 142
83 112 134
107 131 144
94 121 144
98 124 154
90 116 136
99 125 153
89 117 159
86 114 160
78 108 157
80 110 158
77 107 162
73 105 162
73 105 152
64 98 150
71 102 147
77 105 143
77 106 152
68 99 136
72 102 146
61 96 141
63 97 134
64 96 133
69 100 140
61 95 139
62 96 137
62 95 133
61 96 139
62 96 139
62 94 129
61 94 133
62 96 129
60 94 126
63 97 129
58 91 125
59 93 129
58 92 114
59 93 127
59 93 129
60 94 135
59 93 130
57 91 116
58 93 137
59 93 128
59 94 129
59 93 134
59 93 141
58 92 124
58 93 130
59 93 124
59 94 133
59 92 130
58 92 126
60 95 136
59 93 133
59 94 131
61 96 144
60 94 121
61 96 143
59 94 133
59 94 126
59 94 133
61 96 143
59 93 128
59 93 126
60 94 141
61 96 137
59 93 128
60 95 136
60 94 129
59 93 126
60 94 133
60 95 136
59 94 131
59 94 124
61 96 140
61 96 144
60 95 137
58 92 118
59 93 130
60 94 134
60 94 134
60 94 130
58 91 114
59 94 126
58 93 122
60 94 137
61 96 133
59 93 130
58 93 122
59 94 139
59 93 125
60 95 130
60 94 129
60 95 144
60 95 133
59 93 128
59 93 118
60 94 129
58 92 125
59 93 131
58 92 125
59 93 131
57 91 118
59 93 131
58 92 121
57 91 124
60 95 141
60 94 134
59 94 125
60 95 128
56 89 107
57 91 111
58 92 120
60 94 131
60 94 122
58 92 111
60 95 134
57 91 111
58 91 121
58 91 117
59 94 134
56 89 105
57 90 110
54 86 99
57 90 115
56 89 110
57 89 102
79 101 76
99 114 47
109 122 0
108 122 0
125 139 0
116 131 0
119 133 0
116 131 0
127 143 0
113 128 0
121 135 0
114 128 0
116 132 0
113 128 0
111 125 0
125 139 0
122 136 0
125 140 0
131 144 0
135 150 0
123 137 0
116 128 0
127 140 0
134 149 0
133 142 0
131 147 0
121 135 0
127 141 0
126 140 0
129 143 0
126 140 0
119 132 0
129 143 0
132 145 0
118 130 0
135 151 0
127 141 0
118 126 0
142 157 0
135 151 0
141 155 0
139 154 0
133 148 0
139 154 0
135 150 0
127 141 0
131 145 0
142 157 0
133 146 0
123 136 0
143 158 0
144 159 0
140 154 0
146 161 0
133 149 0
133 146 0
141 154 0
137 149 0
137 150 0
142 155 0
142 154 0
134 147 0
144 159 0
132 143 0
138 152 0
136 147 0
146 161 0
146 160 0
143 156 0
144 158 0
146 161 0
139 151 0
148 157 0
136 146 0
145 159 0
149 161 0
145 157 0
143 158 0
139 154 0
148 162 0
148 162 0
148 162 0
145 159 0
140 152 0
147 162 0
149 160 0
150 162 0
150 165 0
146 160 0
145 160 0
145 160 0
142 153 0
148 160 0
150 162 0
155 170 0
153 168 0
142 157 0
148 163 0
155 170 0
153 167 0
155 170 0
158 172 0
160 174 0
152 166 0
150 164 0
153 167 0
156 171 0
157 172 0
150 166 0
157 174 0
157 173 0
151 165 0
153 168 0
160 176 0
152 168 0
158 177 0
162 180 0
155 170 0
158 175 0
162 179 0
159 175 0
160 175 0
158 175 0
159 175 0
160 176 0
155 173 0
157 173 0
165 181 0
162 180 0
157 173 0
162 181 0
159 175 0
163 181 0
165 182 0
158 176 0
159 177 0
163 179 0
164 181 0
160 178 0
162 179 0
161 179 0
162 180 0
157 175 0
166 184 0
166 184 0
162 181 0
160 179 0
164 184 0
159 177 0
160 179 0
164 184 0
164 183 0
163 182 0
164 183 0
160 177 0
168 188 0
166 185 0
163 184 0
164 184 0
171 195 76
173 198 76
171 196 72
169 193 51
171 195 80
172 197 92
169 193 57
173 197 76
171 195 67
167 191 62
171 195 62
174 199 102
169 192 57
167 191 72
172 196 72
169 193 99
169 192 67
169 193 76
171 196 72
168 194 88
168 193 72
173 197 76
169 192 72
169 193 84
169 193 62
168 192 76
164 189 51
173 197 72
172 197 72
166 189 67
168 193 84
166 191 76
172 195 67
167 191 67
165 190 84
170 194 62
170 194 76
166 189 72
164 189 92
167 190 76
166 191 95
166 190 44
162 187 88
170 194 67
168 191 51
167 192 84
165 189 84
165 189 84
165 190 84
168 191 67
165 188 57
162 185 57
159 182 62
163 187 72
163 186 88
162 187 88
162 185 44
163 187 72
165 189 92
166 190 80
162 186 88
162 186 67
158 182 51
163 187 92
159 182 57
159 183 62
160 183 51
160 184 67
160 184 44
160 185 84
163 186 72
163 187 72
153 177 51
156 179 76
158 182 57
157 180 57
162 185 51
158 181 72
162 186 84
155 176 67
157 179 72
159 182 84
157 178 72
150 173 67
156 178 72
148 171 76
141 164 92
95 121 113
94 120 134
89 117 141
98 124 130
93 120 136
89 116 125
90 118 126
85 113 138
95 122 142
90 117 126
97 123 140
92 118 134
98 124 138
80 109 133
94 120 129
99 124 131
92 118 138
93 120 133
95 122 144
101 126 138
87 114 126
94 121 137
84 112 145
94 121 142
99 125 139
98 124 133
91 117 131
95 123 138
95 120 141
102 128 139
100 125 150
87 114 143
94 120 149
75 104 142
96 122 162
80 109 144
89 117 162
77 108 161
78 108 152
69 102 162
81 109 155
73 103 145
76 106 153
67 100 150
76 106 158
70 100 143
66 98 140
63 96 140
61 95 134
60 95 142
59 94 134
66 99 135
66 100 147
60 94 133
68 100 133
68 100 138
59 93 131
65 97 126
72 102 124
62 95 120
60 94 126
61 94 134
58 92 130
57 91 122
59 93 140
59 94 126
60 94 133
59 93 131
60 94 134
60 95 134
60 94 141
59 94 129
59 93 134
58 92 129
59 93 123
57 91 116
59 94 126
60 95 139
59 94 137
59 94 121
60 95 133
58 92 121
60 94 139
57 92 124
57 91 117
59 94 131
58 93 125
60 95 137
61 96 145
59 93 134
59 93 122
59 93 121
60 96 139
60 95 141
60 94 129
60 95 134
59 93 129
60 95 135
60 94 128
60 95 140
59 93 125
59 93 134
60 94 137
59 94 129
60 94 126
59 93 122
59 93 118
60 95 130
61 96 144
59 94 129
58 92 129
58 92 122
60 95 136
60 94 128
59 94 125
58 91 127
60 95 139
60 94 129
60 94 129
59 93 133
59 93 128
59 93 121
58 92 121
60 95 130
60 95 135
60 93 131
57 91 128
59 93 126
60 94 122
59 93 125
57 91 120
59 93 125
58 91 124
59 93 126
59 93 118
58 92 124
58 91 113
58 91 118
58 92 124
59 93 129
57 91 115
59 93 121
59 93 122
58 92 122
57 90 113
57 90 113
58 91 107
57 90 114
57 90 117
56 89 105
57 90 118
56 89 111
70 97 88
80 103 80
107 125 44
103 117 0
119 133 0
114 128 0
120 133 0
119 134 0
118 132 0
118 132 0
121 136 0
110 123 0
120 134 0
123 137 0
122 139 0
130 146 0
119 132 0
125 142 0
125 140 0
129 143 0
136 150 0
136 152 0
128 143 0
116 129 0
131 146 0
139 153 0
126 142 0
124 138 0
125 139 0
126 141 0
126 142 0
121 136 0
132 146 0
130 146 0
132 147 0
134 147 0
136 150 0
136 151 0
134 149 0
134 148 0
132 147 0
121 135 0
133 149 0
130 143 0
137 151 0
131 146 0
142 156 0
141 156 0
133 146 0
132 146 0
134 147 0
140 155 0
132 146 0
141 156 0
137 150 0
136 153 0
149 164 0
139 153 0
134 148 0
137 153 0
143 158 0
137 149 0
138 153 0
149 164 0
151 166 0
145 158 0
138 152 0
148 163 0
144 157 0
137 152 0
143 156 0
141 156 0
133 146 0
141 156 0
136 150 0
145 158 0
144 158 0
143 158 0
141 155 0
143 156 0
140 152 0
148 161 0
145 159 0
153 169 0
146 161 0
151 165 0
138 154 0
152 166 0
144 159 0
148 162 0
155 170 0
148 161 0
154 167 0
154 170 0
148 161 0
144 159 0
153 167 0
147 162 0
154 171 0
159 173 0
154 170 0
152 165 0
152 166 0
154 171 0
149 164 0
152 170 0
160 175 0
157 171 0
152 168 0
157 174 0
161 177 0
158 175 0
154 170 0
152 168 0
162 178 0
162 178 0
159 173 0
161 175 0
152 165 0
157 173 0
162 180 0
164 180 0
157 175 0
161 180 0
158 174 0
151 169 0
163 179 0
160 178 0
159 176 0
159 177 0
158 175 0
160 179 0
156 174 0
156 173 0
162 182 0
166 184 0
162 180 0
163 182 0
164 182 0
158 175 0
159 179 0
161 177 0
167 185 0
158 176 0
161 179 0
162 179 0
161 179 0
163 181 0
165 185 0
155 172 0
161 179 0
162 180 0
166 185 0
162 181 0
162 183 0
164 184 0
166 183 0
162 180 0
167 184 0
167 187 0
167 187 0
170 195 72
168 192 62
172 196 95
175 199 88
169 193 67
172 196 76
170 195 72
167 192 62
170 194 62
170 194 72
170 194 62
170 194 72
172 195 62
169 194 72
172 196 88
170 195 88
168 193 80
166 190 76
169 192 57
169 193 84
169 194 67
171 195 67
172 195 62
168 192 62
169 193 92
165 189 62
169 194 72
163 186 44
172 195 67
165 190 57
167 191 67
168 192 80
170 194 72
165 190 57
165 189 51
166 190 80
171 194 62
171 195 102
168 192 62
170 194 84
165 189 80
165 189 51
160 185 84
162 186 72
161 185 51
165 189 67
168 193 67
164 189 80
166 190 76
166 190 62
164 187 67
168 193 76
171 195 80
158 182 72
165 189 67
165 189 67
161 185 72
159 182 51
160 183 44
163 187 67
164 188 51
162 185 62
160 184 67
159 182 76
164 187 84
162 186 92
165 189 62
160 184 67
158 180 67
160 184 72
157 181 72
157 181 80
163 187 84
161 184 72
159 182 76
160 185 88
156 179 76
156 179 67
153 175 51
158 181 67
155 177 51
159 182 57
158 181 67
146 169 57
154 177 84
150 172 76
150 173 82
116 140 100
109 134 113
88 115 117
89 117 128
86 115 134
78 107 114
90 117 137
92 119 144
104 130 137
76 105 122
87 114 123
94 121 139
92 119 133
93 120 131
102 127 147
95 121 137
91 118 134
104 130 146
86 112 131
94 121 137
85 113 137
108 133 150
96 121 126
99 124 146
93 118 130
93 118 121
97 123 129
98 125 151
105 129 139
95 120 140
87 115 131
90 117 135
91 118 151
97 124 149
80 109 147
78 107 137
81 110 159
77 108 161
80 110 164
87 115 160
75 103 140
75 105 146
69 101 150
69 99 145
72 101 132
60 95 142
65 98 141
69 100 147
63 95 138
62 94 128
59 95 131
63 96 128
64 97 140
58 92 134
62 94 120
62 95 112
63 96 129
63 96 122
67 98 121
64 97 131
58 92 133
59 92 112
58 93 130
59 94 131
60 94 132
58 93 122
58 93 125
58 92 124
58 92 117
58 93 132
57 91 124
58 93 129
57 91 118
60 94 137
59 93 122
60 94 140
59 94 134
59 93 134
58 92 122
59 94 131
59 93 126
59 94 134
59 93 129
59 94 134
58 92 118
60 94 133
59 93 125
60 94 133
58 92 122
60 95 135
59 94 124
59 93 129
58 91 129
58 91 131
60 94 133
59 93 131
59 94 125
57 91 113
58 92 118
59 93 129
60 94 130
59 93 121
58 92 121
58 91 125
60 95 133
60 94 130
59 93 134
60 95 131
60 95 134
60 94 133
60 94 129
60 94 131
60 95 133
60 94 124
58 93 118
61 96 133
60 94 129
60 94 126
58 91 114
58 93 128
60 94 131
58 92 113
61 96 141
59 94 133
59 93 124
58 92 121
59 92 129
58 91 117
59 94 126
57 91 113
58 92 122
58 91 113
58 92 121
58 92 115
57 90 113
58 92 120
59 93 125
59 92 125
58 91 118
58 92 115
57 90 110
58 91 115
57 90 111
58 91 108
58 91 113
57 90 114
57 90 118
55 87 113
56 89 99
57 91 110
56 89 103
67 95 86
92 112 74
101 119 54
125 140 18
111 124 0
117 131 0
103 117 0
107 122 0
107 118 0
120 134 0
123 135 0
124 136 0
115 130 0
123 141 0
120 133 0
120 133 0
122 137 0
121 132 0
117 132 0
119 135 0
121 137 0
126 143 0
130 144 0
127 142 0
128 143 0
140 156 0
126 142 0
134 149 0
125 141 0
132 145 0
124 139 0
130 144 0
129 145 0
126 142 0
123 139 0
135 150 0
122 138 0
145 161 0
136 151 0
126 140 0
126 141 0
141 154 0
130 145 0
143 157 0
132 146 0
140 155 0
131 143 0
137 153 0
133 149 0
125 140 0
128 141 0
138 154 0
137 153 0
133 147 0
140 153 0
141 154 0
130 142 0
138 151 0
132 147 0
141 156 0
141 155 0
141 155 0
135 148 0
144 159 0
137 154 0
144 157 0
140 154 0
143 158 0
140 155 0
143 153 0
140 155 0
146 160 0
141 155 0
137 152 0
150 165 0
144 158 0
146 160 0
147 161 0
144 156 0
152 166 0
144 158 0
139 153 0
146 161 0
147 162 0
141 152 0
150 164 0
144 157 0
149 161 0
152 168 0
155 171 0
155 172 0
138 152 0
153 169 0
158 174 0
151 166 0
156 171 0
144 158 0
153 166 0
139 152 0
149 164 0
155 170 0
155 169 0
149 164 0
151 169 0
150 162 0
149 163 0
152 168 0
159 176 0
155 171 0
147 162 0
159 174 0
154 170 0
158 175 0
156 172 0
158 174 0
155 170 0
160 177 0
159 178 0
157 175 0
151 165 0
149 164 0
160 176 0
157 175 0
161 180 0
163 182 0
156 172 0
161 178 0
163 180 0
158 174 0
145 162 0
156 173 0
155 170 0
160 178 0
163 183 0
164 182 0
161 181 0
158 175 0
164 182 0
157 175 0
162 182 0
163 181 0
157 175 0
158 175 0
163 181 0
161 179 0
160 178 0
160 179 0
166 185 0
163 181 0
164 182 0
164 182 0
161 182 0
159 177 0
162 176 0
165 186 0
164 182 0
164 184 0
166 185 0
163 183 0
165 185 0
167 188 0
162 181 0
169 193 76
172 196 84
171 196 88
171 195 57
171 194 57
169 193 67
170 193 88
167 190 44
172 197 76
171 195 88
171 195 72
171 195 80
170 194 67
172 196 76
170 194 72
172 195 80
170 193 76
165 190 72
170 194 67
167 192 67
169 193 62
170 193 80
170 195 80
168 192 80
165 189 67
169 192 67
165 189 51
172 196 72
167 191 76
171 195 84
166 191 88
168 193 80
171 195 72
164 187 67
168 193 95
163 187 72
169 194 84
166 189 62
166 191 76
163 187 76
164 189 72
163 188 67
162 186 62
167 192 80
159 183 67
163 186 72
159 183 92
166 191 67
165 190 99
163 187 62
166 190 76
164 187 62
163 188 67
162 185 51
162 186 62
159 183 88
161 185 80
161 184 44
165 189 72
158 181 44
164 187 76
158 181 44
168 191 72
157 180 67
154 177 72
163 187 76
164 188 67
158 181 62
158 182 84
160 184 80
162 185 76
159 183 72
160 183 62
157 181 88
159 183 80
160 182 57
153 176 72
158 181 62
155 177 62
159 182 76
157 181 84
153 176 51
148 171 88
151 174 95
150 173 57
148 170 67
152 175 62
142 165 86
123 147 113
92 118 102
92 119 128
93 120 124
91 118 136
89 116 120
83 111 124
104 129 141
91 118 138
78 107 126
87 113 126
100 124 134
89 115 122
90 117 127
81 110 145
85 112 123
104 129 141
89 116 135
90 117 136
83 111 133
91 118 140
95 122 141
92 119 133
101 126 142
89 118 148
101 127 132
95 122 129
101 125 134
100 125 149
89 117 142
93 120 151
86 114 141
87 116 144
90 117 152
79 109 154
69 101 141
70 102 151
77 106 151
71 103 159
61 97 159
74 105 151
73 102 146
64 97 139
73 104 158
63 97 140
70 101 141
60 95 143
62 97 145
65 98 140
63 96 127
61 95 130
59 94 133
61 95 128
65 99 136
70 102 133
69 101 131
68 99 120
69 100 124
62 94 117
65 97 129
58 92 121
58 92 125
57 91 111
57 91 115
58 91 115
58 93 124
59 93 124
58 92 120
61 96 134
58 92 124
58 91 124
59 94 136
60 94 129
59 93 132
58 92 121
59 94 129
57 91 117
59 94 132
57 91 123
59 94 130
59 94 128
60 94 134
59 94 131
60 94 130
59 93 131
60 95 131
59 93 129
60 94 138
58 91 125
59 92 129
60 95 135
60 95 134
60 95 133
58 92 126
59 94 134
60 94 134
59 94 134
59 94 131
58 92 128
59 94 128
58 92 125
60 94 134
60 94 135
58 93 128
60 95 137
59 93 115
59 93 135
57 91 124
59 93 128
59 93 131
58 93 118
59 92 128
60 94 135
59 94 121
60 94 122
57 91 111
59 94 125
58 92 122
58 92 122
59 94 124
58 93 121
58 92 110
61 95 130
57 90 110
59 93 129
59 93 117
59 93 124
59 94 126
57 90 108
59 93 126
58 93 115
57 90 121
58 92 115
57 90 111
59 93 120
57 90 126
59 93 118
55 88 99
57 91 114
57 90 113
59 93 121
58 91 120
59 92 126
56 88 118
59 93 121
58 92 120
56 89 103
56 89 120
57 90 117
64 93 99
75 97 80
92 111 54
107 123 31
114 128 0
115 129 0
107 121 0
117 132 0
116 130 0
116 129 0
110 125 0
111 125 0
113 127 0
122 136 0
118 132 0
120 136 0
122 137 0
114 129 0
119 135 0
126 139 0
122 135 0
124 139 0
124 137 0
132 145 0
125 140 0
129 142 0
130 146 0
122 139 0
140 156 0
126 139 0
135 151 0
119 131 0
127 142 0
132 145 0
124 140 0
121 135 0
130 145 0
127 143 0
135 149 0
137 151 0
135 151 0
135 151 0
128 143 0
137 153 0
139 154 0
134 149 0
141 157 0
145 160 0
146 159 0
129 144 0
135 148 0
133 147 0
137 152 0
135 151 0
133 143 0
135 149 0
132 146 0
143 160 0
143 158 0
144 157 0
145 160 0
138 153 0
143 157 0
138 151 0
144 158 0
151 167 0
140 155 0
143 157 0
135 149 0
138 152 0
143 158 0
139 153 0
149 164 0
141 156 0
141 156 0
140 154 0
144 158 0
148 161 0
147 160 0
138 154 0
141 156 0
144 157 0
138 150 0
142 157 0
153 170 0
148 162 0
151 166 0
146 161 0
146 160 0
142 155 0
146 160 0
157 173 0
148 162 0
146 158 0
143 157 0
153 170 0
147 159 0
153 171 0
148 164 0
160 176 0
150 166 0
152 168 0
151 165 0
157 173 0
153 169 0
158 173 0
153 171 0
154 168 0
155 171 0
149 166 0
155 170 0
159 175 0
159 177 0
149 163 0
158 173 0
154 167 0
157 175 0
155 172 0
159 176 0
154 171 0
153 170 0
158 174 0
153 170 0
152 170 0
160 176 0
162 178 0
159 177 0
161 179 0
161 178 0
158 175 0
157 174 0
158 173 0
160 178 0
157 173 0
163 179 0
158 174 0
158 177 0
159 176 0
164 182 0
161 180 0
159 178 0
161 178 0
158 176 0
167 187 0
157 173 0
165 183 0
161 180 0
162 180 0
158 177 0
159 180 0
161 179 0
160 179 0
165 184 0
160 178 0
163 181 0
166 188 0
165 185 0
164 181 0
165 184 0
163 183 0
163 182 0
160 178 0
163 183 0
169 193 67
171 195 67
173 197 95
170 194 62
172 196 67
172 196 72
175 198 95
170 194 57
171 196 80
169 193 62
173 197 62
169 193 76
170 194 72
172 196 76
171 195 62
171 194 57
172 195 67
169 194 80
171 196 84
172 197 84
169 193 67
171 196 76
168 192 67
167 192 67
171 195 67
171 194 62
169 194 76
170 192 62
168 193 72
169 192 57
168 192 57
167 191 57
167 191 36
167 191 72
167 191 80
166 190 67
166 190 67
167 191 57
167 190 44
162 188 80
163 187 84
165 189 67
165 189 80
167 191 72
164 188 62
167 190 57
167 190 36
164 188 84
161 185 72
168 191 80
164 188 62
167 191 80
164 189 80
167 192 72
162 187 67
162 185 62
161 185 76
158 183 72
164 189 80
166 189 76
157 180 62
160 183 80
162 185 67
162 185 80
168 192 92
154 178 72
164 188 76
161 184 51
155 178 62
158 181 72
157 181 80
164 188 80
162 186 67
159 182 84
152 176 72
156 179 84
156 178 62
158 181 84
160 182 76
161 184 72
151 175 84
146 170 51
149 171 62
148 171 62
147 170 78
157 179 72
145 168 72
147 170 76
125 149 80
110 135 122
88 113 120
75 105 128
89 116 129
71 101 110
92 120 133
94 121 148
89 116 134
93 120 139
94 120 134
89 116 129
98 123 143
97 123 142
99 125 144
95 121 128
92 117 137
95 121 128
93 120 139
95 121 143
107 131 159
94 120 140
93 119 139
89 115 128
106 131 140
90 117 126
95 122 151
104 129 132
97 123 129
94 121 137
98 122 137
86 114 151
86 114 143
85 112 141
87 116 157
79 109 156
78 109 153
78 108 156
76 107 163
77 107 155
72 103 146
85 111 151
72 101 140
76 104 143
75 105 153
68 98 133
68 99 144
63 97 142
68 99 139
64 96 137
59 93 138
66 99 131
59 93 131
65 98 131
65 97 129
70 101 122
65 97 124
73 103 117
63 96 118
58 92 124
57 91 124
58 91 119
59 93 132
58 92 128
59 93 133
58 92 125
56 90 115
59 93 124
60 94 129
59 94 133
58 92 122
58 92 121
59 94 133
58 93 126
58 92 118
59 93 121
59 93 131
58 91 127
59 92 124
59 93 126
59 93 121
58 93 129
59 92 118
59 93 130
59 94 125
60 94 126
58 92 128
60 94 134
60 94 135
58 92 133
59 94 125
60 95 134
60 95 131
58 92 116
59 93 131
60 94 128
60 95 126
59 93 125
59 93 121
60 95 136
60 94 136
59 93 120
60 94 131
60 94 129
60 95 126
59 93 131
59 94 134
58 92 129
58 92 120
59 93 125
58 92 111
58 92 115
60 95 126
58 92 117
60 94 124
58 93 128
58 92 120
59 93 129
61 96 141
60 94 133
58 93 115
58 92 118
57 90 111
58 92 114
58 91 114
61 96 135
58 91 113
58 92 124
59 93 129
58 92 124
59 93 129
57 90 117
58 92 107
58 91 126
59 93 125
57 90 117
58 91 120
57 90 100
59 93 120
55 88 107
57 89 107
57 91 110
58 91 118
56 89 100
56 89 100
56 89 111
56 89 102
58 91 114
61 89 92
62 89 88
92 110 51
97 112 25
109 122 0
108 123 0
116 131 0
120 135 0
110 125 0
114 129 0
115 130 0
130 145 0
113 130 0
123 139 0
127 141 0
125 139 0
125 140 0
120 136 0
121 135 0
123 136 0
122 137 0
112 127 0
122 138 0
123 137 0
124 140 0
121 137 0
128 142 0
129 144 0
130 144 0
134 149 0
119 133 0
119 134 0
133 148 0
133 147 0
118 134 0
132 148 0
143 160 0
132 148 0
137 152 0
138 155 0
131 149 0
136 151 0
137 157 0
140 153 0
127 143 0
132 148 0
136 151 0
139 155 0
141 155 0
136 152 0
136 153 0
138 154 0
136 152 0
141 156 0
142 156 0
139 157 0
142 158 0
144 159 0
140 156 0
132 145 0
144 160 0
142 156 0
138 151 0
140 156 0
141 154 0
138 154 0
142 156 0
144 160 0
138 152 0
140 155 0
135 148 0
139 154 0
144 162 0
150 165 0
145 160 0
147 163 0
143 157 0
139 155 0
139 154 0
146 160 0
146 161 0
147 163 0
138 151 0
135 148 0
143 160 0
145 161 0
140 152 0
157 174 0
148 161 0
156 172 0
150 164 0
155 172 0
153 170 0
153 169 0
146 157 0
150 165 0
144 158 0
156 172 0
154 170 0
157 172 0
151 167 0
156 173 0
152 166 0
147 162 0
151 163 0
151 168 0
160 175 0
142 159 0
153 170 0
151 169 0
160 175 0
155 170 0
152 170 0
158 174 0
158 175 0
155 172 0
157 174 0
156 174 0
151 167 0
154 171 0
163 181 0
155 173 0
160 178 0
160 175 0
157 176 0
159 177 0
158 176 0
155 172 0
157 175 0
162 181 0
156 173 0
159 176 0
158 176 0
163 182 0
158 173 0
158 177 0
158 175 0
161 179 0
160 178 0
165 184 0
157 175 0
165 181 0
161 181 0
164 183 0
162 181 0
161 181 0
161 178 0
168 189 0
162 182 0
162 181 0
164 184 0
168 189 0
161 181 0
165 184 0
165 183 0
162 180 0
161 180 0
164 183 0
162 182 0
159 178 0
160 179 0
166 184 0
165 186 0
164 185 0
168 192 67
167 191 62
169 194 57
169 193 80
168 193 67
170 194 62
170 194 67
172 196 72
170 194 88
169 194 72
168 192 62
171 194 76
171 195 62
169 194 76
170 195 76
165 190 67
169 193 51
172 196 67
171 195 84
172 196 84
166 191 76
169 193 72
168 192 62
167 192 76
172 195 62
165 190 80
170 194 67
172 196 72
165 189 72
166 190 57
165 190 62
171 195 57
171 195 72
168 193 76
167 191 57
170 194 67
169 193 95
167 191 67
169 193 72
166 189 57
169 194 84
167 192 76
168 191 67
166 189 57
165 190 76
164 188 67
163 187 51
161 185 72
164 187 67
165 188 72
169 194 88
166 191 88
164 187 51
165 188 72
165 187 57
165 190 76
159 182 67
162 186 88
161 185 84
163 186 67
170 193 88
157 180 72
166 190 92
154 177 51
164 186 80
163 187 80
166 190 88
147 170 57
156 179 72
161 184 72
156 180 80
157 180 67
161 184 84
156 180 88
162 186 44
158 182 51
157 181 44
154 176 72
159 183 95
146 168 80
154 177 88
159 182 76
159 181 84
146 169 62
154 177 57
152 174 62
148 170 74
155 177 62
144 166 62
129 152 110
103 128 124
87 114 99
90 117 118
88 115 118
85 111 114
87 114 128
89 116 129
86 112 114
89 115 128
90 116 137
87 113 124
97 122 132
79 107 124
94 121 139
93 119 135
105 130 143
88 115 138
93 119 135
97 123 138
102 126 139
97 121 129
94 121 136
93 119 142
85 111 126
95 121 134
98 122 135
96 122 139
101 126 131
99 124 128
101 125 134
88 115 138
88 116 143
91 119 151
88 117 154
78 108 154
79 108 145
79 107 141
74 103 149
82 110 147
71 103 155
79 107 147
81 109 146
69 98 146
70 100 147
66 97 131
72 101 132
64 97 135
65 98 139
66 97 116
62 96 140
64 98 139
62 96 129
61 95 136
69 101 124
65 97 120
64 96 118
71 102 122
65 97 120
67 99 128
60 93 131
59 93 128
60 94 133
60 94 137
58 92 115
58 92 133
58 93 122
58 92 122
59 93 135
57 91 119
59 93 131
60 94 140
58 92 118
58 92 115
58 92 129
59 93 134
59 93 122
58 92 121
58 92 122
60 95 137
59 93 125
58 92 127
58 92 131
58 93 125
60 95 137
59 93 126
60 94 131
58 91 124
59 94 128
58 92 114
59 94 128
57 91 117
60 94 128
59 94 125
57 90 120
58 93 122
59 93 124
58 93 124
58 92 124
59 93 120
59 92 121
59 94 137
59 93 118
59 93 128
59 94 125
59 94 130
60 94 126
59 93 122
59 93 133
59 93 124
59 93 121
58 91 126
58 92 115
58 91 122
57 90 117
58 93 120
60 95 126
58 92 121
59 93 122
60 95 125
59 92 122
60 94 124
59 93 128
59 93 120
58 91 113
57 91 117
59 93 129
59 93 120
58 91 121
59 93 121
57 90 110
58 92 121
58 92 114
59 93 125
59 93 125
57 91 113
57 91 118
58 92 124
58 91 117
60 93 125
56 89 97
57 90 111
57 89 103
56 89 99
54 86 95
58 90 103
66 91 88
75 98 84
92 111 78
99 115 36
120 136 0
114 130 0
115 130 0
114 128 0
120 135 0
121 137 0
133 149 0
128 141 0
116 133 0
120 134 0
121 136 0
117 132 0
122 137 0
133 147 0
131 147 0
127 144 0
129 144 0
109 124 0
123 138 0
127 142 0
124 140 0
127 146 0
123 139 0
129 145 0
130 144 0
130 145 0
131 146 0
133 147 0
124 139 0
135 152 0
129 144 0
130 145 0
136 152 0
136 152 0
134 149 0
135 150 0
134 148 0
123 139 0
130 145 0
131 147 0
134 150 0
135 151 0
139 154 0
142 157 0
130 145 0
129 144 0
128 142 0
148 165 0
146 161 0
143 157 0
139 156 0
141 156 0
137 149 0
133 147 0
143 159 0
140 154 0
140 156 0
147 162 0
140 154 0
141 156 0
151 166 0
140 154 0
141 157 0
143 161 0
136 151 0
145 160 0
151 168 0
142 156 0
149 167 0
142 158 0
145 161 0
151 166 0
148 164 0
151 166 0
154 172 0
145 158 0
151 165 0
144 158 0
141 155 0
144 159 0
149 165 0
146 161 0
151 167 0
154 168 0
145 159 0
148 162 0
139 153 0
154 172 0
151 164 0
155 172 0
154 170 0
146 162 0
154 168 0
151 165 0
157 176 0
155 168 0
152 166 0
150 164 0
155 169 0
155 168 0
149 163 0
161 177 0
150 165 0
156 172 0
159 177 0
154 169 0
159 175 0
157 175 0
158 173 0
161 178 0
161 178 0
155 171 0
155 171 0
157 172 0
156 174 0
153 169 0
159 177 0
155 172 0
164 182 0
154 172 0
155 171 0
158 173 0
159 176 0
160 177 0
158 176 0
156 174 0
161 180 0
159 175 0
162 181 0
155 172 0
154 172 0
160 179 0
162 178 0
155 172 0
161 178 0
164 183 0
160 179 0
160 178 0
158 177 0
161 179 0
163 182 0
164 182 0
165 185 0
163 181 0
162 180 0
163 181 0
165 185 0
158 177 0
163 181 0
161 181 0
163 183 0
162 182 0
160 179 0
165 186 0
164 182 0
168 190 0
165 182 0
163 181 0
169 186 0
164 184 0
165 185 0
172 196 84
174 198 84
170 194 80
171 194 62
166 191 62
172 195 57
169 193 80
172 196 62
172 195 76
165 190 67
171 195 72
169 194 88
171 195 67
171 195 67
165 189 57
168 191 57
169 194 92
168 192 44
167 191 62
171 195 67
170 194 57
168 193 76
173 197 72
163 187 57
167 192 88
165 189 67
168 193 84
168 192 92
165 190 80
175 199 80
168 193 72
168 192 92
161 185 62
164 188 72
167 191 72
168 191 62
165 189 44
164 187 62
168 192 67
169 193 67
166 190 72
166 191 72
167 192 76
168 193 88
161 186 76
160 184 67
167 192 99
161 185 67
162 187 95
166 190 72
165 188 62
162 185 57
162 185 62
167 191 72
164 187 72
164 188 72
165 189 95
167 191 95
162 186 72
164 187 80
160 185 84
159 182 51
160 184 76
159 182 95
159 181 72
160 183 84
159 183 62
159 182 76
163 186 72
160 183 62
162 185 76
159 182 62
159 183 67
160 183 72
163 186 80
158 180 76
147 172 67
161 184 67
149 170 62
153 176 76
158 181 76
155 178 76
158 181 105
145 167 51
155 176 76
147 168 67
150 171 72
141 162 62
147 168 72
143 165 86
119 141 102
102 128 129
93 119 120
95 121 126
83 109 118
78 106 118
99 125 130
87 115 124
83 110 122
90 116 127
86 114 136
108 133 139
102 126 141
104 129 141
107 132 149
92 119 126
87 113 143
93 120 125
100 126 139
104 129 136
91 117 135
104 129 134
90 117 129
107 132 138
88 115 123
99 124 134
91 119 122
90 117 139
93 119 136
91 117 147
83 112 137
102 127 143
83 111 131
82 111 136
79 109 139
76 106 136
72 103 142
80 110 153
77 106 153
77 105 143
71 102 151
68 101 151
68 100 141
72 102 149
61 96 149
64 97 141
66 96 133
63 95 126
64 97 133
57 91 118
58 93 125
62 95 128
62 95 133
66 98 124
69 100 121
73 104 120
65 96 118
62 96 120
57 91 113
60 94 124
61 95 131
57 91 120
57 90 117
58 92 120
58 91 122
58 91 115
59 93 135
58 93 130
57 91 121
57 91 118
59 94 130
57 91 122
60 95 139
59 93 121
57 90 113
58 92 121
58 92 125
59 93 134
59 93 128
58 92 122
59 94 128
58 92 115
59 94 128
57 91 110
58 92 121
58 92 115
56 90 114
58 92 122
59 93 128
58 92 122
58 92 124
58 92 122
60 94 129
58 92 126
59 94 129
58 92 118
59 93 124
59 93 118
59 93 128
59 93 122
59 94 135
58 92 120
58 92 120
58 91 118
60 94 142
59 94 129
59 93 128
59 93 125
59 93 124
59 94 125
60 94 124
60 94 126
59 93 121
59 93 124
59 92 121
59 93 122
60 95 130
60 94 122
58 92 118
60 94 128
58 91 111
58 92 113
57 90 121
57 92 120
58 92 114
58 92 121
57 91 108
57 90 110
58 92 122
59 92 121
57 91 113
59 93 118
56 89 97
57 91 105
57 90 111
59 93 122
57 90 117
56 88 108
57 90 113
57 91 113
57 90 105
56 90 100
56 88 102
56 89 97
65 91 85
84 106 84
91 108 72
107 123 18
103 118 18
96 110 0
113 126 0
118 133 0
107 120 0
112 129 0
116 130 0
120 134 0
119 134 0
109 124 0
122 138 0
118 132 0
126 142 0
113 127 0
123 140 0
115 131 0
129 146 0
121 134 0
117 133 0
130 146 0
122 138 0
119 134 0
129 144 0
125 138 0
128 143 0
126 141 0
127 142 0
128 143 0
136 154 0
131 148 0
127 143 0
134 148 0
134 152 0
137 153 0
127 142 0
133 149 0
140 158 0
142 160 0
136 151 0
128 144 0
130 147 0
136 152 0
145 161 0
135 151 0
138 154 0
130 144 0
136 151 0
137 153 0
139 153 0
136 149 0
136 149 0
136 150 0
138 156 0
135 149 0
147 162 0
135 148 0
137 151 0
140 158 0
141 156 0
131 143 0
148 163 0
143 159 0
135 148 0
145 161 0
135 151 0
140 157 0
142 157 0
139 154 0
143 157 0
142 159 0
139 156 0
146 164 0
143 158 0
146 163 0
144 160 0
145 158 0
135 151 0
152 166 0
142 155 0
143 158 0
147 161 0
148 164 0
153 170 0
150 165 0
150 164 0
159 173 0
149 166 0
146 162 0
154 171 0
152 168 0
149 164 0
148 162 0
151 166 0
143 158 0
150 163 0
155 169 0
147 164 0
160 177 0
154 169 0
151 166 0
146 163 0
154 170 0
157 176 0
146 163 0
156 170 0
155 171 0
155 168 0
155 172 0
153 170 0
159 177 0
153 172 0
153 170 0
158 174 0
158 175 0
160 177 0
156 172 0
158 174 0
165 184 0
154 169 0
159 177 0
153 170 0
158 174 0
157 174 0
163 179 0
159 176 0
157 174 0
151 165 0
158 174 0
153 170 0
168 187 0
161 178 0
161 180 0
156 175 0
159 176 0
158 177 0
159 175 0
162 179 0
161 178 0
164 183 0
164 182 0
164 181 0
165 185 0
163 182 0
164 182 0
163 181 0
164 183 0
160 179 0
161 180 0
165 185 0
163 182 0
161 180 0
163 183 0
161 180 0
161 179 0
164 183 0
163 183 0
163 183 0
165 185 0
164 184 0
161 180 0
166 184 0
165 185 0
173 197 76
172 196 72
171 195 88
174 198 84
171 194 44
170 195 76
169 193 72
165 189 51
170 195 84
171 195 72
167 192 67
168 194 108
171 195 92
171 194 44
170 194 80
168 192 80
168 193 80
171 196 88
165 190 72
168 192 76
171 195 57
168 192 67
172 196 62
170 194 76
170 194 76
169 193 67
169 194 88
166 190 67
167 193 92
166 191 72
165 189 76
165 189 57
169 194 80
169 194 76
165 189 80
168 193 84
163 187 84
168 193 67
170 193 62
165 190 72
172 196 80
166 191 88
166 191 102
166 191 92
164 188 51
161 185 84
165 189 80
167 191 84
166 191 92
163 186 67
170 194 76
164 187 44
170 193 57
162 185 84
169 192 84
164 188 76
163 187 76
165 189 92
157 180 57
166 190 92
164 188 99
154 177 80
155 179 84
168 191 102
164 186 62
159 182 72
154 177 57
164 187 92
158 181 72
160 183 72
163 186 88
156 179 80
157 181 76
156 178 62
159 183 84
153 175 44
156 179 72
154 177 76
151 174 84
158 181 62
144 168 62
149 170 80
157 179 67
151 173 67
146 168 76
153 175 72
148 170 76
140 162 62
151 174 67
155 178 84
135 156 82
109 132 90
92 118 115
93 120 124
78 106 110
94 120 137
92 117 118
86 114 115
80 108 115
89 117 140
103 128 130
102 127 142
89 115 109
94 120 140
94 121 143
81 109 131
85 112 123
101 127 146
107 131 147
81 110 136
95 120 143
98 122 141
92 117 130
103 128 143
95 120 141
90 116 126
104 128 132
101 126 118
104 128 134
97 124 131
94 121 137
88 114 140
91 117 137
71 102 133
79 109 150
81 108 143
87 114 159
90 114 147
77 106 162
79 108 156
68 100 149
76 105 142
70 101 142
76 105 146
69 98 136
66 97 123
65 95 132
69 98 128
62 96 142
60 93 134
59 92 115
61 94 124
60 93 121
66 98 128
63 95 124
66 98 129
67 98 120
65 97 118
67 96 118
63 96 115
62 94 118
58 92 122
60 94 128
58 91 125
59 93 120
58 91 118
59 92 133
58 91 121
57 90 120
57 91 124
59 93 124
59 94 135
59 93 122
58 92 117
59 93 128
59 93 129
56 90 115
57 91 120
56 90 117
56 88 114
59 93 118
59 94 133
60 94 132
59 93 125
58 93 120
59 93 122
59 93 125
59 93 129
57 90 115
58 92 125
59 94 124
60 94 129
59 93 124
59 93 129
59 92 125
60 94 128
59 93 126
59 93 129
59 94 130
59 94 124
60 94 122
58 92 121
58 92 126
60 94 135
58 91 126
61 96 136
59 93 129
60 94 131
58 92 125
58 93 122
58 92 125
57 91 105
58 91 118
57 91 110
58 92 118
57 90 100
61 95 130
59 93 118
58 92 108
58 91 117
59 93 118
58 92 115
59 93 121
58 92 129
58 91 118
59 92 122
59 92 121
58 91 120
59 93 124
58 92 120
57 91 111
58 91 111
57 91 111
57 90 117
58 91 117
57 90 108
57 89 114
57 90 113
57 89 111
57 90 125
56 89 99
56 89 103
55 87 110
70 95 78
92 113 74
88 105 51
110 125 36
117 131 0
113 126 0
107 123 0
116 130 0
117 131 0
114 129 0
123 138 0
121 136 0
124 140 0
121 137 0
128 144 0
118 134 0
114 129 0
123 139 0
113 127 0
132 149 0
119 134 0
127 143 0
121 137 0
121 137 0
116 131 0
125 139 0
134 148 0
124 137 0
113 127 0
133 149 0
125 141 0
130 146 0
120 135 0
122 138 0
136 154 0
127 142 0
140 156 0
136 154 0
121 136 0
127 141 0
133 150 0
134 149 0
139 157 0
122 139 0
134 149 0
130 147 0
133 145 0
134 150 0
132 147 0
131 147 0
135 148 0
133 150 0
139 155 0
142 159 0
152 171 0
136 153 0
134 151 0
140 156 0
149 165 0
149 166 0
145 157 0
145 161 0
137 153 0
145 164 0
138 153 0
145 161 0
149 164 0
136 152 0
140 155 0
143 160 0
148 164 0
133 148 0
148 163 0
138 153 0
148 162 0
150 169 0
144 160 0
138 152 0
146 161 0
142 157 0
151 169 0
151 167 0
143 158 0
144 160 0
151 168 0
139 153 0
150 167 0
147 165 0
139 154 0
146 162 0
148 161 0
148 162 0
146 162 0
146 163 0
148 166 0
149 164 0
147 161 0
157 174 0
143 159 0
151 165 0
149 165 0
154 170 0
154 170 0
152 169 0
153 168 0
159 174 0
158 174 0
150 166 0
158 174 0
155 174 0
161 179 0
157 173 0
149 166 0
154 169 0
158 175 0
154 170 0
155 174 0
157 173 0
160 177 0
161 178 0
153 171 0
154 169 0
162 178 0
160 177 0
153 169 0
154 169 0
155 170 0
158 175 0
157 175 0
157 177 0
166 185 0
153 170 0
159 175 0
159 178 0
157 176 0
160 179 0
161 179 0
157 173 0
162 182 0
168 186 0
160 177 0
163 182 0
159 178 0
155 172 0
156 174 0
161 181 0
158 176 0
164 182 0
161 179 0
161 180 0
156 175 0
162 180 0
162 182 0
165 182 0
161 180 0
162 182 0
167 187 0
164 184 0
158 178 0
167 187 0
164 183 0
167 188 0
166 186 0
160 180 0
168 188 0
166 186 0
165 186 0
172 196 88
167 191 51
170 193 72
169 192 62
175 198 62
170 194 80
170 194 80
165 189 84
170 195 84
170 194 84
169 194 88
169 193 62
169 193 62
168 193 72
169 192 51
168 193 88
172 197 88
169 193 67
169 192 57
169 192 67
173 196 80
168 193 72
166 190 67
170 195 80
165 190 88
165 189 62
169 193 72
160 183 51
170 194 76
160 184 67
167 192 67
162 185 76
164 188 51
164 188 80
160 184 62
166 191 92
167 191 51
164 187 57
166 190 67
168 191 76
172 195 80
169 192 67
164 188 62
170 194 95
161 185 67
169 193 84
161 185 36
163 187 67
163 187 76
167 190 72
165 189 72
170 193 88
167 191 88
161 184 67
166 190 80
155 180 84
165 188 84
162 185 67
160 183 76
166 190 72
163 185 67
164 188 80
160 183 92
161 185 88
167 190 80
161 184 80
162 185 57
157 181 102
163 187 67
160 183 67
157 181 72
150 173 62
158 182 80
153 177 72
162 185 67
144 168 62
161 183 72
155 177 57
156 178 84
159 181 95
153 176 84
154 178 88
147 170 67
152 175 76
157 180 84
153 175 76
151 173 88
140 162 62
137 159 72
144 167 67
153 174 57
138 160 90
100 124 111
100 126 118
89 116 112
90 118 134
74 103 122
80 106 101
85 112 118
90 116 114
90 116 143
93 119 124
94 120 125
84 110 126
76 104 106
96 120 124
99 124 132
103 128 140
86 112 133
99 124 148
97 122 147
101 126 143
103 127 145
84 111 129
106 131 147
107 131 147
94 119 135
90 116 138
87 115 131
91 117 130
109 132 129
103 127 143
96 121 144
94 120 160
78 108 143
87 114 150
76 106 151
73 103 147
90 115 154
73 104 156
79 107 150
77 105 144
92 116 144
71 99 132
73 103 145
71 100 138
62 95 130
69 99 134
63 95 131
58 91 122
58 92 126
62 95 133
60 94 128
60 94 125
62 94 128
64 96 111
68 98 115
62 95 110
60 93 124
63 96 127
63 94 120
57 91 117
57 92 124
57 90 117
58 91 125
58 92 114
56 90 111
57 91 114
58 92 126
60 94 126
59 92 122
58 91 124
59 93 129
58 91 124
59 93 122
58 92 128
58 91 122
59 93 125
57 91 107
59 94 128
59 93 128
58 92 130
58 91 120
58 92 120
56 90 118
59 93 115
57 91 117
59 94 125
59 93 132
58 91 121
58 92 130
58 92 113
59 94 134
58 92 112
58 91 114
59 93 122
59 93 124
59 93 121
58 92 126
58 91 117
59 94 129
58 91 118
58 92 125
59 93 128
58 91 111
58 92 114
60 94 124
57 91 117
58 92 114
56 89 105
57 91 114
59 93 129
59 93 125
57 90 111
58 91 121
59 93 118
57 90 121
58 92 115
58 91 120
57 90 107
58 91 120
58 92 121
58 91 118
57 91 111
57 90 107
57 90 111
58 92 120
57 90 120
58 92 124
57 90 110
58 92 114
57 90 113
56 89 117
56 90 99
57 90 103
55 87 102
55 88 97
56 88 107
56 88 97
56 89 105
54 86 94
55 86 90
75 99 95
88 108 72
98 115 40
96 113 18
115 131 0
118 132 0
100 112 0
115 130 0
128 143 0
119 134 0
109 121 0
115 131 0
117 134 0
118 131 0
122 137 0
127 144 0
123 138 0
128 144 0
115 130 0
135 152 0
122 139 0
119 135 0
113 127 0
127 142 0
120 133 0
127 144 0
126 142 0
135 153 0
125 140 0
126 144 0
139 155 0
137 154 0
138 155 0
132 148 0
127 141 0
131 148 0
129 144 0
124 141 0
135 151 0
133 149 0
130 145 0
138 155 0
143 161 0
133 148 0
127 144 0
137 154 0
130 145 0
133 148 0
126 140 0
129 145 0
136 153 0
127 143 0
140 157 0
137 151 0
137 153 0
132 149 0
132 148 0
134 150 0
137 153 0
143 159 0
143 158 0
138 150 0
132 146 0
145 161 0
144 161 0
133 147 0
143 161 0
149 164 0
138 154 0
143 158 0
136 151 0
151 168 0
156 174 0
144 159 0
140 155 0
137 152 0
140 157 0
151 165 0
155 173 0
142 157 0
148 163 0
148 165 0
149 167 0
144 161 0
141 157 0
154 169 0
151 167 0
150 166 0
149 166 0
146 160 0
145 161 0
147 162 0
150 164 0
154 170 0
145 160 0
143 158 0
156 173 0
147 163 0
146 162 0
148 164 0
154 170 0
148 164 0
154 171 0
152 165 0
154 172 0
150 165 0
149 164 0
152 170 0
155 171 0
153 170 0
150 165 0
159 178 0
158 176 0
155 171 0
154 170 0
158 177 0
155 172 0
158 173 0
155 172 0
151 168 0
158 174 0
161 178 0
157 175 0
155 171 0
161 177 0
160 176 0
158 176 0
160 177 0
164 183 0
157 175 0
156 174 0
158 174 0
166 185 0
164 184 0
159 177 0
156 174 0
157 175 0
161 179 0
153 172 0
160 179 0
163 182 0
160 179 0
163 181 0
158 177 0
165 183 0
163 180 0
166 184 0
165 185 0
166 185 0
165 186 0
162 179 0
165 184 0
161 178 0
167 187 0
163 182 0
163 182 0
165 186 0
164 183 0
163 184 0
164 186 0
167 186 0
161 180 0
168 188 0
163 182 0
160 180 0
163 183 0
167 190 0
163 181 0
170 194 76
167 191 72
167 191 76
168 191 57
169 193 76
167 191 72
168 192 62
171 195 67
171 196 80
170 195 72
164 189 57
171 196 80
168 191 57
172 196 76
171 194 62
173 198 84
172 196 76
165 190 80
163 188 44
169 193 62
167 190 57
166 189 72
169 193 67
167 192 92
161 185 44
167 191 76
170 195 67
171 195 95
169 193 88
164 188 57
167 191 72
169 193 76
164 189 95
171 195 62
170 195 99
169 193 84
166 189 80
167 192 76
166 189 67
167 191 84
163 186 72
167 192 80
166 190 80
165 188 80
168 193 95
162 186 76
162 186 57
161 184 72
166 188 72
162 185 67
164 188 67
165 189 92
171 195 84
169 193 92
165 188 80
162 185 67
161 184 80
161 185 62
159 182 76
164 187 76
163 186 88
165 189 88
165 187 76
157 181 84
158 181 72
150 173 67
164 187 72
162 184 76
164 187 88
160 184 80
161 184 80
160 183 72
157 181 72
160 183 76
156 178 57
153 176 80
156 179 80
147 170 62
147 170 84
154 177 62
151 174 88
153 175 67
149 171 76
155 177 84
144 166 76
156 177 67
140 162 51
147 169 84
150 172 62
142 164 67
146 167 57
147 169 88
133 155 103
100 124 105
95 121 129
88 116 118
86 114 129
84 111 117
84 111 120
93 118 129
89 115 129
86 113 133
82 110 120
95 121 124
92 119 132
85 112 125
102 127 136
96 122 141
100 124 138
75 104 130
94 120 134
98 122 131
84 112 124
98 124 134
106 130 141
86 112 122
107 132 129
95 120 126
105 129 139
109 132 144
91 116 143
91 117 128
81 109 125
79 108 137
92 118 148
92 118 154
86 113 138
90 115 152
84 109 141
87 112 138
77 105 143
72 103 149
70 101 140
70 101 135
63 96 142
70 100 136
70 99 134
70 101 141
70 99 126
62 96 137
57 91 125
63 96 136
60 92 118
58 91 122
60 93 126
67 97 114
67 99 115
62 93 102
67 98 118
67 98 118
60 94 128
57 90 118
57 90 119
59 93 122
58 92 119
56 89 110
59 93 124
57 90 115
59 93 124
57 91 114
59 93 120
59 93 125
58 92 112
57 90 107
58 92 117
59 93 126
59 93 126
60 94 134
58 92 118
58 92 122
57 91 116
57 90 110
58 91 111
58 92 121
57 90 117
59 93 128
60 94 130
58 92 118
59 93 133
56 89 103
58 92 125
57 90 111
56 90 115
60 95 128
58 92 117
56 90 105
59 94 133
59 93 131
59 93 122
58 91 113
57 91 117
59 93 124
59 93 122
58 91 117
59 93 120
58 92 120
58 93 124
57 90 107
58 92 120
58 92 120
58 92 124
59 93 114
59 93 120
58 92 114
57 91 115
58 91 115
59 93 120
57 90 102
57 91 118
58 91 114
57 91 118
58 91 118
58 91 117
58 91 110
59 93 111
58 91 107
57 90 115
58 91 111
58 91 113
57 90 108
56 88 110
57 91 108
55 87 103
59 92 117
58 91 121
58 91 114
58 91 114
56 89 107
56 90 107
54 86 103
59 91 110
76 100 80
90 111 76
105 122 57
116 133 31
112 127 18
112 127 0
106 121 0
111 127 0
111 124 0
124 139 0
110 124 0
116 129 0
128 145 0
112 127 0
110 125 0
131 147 0
115 130 0
133 149 0
126 143 0
124 140 0
127 142 0
123 138 0
124 141 0
137 152 0
126 141 0
122 137 0
121 137 0
128 143 0
126 143 0
125 140 0
120 133 0
129 142 0
138 152 0
134 150 0
135 153 0
128 144 0
142 158 0
130 146 0
126 143 0
134 151 0
132 148 0
133 148 0
139 157 0
140 154 0
138 152 0
138 156 0
138 155 0
136 152 0
130 147 0
138 155 0
139 155 0
134 150 0
137 153 0
142 157 0
138 153 0
139 154 0
138 155 0
136 152 0
136 152 0
139 154 0
139 155 0
138 156 0
145 162 0
143 160 0
140 154 0
146 160 0
135 148 0
143 159 0
140 157 0
137 154 0
144 162 0
141 159 0
146 162 0
151 169 0
143 160 0
147 164 0
145 161 0
142 160 0
147 162 0
142 157 0
150 166 0
144 160 0
153 168 0
140 155 0
150 164 0
148 165 0
151 168 0
142 156 0
147 165 0
153 171 0
143 160 0
141 156 0
155 171 0
146 161 0
149 165 0
145 161 0
154 172 0
151 167 0
156 175 0
153 172 0
158 175 0
147 163 0
148 163 0
156 172 0
150 166 0
152 169 0
152 168 0
156 174 0
156 173 0
153 169 0
149 163 0
154 171 0
154 172 0
154 173 0
147 161 0
158 178 0
161 176 0
160 180 0
152 168 0
160 178 0
158 175 0
153 167 0
159 178 0
157 172 0
159 176 0
165 183 0
151 168 0
157 173 0
159 176 0
158 176 0
157 174 0
156 173 0
161 179 0
159 176 0
159 176 0
161 179 0
157 176 0
158 177 0
154 172 0
160 177 0
165 183 0
157 173 0
161 180 0
155 173 0
159 177 0
164 183 0
160 178 0
162 182 0
160 180 0
166 184 0
163 183 0
162 180 0
160 179 0
161 181 0
161 180 0
163 183 0
160 179 0
162 181 0
159 177 0
160 177 0
166 186 0
167 185 0
161 180 0
162 181 0
168 189 0
159 177 0
167 188 0
165 185 0
160 180 0
171 195 57
172 196 57
174 197 57
171 196 92
171 195 88
170 194 84
169 193 76
169 193 76
172 195 76
172 196 80
170 194 88
173 197 95
168 192 67
169 193 88
171 195 76
170 194 76
169 193 67
163 188 67
170 194 62
168 193 84
170 194 76
168 192 76
167 191 80
166 190 51
167 191 76
170 194 57
165 189 57
165 189 80
168 193 92
166 190 62
166 190 80
163 187 62
165 189 80
170 194 95
170 195 102
168 192 84
164 187 57
167 192 62
170 194 88
165 189 57
168 192 62
166 188 51
161 185 80
168 191 51
168 191 84
161 186 67
163 187 62
160 184 51
170 194 72
168 191 105
166 190 80
159 182 84
161 184 84
164 188 95
164 187 72
162 185 84
161 184 76
168 192 72
166 189 105
160 184 67
167 190 84
162 186 102
161 184 99
158 181 76
164 187 92
162 185 84
167 190 102
159 181 62
160 183 57
157 179 51
157 179 80
154 177 72
151 175 88
150 172 80
163 186 88
157 179 72
153 175 76
149 172 72
165 188 92
151 174 51
159 182 84
157 178 95
155 176 76
155 179 95
158 181 67
150 172 82
149 171 67
148 169 76
150 172 105
148 169 76
147 170 80
148 168 57
139 159 82
142 165 94
106 130 124
93 118 108
95 120 124
100 123 111
88 114 118
96 121 126
94 121 117
77 105 117
83 110 121
89 115 120
95 120 111
94 119 122
95 120 126
95 120 126
91 117 127
91 117 139
85 112 134
99 124 147
102 126 140
108 132 146
89 115 115
97 122 121
94 119 138
114 137 129
104 128 134
91 117 132
105 129 137
99 124 129
91 118 140
91 117 131
100 125 134
84 113 149
86 114 150
90 114 139
99 120 157
88 111 140
78 107 148
73 103 152
80 108 146
72 101 138
73 102 135
71 101 123
69 98 129
62 97 148
65 96 125
63 94 119
64 96 134
63 94 120
61 94 121
62 96 139
65 96 114
67 97 118
73 102 104
68 98 101
77 105 103
63 94 115
66 98 107
58 92 124
58 92 113
56 89 104
57 90 120
57 90 108
57 90 118
59 93 117
58 93 118
58 92 114
56 90 113
58 91 111
58 92 120
57 90 115
58 92 124
58 91 117
58 91 113
57 91 114
58 92 131
57 90 115
59 93 118
59 93 121
58 91 120
59 93 129
59 93 128
58 92 120
59 94 122
59 93 129
58 92 118
58 93 126
58 93 129
59 93 126
58 92 120
59 93 124
59 92 121
57 90 111
60 94 129
59 93 122
59 93 125
58 91 115
56 90 113
58 91 114
57 90 113
57 90 108
59 93 121
57 91 120
61 95 136
59 92 129
58 91 130
59 94 114
58 92 122
59 93 126
59 93 124
57 90 111
59 93 126
59 93 124
58 92 122
58 92 124
57 90 110
56 89 111
56 90 118
59 93 128
59 92 121
58 92 121
56 89 108
56 89 99
59 93 121
56 89 100
58 91 120
56 89 113
58 90 118
56 88 105
56 88 100
56 88 103
56 90 99
57 90 114
57 90 110
56 89 100
55 86 95
65 94 88
80 102 76
75 95 60
93 109 31
113 127 25
115 130 0
114 128 0
115 130 0
118 133 0
111 125 0
109 125 0
107 122 0
127 143 0
117 132 0
116 130 0
107 123 0
118 136 0
122 136 0
113 129 0
125 139 0
129 144 0
111 126 0
119 133 0
132 149 0
116 131 0
127 143 0
126 142 0
136 150 0
132 149 0
126 142 0
117 132 0
139 155 0
119 134 0
128 144 0
131 148 0
139 157 0
135 152 0
122 139 0
135 152 0
134 148 0
137 155 0
135 151 0
134 152 0
132 148 0
123 140 0
126 142 0
127 143 0
133 150 0
134 148 0
131 144 0
134 152 0
139 155 0
149 167 0
138 152 0
141 158 0
136 155 0
139 156 0
142 158 0
130 146 0
141 156 0
139 153 0
140 159 0
134 150 0
140 155 0
139 154 0
143 160 0
144 159 0
147 165 0
140 158 0
148 164 0
140 156 0
144 161 0
140 158 0
140 154 0
138 155 0
136 150 0
144 160 0
144 161 0
144 161 0
143 160 0
147 163 0
144 162 0
149 166 0
148 163 0
146 163 0
147 164 0
149 166 0
145 160 0
154 172 0
152 168 0
140 157 0
150 165 0
152 167 0
150 166 0
157 175 0
154 169 0
155 170 0
152 171 0
149 165 0
152 170 0
156 174 0
147 164 0
149 166 0
147 163 0
149 163 0
153 171 0
153 169 0
152 170 0
149 167 0
154 171 0
151 168 0
159 178 0
155 174 0
158 175 0
153 170 0
156 174 0
156 171 0
159 176 0
161 178 0
165 184 0
145 161 0
155 171 0
159 175 0
156 172 0
157 175 0
156 172 0
153 172 0
158 176 0
157 176 0
152 169 0
163 181 0
163 183 0
157 175 0
157 178 0
160 175 0
163 181 0
158 177 0
156 174 0
163 181 0
166 184 0
164 183 0
163 182 0
163 181 0
161 180 0
161 182 0
162 180 0
166 185 0
161 181 0
163 180 0
157 177 0
158 176 0
155 175 0
167 184 0
161 180 0
161 180 0
163 181 0
163 183 0
165 183 0
160 178 0
166 184 0
165 185 0
157 176 0
163 184 0
165 185 0
165 185 0
161 180 0
166 185 0
167 186 0
167 187 0
165 185 0
162 183 0
174 198 76
171 196 76
169 193 62
172 196 84
169 194 67
171 196 92
172 196 57
165 189 80
169 194 88
170 194 88
167 190 67
172 196 67
167 191 57
171 195 67
167 191 76
164 189 80
169 193 76
170 194 62
172 197 88
163 188 57
171 196 80
169 193 84
167 192 80
167 192 80
167 192 76
165 189 80
169 193 88
171 194 80
158 182 84
167 190 76
172 195 62
168 192 67
166 190 76
171 195 76
166 190 80
161 184 76
168 191 92
166 190 57
173 196 99
168 192 84
168 193 88
167 191 80
168 192 51
167 191 62
168 192 84
169 193 72
173 198 95
163 187 92
169 192 72
160 183 92
166 188 88
160 184 84
163 187 88
164 188 76
163 185 80
163 187 76
165 188 95
170 192 84
165 188 76
164 187 72
163 187 80
164 188 95
154 176 67
163 186 99
163 186 88
159 182 80
161 184 105
164 188 88
158 180 105
157 181 80
155 179 67
160 183 114
159 182 72
156 179 76
155 177 62
150 172 88
158 182 88
158 181 88
154 176 88
141 163 72
153 175 76
153 176 62
153 176 88
148 170 80
147 169 72
155 177 72
141 162 62
149 171 44
144 166 51
157 179 80
138 160 80
142 164 62
145 167 72
144 164 88
124 145 80
98 124 111
92 118 114
88 115 114
88 113 114
68 98 113
90 115 122
93 120 121
90 117 120
86 112 107
89 115 113
93 119 113
93 119 129
93 119 129
108 132 126
95 120 133
102 126 145
102 125 140
97 122 128
98 123 133
83 110 124
91 117 131
109 132 123
108 131 142
101 126 141
98 123 146
110 132 119
103 129 140
91 117 131
89 116 122
100 124 142
97 122 152
98 124 157
85 111 140
87 112 149
94 117 145
87 111 147
81 109 154
71 103 144
68 98 123
69 99 142
66 97 134
68 99 132
65 96 121
71 99 132
65 96 124
66 97 136
62 94 123
59 92 117
59 93 125
61 94 123
65 97 116
72 103 116
68 98 107
64 95 125
75 104 102
66 97 116
57 91 115
58 92 115
58 92 121
57 91 108
58 91 113
56 89 110
59 92 117
57 90 108
59 92 129
56 89 112
59 93 118
56 89 111
57 90 117
58 92 120
58 93 117
57 91 111
57 90 115
57 90 108
59 93 130
58 92 120
57 90 108
56 89 111
57 90 111
58 92 121
58 92 122
57 91 99
60 94 129
57 90 113
58 92 129
59 92 121
57 91 117
59 93 121
58 91 117
58 92 121
59 93 131
58 92 115
59 93 118
59 93 120
58 91 118
60 94 128
56 89 102
58 91 121
58 92 114
58 91 111
58 92 129
57 90 108
57 91 121
59 93 122
57 91 121
57 91 110
60 94 122
59 93 130
56 89 105
56 89 103
58 91 117
57 91 111
57 91 118
57 91 115
57 91 115
56 90 108
56 89 105
57 91 113
58 91 115
56 89 95
57 89 114
58 91 111
56 89 103
57 90 108
58 91 115
58 91 115
56 88 100
57 90 107
57 90 108
56 89 107
55 87 103
54 86 95
53 85 100
73 98 89
79 101 70
91 110 57
98 114 25
108 122 0
101 114 0
112 128 0
110 123 0
100 115 0
114 129 0
96 111 0
116 134 0
123 138 0
111 125 0
114 128 0
106 121 0
115 131 0
123 141 0
114 131 0
122 138 0
121 137 0
117 133 0
113 128 0
119 134 0
115 131 0
129 147 0
116 131 0
121 138 0
123 141 0
128 144 0
128 144 0
134 149 0
126 143 0
125 142 0
124 141 0
127 143 0
136 151 0
131 147 0
128 144 0
128 146 0
130 144 0
135 152 0
141 159 0
132 150 0
141 159 0
139 156 0
143 161 0
128 146 0
130 147 0
137 153 0
129 143 0
142 157 0
137 153 0
142 159 0
133 149 0
132 150 0
136 149 0
142 159 0
139 154 0
141 158 0
146 161 0
142 159 0
147 162 0
141 158 0
145 161 0
143 161 0
153 171 0
143 161 0
140 156 0
141 158 0
138 154 0
151 166 0
151 167 0
140 156 0
146 164 0
139 153 0
145 163 0
150 167 0
145 159 0
140 156 0
141 156 0
148 166 0
152 168 0
146 161 0
147 163 0
143 162 0
143 158 0
148 165 0
154 172 0
150 168 0
146 162 0
134 150 0
156 172 0
156 173 0
152 169 0
149 166 0
150 167 0
150 166 0
145 161 0
150 166 0
149 168 0
152 168 0
152 168 0
148 163 0
158 175 0
153 171 0
153 170 0
148 166 0
158 177 0
155 172 0
157 175 0
148 164 0
159 177 0
148 165 0
151 168 0
158 177 0
155 172 0
151 170 0
158 176 0
158 175 0
156 172 0
163 180 0
163 182 0
161 180 0
161 180 0
152 167 0
155 172 0
156 174 0
153 172 0
156 174 0
163 179 0
162 181 0
161 180 0
155 173 0
163 179 0
160 179 0
163 181 0
158 176 0
159 175 0
161 181 0
158 175 0
163 182 0
159 179 0
160 179 0
162 182 0
158 176 0
168 186 0
166 184 0
165 183 0
156 176 0
163 182 0
156 171 0
158 178 0
161 180 0
161 180 0
160 177 0
157 175 0
167 187 0
166 187 0
162 183 0
165 185 0
159 178 0
168 188 0
166 185 0
164 185 0
162 179 0
165 185 0
163 183 0
164 183 0
164 185 0
166 186 0
165 185 0
170 195 72
167 190 72
168 192 84
171 195 67
173 197 76
168 192 67
170 194 62
169 193 62
168 192 76
169 194 84
170 194 72
168 192 62
167 192 67
171 195 67
168 192 62
166 190 72
170 194 67
170 193 72
167 191 76
170 193 57
170 194 57
169 193 95
171 195 84
168 193 62
168 192 72
167 191 80
164 187 62
171 195 88
170 194 76
170 194 80
162 186 80
170 195 102
165 189 62
166 189 76
170 194 95
167 192 95
171 194 102
165 189 95
169 193 95
160 183 51
170 195 95
166 189 84
164 188 76
165 189 80
170 193 76
166 190 88
165 189 84
168 191 102
170 194 80
163 186 72
168 191 92
167 190 88
166 190 88
167 190 84
161 184 76
162 186 84
162 186 80
172 195 120
166 189 88
159 182 95
158 182 80
167 189 76
159 182 102
157 179 95
163 186 62
162 184 88
155 178 72
162 185 80
158 180 84
166 189 108
162 185 99
153 176 92
163 186 114
160 183 84
157 178 67
160 182 102
155 177 105
150 173 57
154 176 80
158 182 84
150 172 62
153 176 88
144 166 36
145 167 67
147 169 95
154 177 72
145 166 70
153 175 84
146 167 67
142 163 80
145 167 80
144 165 76
144 165 80
150 170 88
137 158 74
112 133 86
99 125 114
93 117 111
79 106 107
90 115 115
86 113 123
91 117 123
96 122 128
83 110 111
97 122 123
88 115 130
89 115 120
79 105 119
84 111 115
99 125 139
74 103 128
101 126 136
104 128 143
91 118 145
100 125 134
94 119 140
82 110 129
84 112 122
95 121 129
91 118 125
92 118 120
96 121 135
87 115 131
103 127 131
96 122 139
82 111 136
91 117 142
89 113 134
98 120 150
91 113 147
82 109 155
89 113 142
75 104 146
75 104 140
77 106 131
73 101 127
73 101 130
69 97 128
70 98 122
65 95 135
68 98 135
62 94 125
59 91 121
61 94 121
59 93 124
65 97 118
59 93 118
82 111 118
78 106 115
79 108 111
68 99 114
61 93 115
58 92 128
58 92 115
58 92 118
56 90 110
57 91 106
57 91 116
57 91 115
57 91 111
59 93 125
58 91 118
57 91 110
58 92 127
57 90 118
58 91 128
57 90 111
58 91 121
59 93 124
57 90 116
60 94 133
59 93 126
59 93 122
57 91 124
59 93 124
59 93 126
56 89 111
58 92 114
58 93 114
58 92 115
58 92 115
59 93 129
55 88 108
59 92 120
57 91 105
59 93 126
59 93 120
57 91 111
58 92 121
58 91 122
57 90 113
58 91 118
58 92 122
57 90 114
58 91 118
58 93 122
57 90 100
58 92 115
57 91 115
58 92 121
57 90 114
58 91 122
57 90 117
57 91 110
58 92 124
57 90 107
59 94 124
56 89 107
56 89 113
58 92 117
57 90 115
57 90 113
57 90 118
57 90 113
58 91 115
56 89 99
56 89 103
57 90 118
57 90 114
54 87 94
56 89 107
56 88 102
52 84 82
55 88 113
55 87 102
59 91 102
57 86 90
64 90 74
88 110 78
100 116 47
102 118 47
108 121 0
111 128 0
111 126 0
121 137 0
114 129 0
101 118 0
103 119 0
120 134 0
123 139 0
111 128 0
124 138 0
118 134 0
124 140 0
123 140 0
126 142 0
126 143 0
120 136 0
120 137 0
116 133 0
123 139 0
117 133 0
128 142 0
118 133 0
133 149 0
131 148 0
111 126 0
123 139 0
129 147 0
122 141 0
119 135 0
131 147 0
130 148 0
132 150 0
133 151 0
130 147 0
124 141 0
125 142 0
133 150 0
140 159 0
128 144 0
138 154 0
140 158 0
131 149 0
128 144 0
140 158 0
136 153 0
139 153 0
145 164 0
152 172 0
131 148 0
140 157 0
146 165 0
137 155 0
132 148 0
137 156 0
141 158 0
138 154 0
140 157 0
146 162 0
134 151 0
145 164 0
139 156 0
144 158 0
143 159 0
144 161 0
140 156 0
149 167 0
148 167 0
147 165 0
145 162 0
145 162 0
143 160 0
148 165 0
144 162 0
142 159 0
152 170 0
146 163 0
143 159 0
147 165 0
156 173 0
146 162 0
152 170 0
152 169 0
149 166 0
151 170 0
148 165 0
147 163 0
148 163 0
149 167 0
148 164 0
156 174 0
157 174 0
151 168 0
148 166 0
154 171 0
156 173 0
151 169 0
154 173 0
152 167 0
150 168 0
156 174 0
154 171 0
152 166 0
153 171 0
156 173 0
155 171 0
154 171 0
148 164 0
157 175 0
154 170 0
154 171 0
155 172 0
149 166 0
159 174 0
153 171 0
155 172 0
152 169 0
150 168 0
158 176 0
157 175 0
157 176 0
157 174 0
161 178 0
161 181 0
157 175 0
159 175 0
159 176 0
149 167 0
158 177 0
159 178 0
158 176 0
154 173 0
154 173 0
160 178 0
160 178 0
160 179 0
156 174 0
160 179 0
159 177 0
158 176 0
164 183 0
160 178 0
156 174 0
165 186 0
159 178 0
165 185 0
162 181 0
159 177 0
159 179 0
161 181 0
163 183 0
162 182 0
160 180 0
162 182 0
162 181 0
162 181 0
160 181 0
164 184 0
167 186 0
165 185 0
166 185 0
159 178 0
168 187 0
164 183 0
162 180 0
168 186 0
165 185 0
166 187 0
163 183 0
168 193 84
172 197 84
173 197 84
170 194 80
170 194 80
171 194 57
175 198 80
169 193 72
169 193 72
167 192 72
168 192 76
170 195 67
167 191 62
169 193 76
167 191 84
170 193 80
164 189 72
171 195 84
169 194 99
169 193 62
171 194 72
172 196 72
165 190 51
166 189 51
168 192 76
163 187 62
168 192 72
164 189 72
166 190 62
172 196 88
170 194 92
164 188 80
169 193 84
163 187 95
165 189 80
167 190 88
168 191 95
162 186 88
174 198 92
171 195 102
169 192 114
171 195 105
164 187 72
169 194 95
169 192 84
170 193 108
163 186 95
165 188 99
164 188 80
165 188 67
163 185 95
170 193 84
169 192 99
165 187 92
166 190 80
170 194 125
162 186 88
167 190 92
159 182 95
159 182 99
161 184 95
159 182 95
164 187 80
166 190 99
160 182 84
162 185 84
153 176 67
164 186 105
159 182 80
159 182 84
157 180 80
162 185 99
157 180 80
158 181 99
159 180 88
156 178 92
159 181 76
156 179 92
153 176 92
151 174 76
160 181 72
149 171 72
162 184 88
157 180 84
150 172 88
138 159 80
149 170 62
154 176 92
148 170 80
152 173 88
138 160 67
153 174 80
137 158 72
155 177 80
157 178 80
135 156 88
114 136 92
96 122 113
96 122 129
85 111 108
82 109 112
96 122 133
98 124 125
98 121 121
85 112 113
86 112 113
85 111 115
97 123 124
82 109 120
99 123 132
88 113 113
89 116 128
93 119 136
99 123 129
99 123 133
103 127 126
99 123 133
104 129 141
90 116 123
101 127 135
108 132 117
95 120 121
90 117 129
101 125 137
94 121 140
83 112 135
97 121 142
82 111 148
93 115 140
93 112 135
87 110 138
95 117 145
81 107 141
79 108 142
75 104 135
67 98 130
71 103 131
67 97 124
65 96 113
63 96 128
67 96 124
62 95 124
59 93 122
61 93 120
61 94 111
64 96 118
66 97 107
66 97 117
67 98 117
63 95 108
68 98 123
59 92 110
56 89 99
58 92 121
58 92 120
57 90 113
57 90 115
57 90 107
57 91 117
58 92 113
56 90 113
57 91 107
57 91 112
57 90 108
59 93 122
57 90 113
58 91 108
59 93 124
59 93 122
58 92 120
59 93 123
58 91 122
59 93 124
56 90 110
57 90 110
58 92 121
60 95 133
57 91 115
59 93 126
58 91 111
55 88 108
56 89 118
59 94 114
59 92 126
58 92 108
59 93 117
56 89 107
58 92 125
57 91 114
58 91 118
59 93 130
57 89 113
57 91 115
57 90 115
59 92 118
56 89 110
57 90 107
58 92 121
57 90 113
58 92 120
59 92 118
59 92 122
57 90 114
58 91 115
57 90 111
57 90 108
56 89 114
57 91 113
59 92 122
59 92 121
57 91 110
58 92 114
58 91 114
55 88 103
57 91 108
56 88 102
55 87 95
56 89 110
59 92 117
54 86 94
56 89 107
55 87 102
56 88 100
53 85 94
56 86 86
60 87 100
75 99 80
82 102 47
96 113 44
94 108 25
117 132 0
107 123 0
113 127 0
107 123 0
115 131 0
112 126 0
106 121 0
123 138 0
120 135 0
109 125 0
105 121 0
115 131 0
116 132 0
117 135 0
106 123 0
122 138 0
125 139 0
141 157 0
124 141 0
126 142 0
126 143 0
127 144 0
123 141 0
118 134 0
124 139 0
123 139 0
133 149 0
131 147 0
121 139 0
127 144 0
122 138 0
126 142 0
138 154 0
131 149 0
131 146 0
130 147 0
128 143 0
144 164 0
141 158 0
136 150 0
130 147 0
145 164 0
133 149 0
132 148 0
138 157 0
131 147 0
134 150 0
137 155 0
131 148 0
135 153 0
148 168 0
137 154 0
144 162 0
132 150 0
138 156 0
133 149 0
142 159 0
142 159 0
133 152 0
148 166 0
137 153 0
138 157 0
145 163 0
145 162 0
150 168 0
134 151 0
145 160 0
147 165 0
151 167 0
147 166 0
149 168 0
146 162 0
142 158 0
150 168 0
152 171 0
149 165 0
145 163 0
138 153 0
147 164 0
151 170 0
148 166 0
144 160 0
141 159 0
147 163 0
142 159 0
152 170 0
155 171 0
149 167 0
156 175 0
153 170 0
160 177 0
151 169 0
151 167 0
152 169 0
155 173 0
157 174 0
158 175 0
153 170 0
145 163 0
158 175 0
161 178 0
158 177 0
156 171 0
155 173 0
156 173 0
157 175 0
153 170 0
155 174 0
160 180 0
154 175 0
152 171 0
155 172 0
155 173 0
152 170 0
157 174 0
155 174 0
157 173 0
162 180 0
153 171 0
161 178 0
165 183 0
155 174 0
160 178 0
157 175 0
160 178 0
165 184 0
157 174 0
163 180 0
157 173 0
155 174 0
158 175 0
158 175 0
162 180 0
158 173 0
158 176 0
159 176 0
164 184 0
160 178 0
161 178 0
158 178 0
162 181 0
159 179 0
165 183 0
163 181 0
164 183 0
167 185 0
161 182 0
158 177 0
164 185 0
157 176 0
164 184 0
163 184 0
159 178 0
162 180 0
160 179 0
157 176 0
165 185 0
165 186 0
163 183 0
161 180 0
162 183 0
163 182 0
164 184 0
159 178 0
165 185 0
167 187 0
164 184 0
158 177 0
166 185 0
163 182 0
173 197 92
168 192 57
173 197 80
168 192 76
173 197 84
171 197 105
170 194 92
171 196 80
170 194 67
173 197 84
170 194 76
168 192 67
170 194 67
168 191 67
171 195 76
167 191 72
169 193 80
166 189 67
170 194 76
170 194 72
171 195 84
165 189 80
170 194 92
168 192 88
167 191 76
168 192 62
172 196 105
170 195 80
166 191 76
167 191 92
170 193 84
170 193 84
170 193 92
168 192 88
168 192 95
173 197 88
172 196 105
170 195 102
167 189 80
167 189 76
167 190 95
168 192 76
164 188 84
169 192 72
163 187 67
165 188 122
167 191 95
167 190 99
165 188 76
162 184 95
165 188 95
168 190 92
169 193 88
169 192 102
163 187 72
164 187 117
161 184 76
160 183 88
175 197 105
161 184 102
168 190 111
159 182 95
160 184 92
164 187 99
156 180 92
159 180 80
163 185 92
160 183 88
155 178 99
160 182 84
158 180 84
157 179 99
149 172 72
159 181 84
158 180 80
154 176 76
156 178 84
161 183 92
152 174 76
154 176 62
154 177 92
149 172 76
147 169 67
153 175 97
148 171 76
140 161 51
150 171 72
148 170 88
154 175 88
148 169 88
148 170 62
145 165 84
141 161 67
142 163 84
142 163 88
141 163 74
131 152 82
114 136 102
84 109 94
90 115 109
87 113 117
89 114 108
89 115 116
96 121 120
94 120 134
97 121 122
89 115 116
96 121 134
95 120 128
92 118 117
92 117 133
82 109 121
92 117 125
87 114 128
99 123 121
101 125 132
101 124 126
92 117 128
100 125 129
91 116 129
93 119 136
100 125 124
102 126 126
104 128 140
96 122 140
88 115 131
90 116 132
87 113 147
101 120 137
103 120 129
95 116 129
94 115 137
83 109 143
84 110 129
71 101 125
70 101 125
67 99 133
70 99 116
69 100 129
62 94 127
64 95 128
61 93 128
61 92 101
67 96 111
58 92 123
62 94 120
66 98 115
66 97 103
85 112 90
74 101 82
58 89 94
66 97 110
58 91 124
59 93 122
57 91 110
56 88 107
57 90 110
55 88 112
56 89 114
58 91 122
56 89 102
56 89 108
57 90 115
57 90 118
58 91 118
58 91 118
59 93 117
57 91 121
57 91 118
57 90 111
58 91 122
57 91 114
57 91 107
59 93 122
57 90 108
57 90 110
60 94 126
59 93 122
59 93 114
57 90 113
58 92 115
57 90 110
57 91 120
58 91 110
57 91 115
57 90 110
59 93 120
58 92 115
58 92 121
56 89 99
58 92 117
56 89 108
56 89 103
57 90 102
59 93 131
58 91 114
59 93 117
59 93 121
58 91 118
58 92 122
58 91 120
57 91 117
57 90 108
57 90 113
56 90 108
56 89 105
57 91 114
56 89 97
57 90 108
58 91 120
58 92 122
57 90 105
56 89 105
55 87 103
57 90 107
55 87 110
55 88 99
55 87 95
55 87 92
57 91 120
56 88 107
54 86 100
56 89 103
57 89 97
77 103 86
77 98 74
87 105 47
92 110 40
106 120 0
102 118 18
116 132 0
112 125 0
117 133 0
103 119 0
118 134 0
113 127 0
113 127 0
111 126 0
106 121 0
123 140 0
115 131 0
114 128 0
113 128 0
120 139 0
129 144 0
125 142 0
124 140 0
117 133 0
118 134 0
131 147 0
117 133 0
133 149 0
116 133 0
121 138 0
116 133 0
135 152 0
132 148 0
119 135 0
131 149 0
128 146 0
130 148 0
137 154 0
129 144 0
140 158 0
128 145 0
129 144 0
140 157 0
131 149 0
128 145 0
134 151 0
137 156 0
133 150 0
135 150 0
140 159 0
130 149 0
149 166 0
134 151 0
142 158 0
140 158 0
143 160 0
152 170 0
138 156 0
135 151 0
146 162 0
142 160 0
145 163 0
146 164 0
139 156 0
146 164 0
146 164 0
138 154 0
144 160 0
142 160 0
149 167 0
134 149 0
139 158 0
152 171 0
148 165 0
143 159 0
145 162 0
147 166 0
145 162 0
148 166 0
139 156 0
142 160 0
154 171 0
143 160 0
151 168 0
152 170 0
150 168 0
148 164 0
151 169 0
149 167 0
147 163 0
152 169 0
143 161 0
146 162 0
138 155 0
155 170 0
147 164 0
151 169 0
153 171 0
151 168 0
151 169 0
147 164 0
150 168 0
149 166 0
150 165 0
156 175 0
150 166 0
154 171 0
155 173 0
156 173 0
152 169 0
153 170 0
161 181 0
159 177 0
155 172 0
155 173 0
159 178 0
161 179 0
158 175 0
157 174 0
157 176 0
155 174 0
151 166 0
155 173 0
154 175 0
158 177 0
161 179 0
157 178 0
157 176 0
152 170 0
156 172 0
164 183 0
158 177 0
160 180 0
160 178 0
155 174 0
162 182 0
163 179 0
160 179 0
163 183 0
160 180 0
158 177 0
159 178 0
155 174 0
167 186 0
162 182 0
167 187 0
167 185 0
164 184 0
162 181 0
161 177 0
162 181 0
160 181 0
160 178 0
168 187 0
160 177 0
168 189 0
161 180 0
162 182 0
164 185 0
163 183 0
160 181 0
165 184 0
167 187 0
166 184 0
163 182 0
164 183 0
167 187 0
164 185 0
167 186 0
166 187 0
165 184 0
166 186 0
168 188 0
163 184 0
165 185 0
165 186 0
172 196 62
169 193 67
172 196 57
168 191 62
169 193 80
169 193 67
168 193 67
170 195 88
167 191 76
167 191 76
172 196 84
170 194 67
170 194 99
168 192 88
171 195 88
171 195 80
167 192 80
166 190 67
170 194 72
169 192 80
170 194 72
172 196 72
171 194 84
170 194 62
169 193 76
169 192 105
168 191 76
166 189 72
167 191 95
163 186 84
174 199 102
165 188 88
172 195 99
169 193 95
170 194 105
172 195 114
171 194 88
165 189 80
165 189 92
165 188 92
171 195 88
165 189 80
170 193 111
171 193 92
163 186 84
167 190 80
165 189 92
162 184 57
172 194 99
168 191 108
162 184 95
161 185 92
167 190 84
170 192 111
165 188 76
160 184 102
169 191 114
163 186 92
163 185 88
162 186 88
163 186 102
160 183 76
170 193 120
163 185 95
161 183 95
155 178 95
164 185 102
167 190 92
160 182 80
163 186 67
167 191 111
156 178 84
164 186 108
152 174 105
158 181 92
156 179 102
151 172 84
164 185 108
157 178 95
147 169 62
149 171 76
157 179 102
149 171 99
150 172 84
145 167 84
156 178 62
159 181 92
157 179 62
141 162 70
158 179 88
141 163 76
145 166 72
145 166 67
139 160 84
149 170 102
138 158 92
148 168 80
133 154 60
113 135 94
86 111 99
84 110 100
86 112 115
80 108 115
87 114 115
82 108 105
95 121 113
101 125 126
100 125 137
102 127 135
104 128 133
100 124 130
88 115 129
83 111 107
88 114 118
97 123 122
99 123 133
94 120 126
88 115 117
110 132 131
103 128 128
97 124 133
87 113 133
104 127 135
94 118 120
100 126 129
80 108 128
78 106 124
93 119 146
96 117 135
100 117 136
105 121 127
94 112 133
91 114 131
78 106 122
75 105 126
75 105 132
69 100 131
68 98 127
72 102 113
70 102 129
69 99 121
64 94 112
60 92 120
64 94 114
64 94 114
64 95 117
62 94 105
67 98 103
74 102 90
72 101 107
74 102 95
63 94 99
56 89 108
55 88 108
58 91 114
56 89 104
57 90 108
59 92 122
57 90 108
55 87 109
57 91 111
57 91 118
56 89 114
55 88 103
56 89 115
57 90 110
57 90 114
57 90 115
57 90 105
56 89 103
57 90 113
55 88 107
58 92 115
58 91 113
59 93 121
57 90 111
56 89 113
59 92 118
58 92 118
57 90 112
58 92 115
59 93 114
56 89 105
57 90 105
58 92 122
58 91 118
58 91 111
58 92 111
56 89 107
57 91 124
57 91 115
58 92 110
56 89 108
57 91 114
58 91 118
59 92 117
58 91 115
56 88 110
56 88 103
56 88 95
57 90 108
56 88 100
56 90 117
55 88 99
57 90 107
59 93 121
58 92 115
54 87 103
57 91 107
55 87 103
56 89 105
56 89 94
54 86 94
56 88 108
55 88 103
55 88 111
54 87 100
56 88 107
56 89 107
57 90 113
56 89 94
57 88 100
53 81 78
79 103 86
72 94 76
94 111 54
106 122 31
109 123 0
108 122 0
114 129 0
103 118 0
122 138 0
107 123 0
108 123 0
121 136 0
120 136 0
123 139 0
104 121 0
120 136 0
114 129 0
101 118 0
112 129 0
115 131 0
116 131 0
130 147 0
113 130 0
119 135 0
128 146 0
120 137 0
121 139 0
121 136 0
132 150 0
125 143 0
120 138 0
126 144 0
123 140 0
125 143 0
142 159 0
132 150 0
132 149 0
134 154 0
130 147 0
135 152 0
124 141 0
131 149 0
142 161 0
130 147 0
142 159 0
130 147 0
131 147 0
128 142 0
138 155 0
140 157 0
137 156 0
140 158 0
138 153 0
139 154 0
137 155 0
139 158 0
142 159 0
144 160 0
148 167 0
137 156 0
142 160 0
133 151 0
141 162 0
144 162 0
142 156 0
145 161 0
147 165 0
148 165 0
148 167 0
141 157 0
132 148 0
144 161 0
142 159 0
142 161 0
144 162 0
142 158 0
145 161 0
147 164 0
150 167 0
143 158 0
146 162 0
140 157 0
144 160 0
151 170 0
145 164 0
155 173 0
148 167 0
146 163 0
155 174 0
141 157 0
149 169 0
148 167 0
149 165 0
148 164 0
151 168 0
146 164 0
149 166 0
150 166 0
152 171 0
155 173 0
148 164 0
148 166 0
153 171 0
157 174 0
152 169 0
147 165 0
155 171 0
160 178 0
148 164 0
154 170 0
158 177 0
161 179 0
163 182 0
149 168 0
156 174 0
155 173 0
152 170 0
157 176 0
155 172 0
152 170 0
157 174 0
156 175 0
157 178 0
157 174 0
158 176 0
162 179 0
157 173 0
157 176 0
151 169 0
163 183 0
159 179 0
160 177 0
162 180 0
156 174 0
157 174 0
157 176 0
159 179 0
157 175 0
162 180 0
159 176 0
162 180 0
156 173 0
161 180 0
161 179 0
165 184 0
161 181 0
163 181 0
162 180 0
162 181 0
157 177 0
164 185 0
156 175 0
160 179 0
161 179 0
158 178 0
158 175 0
164 184 0
165 184 0
166 185 0
165 185 0
165 184 0
160 178 0
165 184 0
163 183 0
161 179 0
168 189 0
161 180 0
163 183 0
167 187 0
166 185 0
169 190 0
165 185 0
161 182 0
163 183 0
166 186 0
161 181 0
163 185 0
168 194 57
171 196 72
168 192 67
170 194 51
169 193 67
170 195 76
173 197 88
167 192 72
172 197 102
171 194 44
166 190 62
165 190 72
174 198 88
172 195 67
172 196 92
171 195 92
169 193 95
169 192 80
167 191 80
169 194 62
171 195 95
166 190 84
170 193 72
169 193 88
170 195 88
165 189 72
168 192 67
168 191 95
169 192 84
168 192 80
170 193 95
171 195 95
166 189 80
170 193 76
166 189 88
170 193 105
172 196 111
170 192 99
162 185 84
167 190 95
165 188 88
168 191 88
172 196 125
170 193 120
164 188 92
167 191 95
167 190 95
158 183 95
168 191 95
165 188 99
165 188 108
170 192 114
158 182 88
160 183 88
165 188 84
165 189 102
163 185 80
170 193 95
158 181 80
162 186 76
164 186 114
160 183 92
163 186 95
153 175 95
164 186 88
155 177 92
152 175 95
163 186 105
160 182 102
156 179 84
163 185 88
157 179 92
156 178 88
154 176 84
150 171 88
160 182 99
155 177 102
153 175 72
156 179 99
157 178 102
150 171 95
146 168 88
153 174 76
146 166 80
140 162 84
152 174 67
155 176 102
151 172 76
151 173 80
155 176 111
153 174 84
147 169 88
148 169 95
138 159 92
143 164 76
137 159 84
144 163 99
135 156 76
131 152 72
110 132 90
95 118 95
82 107 111
85 112 111
93 118 113
95 121 115
101 125 128
88 114 130
88 113 107
90 116 132
82 110 105
92 116 123
95 120 142
101 125 136
95 119 139
102 126 139
99 123 128
97 121 125
88 114 110
108 132 131
95 120 135
101 126 136
92 117 139
109 133 122
100 124 121
107 131 134
102 126 114
90 115 126
97 120 126
91 112 123
102 116 122
105 121 135
100 117 134
79 103 128
84 110 124
80 108 136
65 99 133
70 102 134
70 99 123
65 96 137
70 101 118
64 94 120
70 99 123
69 100 114
58 90 105
64 94 115
65 96 107
61 93 107
60 91 107
76 103 113
80 107 105
79 107 97
71 99 94
59 90 96
56 89 107
55 87 92
56 89 110
58 92 117
56 89 105
57 90 116
56 89 100
58 91 103
57 91 113
58 93 115
57 91 114
56 89 97
57 91 117
58 92 115
54 86 105
57 90 113
58 92 117
58 92 117
58 92 121
57 90 117
58 92 113
59 92 121
58 92 124
60 95 125
57 91 110
58 92 122
57 91 100
57 91 122
56 89 102
59 94 124
56 88 103
56 90 111
57 90 103
57 90 115
57 91 114
57 90 110
58 91 113
56 89 97
56 89 103
56 89 111
58 91 117
56 89 102
59 93 121
56 88 103
58 91 117
57 89 105
58 92 111
57 90 111
55 87 105
54 86 88
57 90 110
56 89 115
56 89 111
57 89 110
55 87 97
55 88 102
55 88 88
53 85 88
52 83 95
55 87 108
54 86 90
56 88 97
57 89 113
56 89 107
53 84 95
55 88 102
56 88 107
55 85 92
67 94 92
81 103 70
86 104 51
95 110 51
101 117 25
116 131 18
96 110 0
107 122 0
108 123 0
105 121 0
121 138 0
112 130 0
115 130 0
123 141 0
119 134 0
118 134 0
114 130 0
126 141 0
117 133 0
103 118 0
118 134 0
116 132 0
120 139 0
114 128 0
114 131 0
116 132 0
126 142 0
125 141 0
126 142 0
131 146 0
126 143 0
127 143 0
124 139 0
120 137 0
131 147 0
131 147 0
123 139 0
137 153 0
132 150 0
134 151 0
136 153 0
121 139 0
123 139 0
127 142 0
138 156 0
136 154 0
137 155 0
141 159 0
141 157 0
137 155 0
132 150 0
140 160 0
140 157 0
136 155 0
139 157 0
132 149 0
139 157 0
135 152 0
139 158 0
140 156 0
129 145 0
140 157 0
143 159 0
140 157 0
146 165 0
141 158 0
141 158 0
142 161 0
140 158 0
141 160 0
147 164 0
141 159 0
145 161 0
141 158 0
151 171 0
137 153 0
153 170 0
150 167 0
135 152 0
148 165 0
149 167 0
144 162 0
146 164 0
150 166 0
141 159 0
146 166 0
150 170 0
143 158 0
142 159 0
151 170 0
146 165 0
154 173 0
144 164 0
158 175 0
152 170 0
144 160 0
153 172 0
151 169 0
160 179 0
152 170 0
153 170 0
157 175 0
155 173 0
160 178 0
150 168 0
155 173 0
155 173 0
157 174 0
149 167 0
152 172 0
159 177 0
153 169 0
155 171 0
156 175 0
155 174 0
154 172 0
152 168 0
147 167 0
153 170 0
158 176 0
149 165 0
157 173 0
154 172 0
160 179 0
154 173 0
157 175 0
159 179 0
157 173 0
157 176 0
161 179 0
161 179 0
161 181 0
156 173 0
158 178 0
152 171 0
162 183 0
156 174 0
159 176 0
161 181 0
159 178 0
159 176 0
162 180 0
157 176 0
157 177 0
164 182 0
158 176 0
160 177 0
162 182 0
161 181 0
162 181 0
162 180 0
158 178 0
166 185 0
165 183 0
164 185 0
160 178 0
166 185 0
164 182 0
162 181 0
165 185 0
164 184 0
165 185 0
163 184 0
167 187 0
168 189 0
164 183 0
159 178 0
162 182 0
163 182 0
166 187 0
166 187 0
159 176 0
160 181 0
165 186 0
163 183 0
166 187 0
166 187 0
166 187 0
165 186 0
172 196 88
170 193 67
170 195 84
173 197 84
167 191 62
170 194 67
169 193 67
170 195 84
170 194 84
173 196 67
171 195 80
172 196 80
164 188 62
170 195 72
172 197 92
170 193 67
170 194 80
171 196 88
168 191 84
168 191 84
167 192 84
165 189 84
165 189 84
174 198 95
169 192 102
172 197 102
169 193 80
165 187 88
173 197 102
171 194 72
171 194 105
172 195 102
170 195 108
174 197 84
169 192 84
169 191 76
168 192 80
165 189 84
167 191 95
174 197 95
168 192 95
167 190 102
168 192 99
169 192 95
167 191 95
172 195 102
169 191 102
164 186 76
162 186 102
164 187 88
172 195 84
161 184 80
159 183 80
169 191 102
160 182 107
161 183 94
164 187 84
167 190 99
166 188 108
163 187 94
163 187 111
164 186 105
163 185 92
165 187 99
163 186 92
163 186 88
159 182 92
158 180 99
156 178 92
160 182 102
162 184 95
168 190 105
161 182 76
160 182 92
155 176 99
160 182 88
168 190 117
160 182 105
151 173 57
156 178 99
148 170 80
154 175 88
159 180 80
152 173 92
165 186 99
157 179 84
155 176 88
153 174 84
145 166 76
155 176 102
143 164 72
150 172 62
144 165 67
140 160 92
135 156 44
130 149 76
141 161 80
133 153 76
136 157 76
126 145 70
110 132 97
89 113 98
81 106 104
94 119 126
83 110 105
89 114 117
95 121 122
89 114 123
86 113 125
86 112 118
87 112 104
90 116 108
82 109 120
90 115 120
101 125 122
101 125 135
92 117 116
104 128 121
89 114 116
103 127 135
86 112 119
98 124 128
93 119 122
97 122 115
88 114 116
95 121 137
90 116 127
84 110 125
96 116 131
91 112 136
99 114 113
87 109 128
89 109 129
81 105 121
82 108 120
76 106 133
74 103 132
72 102 128
73 103 111
66 97 125
67 98 114
65 98 128
66 95 116
62 94 114
68 98 115
69 100 117
61 92 100
62 93 114
72 100 99
76 104 107
68 97 94
60 90 88
62 94 107
57 90 107
57 89 116
58 91 113
57 90 117
57 90 110
56 89 103
56 89 105
56 89 110
57 90 120
57 91 111
57 90 103
57 90 120
56 90 105
56 89 107
57 90 103
58 91 113
57 90 107
56 90 114
58 91 114
56 89 103
58 91 114
56 89 107
58 91 111
58 91 117
59 93 121
59 92 122
58 92 111
56 90 99
57 91 115
58 92 110
57 90 120
56 90 102
58 91 114
57 91 122
58 92 111
56 89 100
56 89 100
57 90 107
58 91 107
59 94 122
58 91 110
59 93 113
55 88 107
58 91 115
55 88 110
59 93 114
56 88 108
56 88 110
57 90 110
57 91 113
56 89 95
54 86 100
56 89 110
56 88 92
55 86 107
57 90 111
57 90 103
55 88 100
54 86 86
57 89 108
57 90 100
55 87 94
56 88 97
53 84 78
55 87 100
56 87 97
62 90 88
67 92 70
89 109 70
79 95 31
92 108 25
90 106 18
90 106 0
109 125 0
101 116 0
115 130 0
105 121 0
105 121 0
118 136 0
106 121 0
108 123 0
104 120 0
123 138 0
120 137 0
121 137 0
128 144 0
121 138 0
114 129 0
120 136 0
123 139 0
121 137 0
126 144 0
121 138 0
119 136 0
121 137 0
118 135 0
131 148 0
126 144 0
133 151 0
120 137 0
134 152 0
125 144 0
132 149 0
140 157 0
127 142 0
121 137 0
138 156 0
128 145 0
138 156 0
125 142 0
139 155 0
131 149 0
135 152 0
129 145 0
134 150 0
134 151 0
137 156 0
129 146 0
126 142 0
128 145 0
136 155 0
143 162 0
138 155 0
146 165 0
147 165 0
140 159 0
147 166 0
139 157 0
139 154 0
141 161 0
148 167 0
144 159 0
142 158 0
148 168 0
144 163 0
140 157 0
133 151 0
145 163 0
137 153 0
145 163 0
142 158 0
149 165 0
143 160 0
148 165 0
147 166 0
144 161 0
143 160 0
154 174 0
146 163 0
142 160 0
148 165 0
149 168 0
148 165 0
144 163 0
144 163 0
150 169 0
153 170 0
145 162 0
146 164 0
149 166 0
150 166 0
151 170 0
143 161 0
153 172 0
145 161 0
153 171 0
148 165 0
151 170 0
155 174 0
151 168 0
151 167 0
155 174 0
153 172 0
150 168 0
149 167 0
152 170 0
164 184 0
152 172 0
151 169 0
159 176 0
151 167 0
155 173 0
154 173 0
156 173 0
158 175 0
151 171 0
158 176 0
157 177 0
160 180 0
151 170 0
159 179 0
163 182 0
160 179 0
161 181 0
153 172 0
161 180 0
155 173 0
153 173 0
156 176 0
157 176 0
159 180 0
161 180 0
159 179 0
159 179 0
153 167 0
155 174 0
154 172 0
162 180 0
159 179 0
160 178 0
162 181 0
158 176 0
155 175 0
164 183 0
156 174 0
162 182 0
160 180 0
158 176 0
162 181 0
161 180 0
164 182 0
162 180 0
161 178 0
163 181 0
160 178 0
160 178 0
162 180 0
157 176 0
161 182 0
163 184 0
165 184 0
165 185 0
162 183 0
162 181 0
164 185 0
167 188 0
165 185 0
160 180 0
163 183 0
167 188 0
165 184 0
165 184 0
159 178 0
161 183 0
168 187 0
161 180 0
168 189 0
173 196 84
168 192 72
171 195 80
169 193 57
170 194 76
173 197 84
168 192 51
170 194 67
174 198 84
169 193 99
163 188 62
170 193 76
174 197 62
173 196 76
167 191 76
170 195 105
169 193 76
171 194 72
169 192 72
170 194 67
169 193 84
168 191 76
167 191 114
168 191 76
167 192 88
168 191 76
167 191 72
168 191 95
171 194 92
168 191 76
172 195 80
169 192 95
174 197 92
173 197 105
170 194 95
165 188 95
169 192 92
168 192 95
172 195 111
168 191 105
168 190 62
174 197 92
171 194 92
174 195 102
161 185 95
171 194 102
169 192 102
169 193 102
162 186 95
169 193 111
163 185 84
165 189 99
160 182 88
164 187 92
166 190 99
159 182 88
163 186 80
163 187 72
167 190 117
169 192 125
166 189 105
167 190 102
161 183 92
168 191 105
165 188 95
154 177 88
161 183 95
160 183 80
158 181 105
165 187 105
158 180 108
155 177 92
166 187 105
165 187 99
156 178 95
152 175 102
163 186 120
156 178 99
157 180 108
149 170 88
154 176 88
143 165 80
147 168 88
154 175 99
151 173 72
153 174 99
151 172 88
142 163 80
156 177 99
135 155 76
140 161 76
150 171 99
140 161 76
145 166 80
135 156 62
123 142 72
141 161 84
139 159 80
140 158 111
138 157 67
121 140 65
112 135 108
91 116 106
89 113 102
98 123 123
94 120 122
90 114 115
97 121 105
98 122 118
91 116 132
90 115 121
88 114 120
81 108 124
96 120 118
89 114 126
85 111 118
100 124 120
83 108 107
99 124 135
90 116 119
97 122 116
105 129 128
106 130 139
95 120 121
101 126 123
93 119 115
90 117 115
98 122 140
92 115 121
106 124 125
110 126 123
108 124 127
103 123 128
92 116 126
86 112 117
70 101 124
68 99 114
75 104 121
70 100 124
71 100 119
75 102 118
65 95 105
69 96 111
64 97 135
67 97 117
65 96 124
61 92 110
64 96 116
68 97 105
73 101 92
80 107 98
71 100 96
62 93 107
57 90 113
57 90 99
57 90 103
58 92 110
55 87 103
57 90 115
57 91 115
57 90 113
55 88 99
57 90 110
54 87 100
58 91 113
56 89 100
58 91 113
57 90 112
56 89 107
56 89 103
56 89 110
56 89 107
56 89 111
56 89 107
55 88 103
56 89 113
57 90 100
55 88 94
55 88 107
56 89 103
56 88 107
57 91 111
57 90 105
60 94 122
58 92 110
56 89 107
57 90 110
56 89 105
57 91 107
57 90 113
54 86 103
57 90 103
56 88 100
58 92 115
55 88 108
58 91 117
57 91 108
57 90 114
57 89 115
57 90 117
56 89 103
56 88 103
56 88 103
58 91 111
59 92 114
57 89 110
56 88 103
56 89 117
54 85 90
54 85 82
56 88 102
55 87 102
56 88 102
56 89 97
56 89 102
55 88 103
54 86 103
59 87 80
73 96 78
78 100 70
90 107 31
106 122 31
100 115 0
108 124 0
101 116 0
98 113 0
115 131 0
113 130 0
106 122 0
113 127 0
95 111 0
100 117 0
103 118 0
121 136 0
121 137 0
113 129 0
118 135 0
114 130 0
111 127 0
102 118 0
102 118 0
118 135 0
118 134 0
127 144 0
112 127 0
126 143 0
123 138 0
112 128 0
126 142 0
126 141 0
124 142 0
122 138 0
132 149 0
119 134 0
132 150 0
130 147 0
128 143 0
139 157 0
140 156 0
129 146 0
130 148 0
139 159 0
138 157 0
127 145 0
128 147 0
134 152 0
126 141 0
135 150 0
134 152 0
129 147 0
136 153 0
137 153 0
132 152 0
134 152 0
144 160 0
133 150 0
138 157 0
144 161 0
144 162 0
138 155 0
146 163 0
142 160 0
143 161 0
136 153 0
138 157 0
141 159 0
144 161 0
134 151 0
141 158 0
149 168 0
145 161 0
142 158 0
136 154 0
149 165 0
142 160 0
141 160 0
144 162 0
138 156 0
148 165 0
147 165 0
153 169 0
145 163 0
148 166 0
143 160 0
152 170 0
149 167 0
142 160 0
139 157 0
154 171 0
151 170 0
152 170 0
153 173 0
143 162 0
153 171 0
148 164 0
149 166 0
151 169 0
150 171 0
150 166 0
150 168 0
148 165 0
149 168 0
149 167 0
150 168 0
151 168 0
147 163 0
150 167 0
147 163 0
154 170 0
156 174 0
147 166 0
154 169 0
160 179 0
158 175 0
156 173 0
155 173 0
156 174 0
151 169 0
152 171 0
156 174 0
156 173 0
156 174 0
156 174 0
159 178 0
159 180 0
152 169 0
155 174 0
155 174 0
156 173 0
151 168 0
156 174 0
162 181 0
154 174 0
154 173 0
154 173 0
160 180 0
161 180 0
159 177 0
158 177 0
161 182 0
154 172 0
159 177 0
159 179 0
162 182 0
160 180 0
156 175 0
163 184 0
161 182 0
163 183 0
161 180 0
160 181 0
160 179 0
153 172 0
159 179 0
161 181 0
159 178 0
162 183 0
167 188 0
164 184 0
163 182 0
163 183 0
165 183 0
167 190 0
169 190 0
161 181 0
167 187 0
167 187 0
161 179 0
158 179 0
161 181 0
165 184 0
164 185 0
168 187 0
162 182 0
164 185 0
164 185 0
168 190 0
163 186 0
165 185 0
165 184 0
164 188 62
171 193 57
174 197 76
166 191 62
174 198 62
172 195 76
169 193 72
169 193 80
169 193 57
167 191 84
171 195 95
171 195 95
170 194 84
168 192 62
169 193 84
168 191 80
167 192 72
171 196 102
167 191 76
169 193 72
175 198 99
167 190 76
172 197 99
172 196 120
171 195 84
174 196 84
169 193 80
172 196 92
167 191 92
171 195 84
168 191 102
167 190 108
164 188 95
171 194 102
174 196 117
166 190 88
172 195 84
170 193 84
164 187 76
170 193 99
171 194 102
165 189 99
161 184 84
164 188 92
171 195 99
166 190 92
160 183 92
166 189 99
157 181 84
167 190 102
159 182 84
169 192 92
157 180 80
167 191 111
160 183 90
166 188 95
164 187 102
165 188 95
170 192 111
163 187 105
166 189 102
159 182 102
166 189 92
159 181 92
154 177 80
156 179 76
163 186 102
158 181 92
157 179 88
160 182 99
166 188 108
152 174 88
165 187 122
164 185 102
158 179 92
162 184 111
157 179 92
155 177 105
159 182 117
154 176 84
152 173 108
149 172 84
151 172 92
157 177 117
158 179 99
153 173 88
148 169 72
151 172 95
150 172 84
142 163 80
147 168 84
140 160 92
139 160 72
149 170 80
154 174 92
139 159 57
145 166 72
141 161 99
140 159 92
125 143 72
131 150 72
127 146 95
116 138 120
84 110 98
79 105 103
88 112 95
93 118 110
97 121 117
103 126 133
93 118 120
89 115 121
106 129 133
87 113 116
94 120 120
88 116 125
101 125 131
93 118 110
95 120 122
101 124 128
82 109 118
97 121 98
97 122 125
103 126 131
95 120 111
84 111 120
86 113 115
102 125 132
90 115 126
101 122 129
106 120 112
110 128 114
113 127 108
112 128 113
103 122 106
84 109 114
90 114 112
72 103 133
68 98 123
71 102 126
69 99 117
70 99 103
65 96 120
70 97 109
54 87 100
78 105 107
64 94 114
60 91 102
65 96 117
73 102 93
70 98 96
83 110 92
84 110 88
67 98 108
55 88 111
55 88 102
55 87 95
57 90 99
56 88 102
56 89 97
56 89 111
56 88 111
54 86 100
55 88 103
57 91 108
59 92 120
57 91 114
55 87 94
56 88 102
55 87 102
56 88 100
55 87 99
57 90 100
57 90 108
57 90 110
58 91 111
56 88 113
58 91 118
57 90 105
56 89 111
55 88 95
56 89 102
58 92 122
56 88 105
57 90 103
56 88 95
56 89 109
57 90 108
58 91 115
58 92 108
57 91 111
58 91 114
57 91 105
56 89 95
55 87 94
55 86 99
56 88 111
57 90 108
55 87 102
55 87 108
55 87 100
57 90 111
55 87 102
55 88 97
55 88 105
55 87 108
54 86 92
56 89 100
55 88 97
55 89 100
54 86 99
53 84 86
55 87 105
55 87 95
53 84 92
53 85 88
60 87 88
61 86 82
69 92 60
80 101 57
93 110 51
101 115 36
104 119 0
98 114 0
104 120 0
104 119 0
101 114 0
104 121 0
105 120 0
101 117 0
104 119 0
117 132 0
108 124 0
110 125 0
117 136 0
118 134 0
119 135 0
116 133 0
109 126 0
120 136 0
120 136 0
118 135 0
108 124 0
119 137 0
113 131 0
115 131 0
122 140 0
131 147 0
120 137 0
124 140 0
129 145 0
129 147 0
124 143 0
144 164 0
129 145 0
128 145 0
134 152 0
127 144 0
128 145 0
126 143 0
125 144 0
134 151 0
138 155 0
131 149 0
129 148 0
131 149 0
144 163 0
142 160 0
132 148 0
136 153 0
131 150 0
132 153 0
129 147 0
144 162 0
140 158 0
136 153 0
129 147 0
140 159 0
140 158 0
137 154 0
135 153 0
146 163 0
144 162 0
149 168 0
147 165 0
144 162 0
137 156 0
147 165 0
139 157 0
142 162 0
147 164 0
143 161 0
142 158 0
144 162 0
141 160 0
142 159 0
142 160 0
150 168 0
147 165 0
146 165 0
153 173 0
147 164 0
157 174 0
148 166 0
143 162 0
148 164 0
147 165 0
148 167 0
148 166 0
153 172 0
158 176 0
158 177 0
156 175 0
147 166 0
149 165 0
153 170 0
152 170 0
151 169 0
148 167 0
148 167 0
152 168 0
148 167 0
146 163 0
153 173 0
154 171 0
151 165 0
149 166 0
156 175 0
152 171 0
154 172 0
160 176 0
156 175 0
155 172 0
152 171 0
151 170 0
155 171 0
155 173 0
151 167 0
156 173 0
160 177 0
159 177 0
159 178 0
160 175 0
161 180 0
156 174 0
159 180 0
159 177 0
151 170 0
155 176 0
156 175 0
150 167 0
161 180 0
160 180 0
157 175 0
154 171 0
157 175 0
157 178 0
163 182 0
165 184 0
156 175 0
157 176 0
156 173 0
158 177 0
157 175 0
157 176 0
157 177 0
162 181 0
166 187 0
161 178 0
160 180 0
159 178 0
165 185 0
163 182 0
159 179 0
155 175 0
161 180 0
164 183 0
162 180 0
160 179 0
160 180 0
164 184 0
162 182 0
161 182 0
161 179 0
164 184 0
166 187 0
169 190 0
168 188 0
165 186 0
165 185 0
165 187 0
161 180 0
162 181 0
168 189 0
162 184 0
164 184 0
161 179 0
168 190 0
163 182 0
164 185 0
168 189 0
173 198 80
169 193 72
168 191 51
172 195 72
171 195 72
174 197 76
168 192 62
164 189 88
167 192 57
169 193 80
171 194 72
167 192 76
166 189 72
169 193 88
168 192 76
170 193 76
172 196 88
173 196 84
169 192 84
171 195 92
170 193 84
169 192 92
169 193 108
164 187 92
165 189 80
168 192 95
169 193 84
166 188 99
171 194 105
172 195 105
169 193 84
164 188 99
171 194 88
175 198 102
169 194 108
169 191 76
173 196 108
171 195 120
165 189 105
169 192 114
166 189 80
173 197 105
174 196 99
167 191 99
169 192 99
174 197 99
165 189 99
176 199 120
163 187 92
160 183 95
167 191 105
164 188 117
168 192 95
154 176 92
169 192 105
162 186 105
171 194 108
168 192 76
162 185 84
164 188 111
159 182 84
164 186 84
167 190 125
154 177 102
160 183 88
149 173 80
159 181 95
160 183 105
154 177 99
159 181 88
156 178 105
155 177 76
159 181 76
164 186 88
155 177 99
153 175 102
158 180 111
158 179 95
159 181 108
147 169 88
154 176 76
156 178 102
147 168 84
155 177 102
154 175 84
153 174 99
151 171 92
140 161 80
150 171 99
141 161 88
157 178 99
156 177 105
147 168 80
145 165 102
141 162 80
147 167 72
131 150 80
132 152 67
140 159 88
134 154 80
140 160 88
123 142 62
117 136 72
98 120 76
86 111 103
83 107 99
82 108 102
96 119 115
68 97 103
94 118 124
81 107 101
95 119 114
102 125 126
89 114 111
96 120 126
101 124 130
86 112 115
107 130 118
92 118 122
101 125 137
76 105 107
106 130 126
110 133 124
107 130 125
102 126 115
101 126 107
86 113 130
106 131 129
104 123 138
113 128 136
107 124 112
122 137 108
115 133 113
86 106 115
89 111 97
73 98 107
71 101 123
72 103 133
67 99 117
76 103 118
65 95 107
72 100 107
64 95 113
65 95 105
76 101 102
66 97 107
59 89 92
61 92 88
75 103 95
83 109 88
80 106 74
70 98 86
67 98 99
59 91 105
55 87 99
55 87 102
58 91 113
56 88 103
55 87 99
55 87 108
57 90 95
57 90 111
55 88 100
56 88 105
55 88 99
56 89 105
56 89 90
54 86 95
54 87 90
57 90 107
58 92 117
55 87 95
54 86 103
55 88 95
58 91 120
56 88 107
57 90 100
57 91 115
58 91 114
56 88 102
56 90 111
56 88 105
55 88 107
53 84 99
56 89 111
59 93 118
56 88 100
57 90 102
56 88 113
56 88 103
56 89 100
57 91 115
58 91 115
57 91 114
56 88 114
57 90 105
54 86 88
55 87 103
55 87 100
55 87 103
55 88 111
54 86 100
55 88 111
55 88 95
54 86 94
56 88 105
54 86 97
56 88 111
55 88 102
53 84 90
54 85 84
57 88 99
53 84 82
72 98 82
72 97 84
77 98 70
79 97 62
103 120 31
95 112 31
96 111 25
99 115 0
109 123 0
104 119 0
112 126 0
96 112 0
105 120 0
104 120 0
109 125 0
110 125 0
111 128 0
105 121 0
115 131 0
121 136 0
110 127 0
118 134 0
113 131 0
125 140 0
119 135 0
120 136 0
123 141 0
121 139 0
110 126 0
107 122 0
118 135 0
123 140 0
124 141 0
129 147 0
124 140 0
125 141 0
130 149 0
116 135 0
124 140 0
133 150 0
126 142 0
121 138 0
124 142 0
136 155 0
134 152 0
148 166 0
129 145 0
135 152 0
149 169 0
134 151 0
135 151 0
126 145 0
136 152 0
142 161 0
140 158 0
136 155 0
133 152 0
137 155 0
129 145 0
126 144 0
142 161 0
127 146 0
136 155 0
136 153 0
144 162 0
134 153 0
143 159 0
138 157 0
147 168 0
142 159 0
138 158 0
143 159 0
147 166 0
145 163 0
146 164 0
133 152 0
145 163 0
145 163 0
145 161 0
150 167 0
149 169 0
142 161 0
146 164 0
145 164 0
141 160 0
145 161 0
147 165 0
145 164 0
145 162 0
150 168 0
149 166 0
147 166 0
152 172 0
153 170 0
152 171 0
145 162 0
151 170 0
155 173 0
143 161 0
148 167 0
151 167 0
162 180 0
152 169 0
155 172 0
151 168 0
154 173 0
159 176 0
154 171 0
151 168 0
152 168 0
161 180 0
155 174 0
156 176 0
152 169 0
150 169 0
157 177 0
158 177 0
149 166 0
150 166 0
148 166 0
152 169 0
155 174 0
156 176 0
157 176 0
153 172 0
154 174 0
159 176 0
159 178 0
157 178 0
159 177 0
160 179 0
152 171 0
154 174 0
157 175 0
160 178 0
152 170 0
158 178 0
169 188 0
166 185 0
162 182 0
157 177 0
165 183 0
161 180 0
156 175 0
152 171 0
162 182 0
156 175 0
161 181 0
163 185 0
165 183 0
160 177 0
161 181 0
159 178 0
153 171 0
154 174 0
160 181 0
158 178 0
160 181 0
160 180 0
164 184 0
159 181 0
166 185 0
158 178 0
161 180 0
161 180 0
164 184 0
159 179 0
163 182 0
163 183 0
163 183 0
164 184 0
157 175 0
160 179 0
168 189 0
163 184 0
163 183 0
165 184 0
162 184 0
166 186 0
163 183 0
167 188 0
163 184 0
169 188 0
162 182 0
163 183 0
167 186 0
166 186 0
173 197 92
165 188 72
175 198 92
170 195 88
169 193 72
172 196 62
167 191 72
172 196 105
167 191 62
168 192 84
169 193 88
170 194 76
168 192 72
172 196 88
173 196 92
172 195 76
168 192 92
171 195 62
176 198 102
173 195 88
168 192 95
173 196 102
173 195 92
167 191 108
174 198 117
170 194 105
173 196 105
172 194 92
174 196 84
169 192 111
172 197 95
169 192 102
164 188 84
171 194 95
163 187 95
165 188 105
172 196 114
173 195 80
172 195 84
165 189 99
166 190 108
167 190 84
167 191 114
173 197 114
166 189 80
170 193 114
161 184 92
163 186 99
172 195 114
170 193 99
169 191 76
163 186 99
160 184 88
165 188 84
169 192 76
166 190 105
164 188 105
157 180 84
161 183 76
160 183 84
163 186 95
163 186 114
161 183 99
154 177 80
156 178 88
157 179 88
154 176 80
156 179 95
158 180 88
157 180 88
163 184 117
153 175 92
155 177 92
165 188 102
171 193 105
164 185 102
153 174 84
161 184 99
157 178 67
156 176 99
151 173 88
154 175 102
152 173 102
158 179 92
147 169 95
156 177 67
149 170 80
155 176 99
153 174 88
153 174 105
147 168 80
140 160 99
148 168 84
145 165 99
136 155 76
136 156 67
139 160 92
136 157 51
131 150 80
136 155 88
127 145 72
136 155 57
118 137 76
131 149 90
110 131 110
94 118 103
91 116 99
101 124 118
98 122 122
91 114 103
95 119 118
100 125 114
96 120 122
84 111 88
102 124 128
93 119 125
89 115 107
87 113 113
109 132 138
97 122 122
98 122 120
104 129 143
98 122 121
99 124 117
90 116 113
87 113 105
93 119 123
101 124 121
105 126 125
104 120 121
128 140 100
127 141 91
126 142 72
105 123 109
102 121 97
92 113 105
83 109 103
75 103 113
80 109 129
71 102 122
74 101 107
75 102 111
75 103 118
65 96 113
65 93 105
60 90 88
64 96 110
64 93 94
61 92 115
80 106 86
86 111 97
81 107 84
72 100 81
55 88 97
55 87 96
54 85 88
55 87 97
56 89 99
56 89 95
55 88 102
56 88 101
56 88 107
55 87 103
56 89 100
55 88 99
56 89 104
57 90 100
56 90 92
54 86 94
58 92 124
56 88 94
57 90 111
56 88 105
55 87 103
57 90 105
57 91 103
58 91 118
56 90 108
55 87 105
55 87 99
56 89 110
57 91 110
57 90 105
56 89 97
55 87 102
55 87 95
54 86 97
56 89 105
56 89 97
55 87 105
55 87 97
56 89 110
54 86 92
58 92 108
56 89 103
54 86 92
54 86 105
58 91 108
56 88 103
56 90 107
53 85 86
55 87 92
56 88 100
56 89 99
56 89 107
54 86 84
56 89 102
56 89 100
54 86 95
54 85 90
55 85 88
61 89 80
70 95 84
86 107 60
84 104 60
77 95 47
94 110 25
77 93 36
94 109 18
98 112 0
87 101 0
95 109 0
104 119 0
99 114 0
98 113 0
98 114 0
105 121 0
110 127 0
110 128 0
106 122 0
120 137 0
110 127 0
122 138 0
112 127 0
122 140 0
113 129 0
118 133 0
116 133 0
122 139 0
125 143 0
116 132 0
122 138 0
126 143 0
122 138 0
114 130 0
125 144 0
137 154 0
122 141 0
130 147 0
135 154 0
124 141 0
135 152 0
132 150 0
131 150 0
130 147 0
115 132 0
138 156 0
129 148 0
137 156 0
133 150 0
137 156 0
131 148 0
140 158 0
134 152 0
141 161 0
138 156 0
145 164 0
140 156 0
139 156 0
139 157 0
134 152 0
137 155 0
132 148 0
145 164 0
130 149 0
135 153 0
136 155 0
134 152 0
148 167 0
146 164 0
148 165 0
136 154 0
138 159 0
131 150 0
137 155 0
141 157 0
150 169 0
144 162 0
143 162 0
148 169 0
148 166 0
146 163 0
145 164 0
142 160 0
142 158 0
147 164 0
142 160 0
144 164 0
149 167 0
149 165 0
156 174 0
145 163 0
147 166 0
153 173 0
156 176 0
145 164 0
154 171 0
148 166 0
153 172 0
153 174 0
156 174 0
145 163 0
155 172 0
151 170 0
147 165 0
147 166 0
157 178 0
151 170 0
153 172 0
151 170 0
155 173 0
157 176 0
147 165 0
156 175 0
155 173 0
155 174 0
151 168 0
154 173 0
156 177 0
153 172 0
156 176 0
156 175 0
159 179 0
155 174 0
165 187 0
157 174 0
153 171 0
152 172 0
154 172 0
157 177 0
154 172 0
161 180 0
157 175 0
154 174 0
160 180 0
159 177 0
159 179 0
155 173 0
163 182 0
168 190 0
162 179 0
158 177 0
156 174 0
155 177 0
157 175 0
158 178 0
153 173 0
162 182 0
157 178 0
161 180 0
159 178 0
162 181 0
159 178 0
156 174 0
154 172 0
160 180 0
164 184 0
165 185 0
162 183 0
156 176 0
160 180 0
160 178 0
161 182 0
167 187 0
164 183 0
167 187 0
165 185 0
161 179 0
161 181 0
160 181 0
162 184 0
161 180 0
165 185 0
166 184 0
165 185 0
165 185 0
165 183 0
168 189 0
168 189 0
166 186 0
165 185 0
166 185 0
167 188 0
166 186 0
166 186 0
169 190 0
164 182 0
168 187 0
165 185 0
161 181 0
169 193 67
167 192 80
168 192 88
168 193 76
169 193 76
172 198 99
172 195 62
173 198 95
167 191 67
171 195 76
170 194 80
173 196 99
175 198 88
165 188 76
173 197 95
171 194 95
175 197 99
169 193 84
170 193 88
163 187 84
167 191 105
168 192 95
171 195 84
168 192 80
168 191 67
167 190 102
170 193 88
172 195 105
165 188 88
169 192 92
171 194 95
169 193 92
168 192 99
170 193 92
170 193 92
175 198 108
173 196 95
170 194 92
167 190 92
166 189 80
170 193 99
166 190 76
168 192 95
173 196 99
169 192 114
169 192 102
164 187 99
166 189 108
170 193 114
172 195 102
168 191 105
166 190 105
166 190 84
166 188 102
166 189 102
165 188 103
168 191 105
159 182 92
162 186 76
168 192 94
164 188 107
163 185 100
157 180 88
166 189 100
164 187 102
159 182 103
163 185 80
163 185 92
158 180 88
164 187 94
159 182 88
156 178 92
169 191 111
156 178 92
157 179 108
162 184 108
161 183 122
152 174 95
148 170 84
153 175 95
155 176 105
145 166 92
159 180 92
157 179 105
148 169 95
156 176 92
152 173 88
147 168 80
151 172 105
158 179 108
149 168 92
152 172 102
145 166 76
146 166 84
139 159 92
152 171 111
142 162 67
137 157 92
131 150 72
143 163 51
130 148 84
133 152 80
132 151 80
139 159 72
132 151 94
115 135 103
89 111 100
98 122 125
92 117 90
103 126 110
100 124 125
99 122 124
99 123 120
90 116 111
90 115 122
89 113 117
104 127 129
94 119 122
101 125 103
99 123 126
95 120 118
88 114 128
99 123 122
99 123 112
97 122 113
93 119 124
98 122 111
109 132 125
108 127 105
114 129 116
122 137 84
134 149 76
133 150 72
119 135 90
89 108 111
92 113 92
85 110 107
77 104 124
72 102 126
73 102 112
71 100 105
82 110 99
73 100 94
79 105 111
80 107 102
71 98 100
74 100 103
58 89 90
62 91 80
82 108 93
80 105 84
91 117 84
79 104 80
55 87 92
56 89 110
54 86 86
55 87 107
53 85 92
55 87 96
55 87 105
55 87 93
54 86 98
56 89 90
56 88 103
56 88 107
56 89 110
53 85 82
55 88 95
55 87 95
55 86 102
56 89 110
55 88 88
54 86 95
54 86 94
56 89 105
55 88 103
54 86 90
55 87 103
55 88 97
55 88 94
55 87 88
57 90 105
56 89 106
54 86 94
56 89 110
56 89 105
57 90 114
56 89 99
57 90 108
56 89 105
56 88 102
56 88 108
57 90 111
55 88 92
57 90 102
56 89 102
57 90 95
56 88 100
56 89 100
54 87 99
55 87 94
56 89 103
56 88 105
55 87 102
53 84 94
52 84 90
53 84 86
53 84 95
54 83 88
65 92 76
71 92 60
74 97 70
85 107 54
82 99 31
87 103 44
102 117 18
99 113 0
98 114 0
93 107 0
104 117 0
103 119 0
112 128 0
103 117 0
102 117 0
114 131 0
105 121 0
106 121 0
100 118 0
116 132 0
118 136 0
117 133 0
122 139 0
126 142 0
107 122 0
117 133 0
119 135 0
114 131 0
112 128 0
115 133 0
115 131 0
126 145 0
126 144 0
116 135 0
125 140 0
118 133 0
130 148 0
124 142 0
116 133 0
133 150 0
122 138 0
134 152 0
126 144 0
124 142 0
128 147 0
128 146 0
126 141 0
127 145 0
137 155 0
129 148 0
139 159 0
131 149 0
138 156 0
127 147 0
134 152 0
130 149 0
133 151 0
136 155 0
148 166 0
127 142 0
131 148 0
134 151 0
142 160 0
135 152 0
131 148 0
138 158 0
145 163 0
141 160 0
136 154 0
149 167 0
146 165 0
143 160 0
150 168 0
134 152 0
146 165 0
140 158 0
142 158 0
146 165 0
152 172 0
145 163 0
155 175 0
148 167 0
142 161 0
147 165 0
147 166 0
151 171 0
146 164 0
157 176 0
151 169 0
149 169 0
146 163 0
143 160 0
145 163 0
143 161 0
140 159 0
150 170 0
151 170 0
148 166 0
150 166 0
151 170 0
142 160 0
147 167 0
149 167 0
154 173 0
149 167 0
153 172 0
156 176 0
150 168 0
152 171 0
155 174 0
157 176 0
152 171 0
145 164 0
148 167 0
157 176 0
154 172 0
153 172 0
159 178 0
150 168 0
147 164 0
148 165 0
151 171 0
159 177 0
155 173 0
156 174 0
156 174 0
155 173 0
162 181 0
155 173 0
155 173 0
155 175 0
156 174 0
159 179 0
155 174 0
157 175 0
150 169 0
154 173 0
157 177 0
156 174 0
150 170 0
158 176 0
158 179 0
148 165 0
159 178 0
164 183 0
157 177 0
162 183 0
160 177 0
159 179 0
157 177 0
163 182 0
158 176 0
153 171 0
159 177 0
164 184 0
161 179 0
158 177 0
159 179 0
160 179 0
164 186 0
166 185 0
156 176 0
159 180 0
158 177 0
161 181 0
156 177 0
163 184 0
163 182 0
161 180 0
163 185 0
163 184 0
165 184 0
158 176 0
165 185 0
158 177 0
166 186 0
166 184 0
165 186 0
165 186 0
164 185 0
165 185 0
165 188 0
167 188 0
168 189 0
163 184 0
168 188 0
163 183 0
167 187 0
166 187 0
167 188 0
164 187 0
173 196 62
171 195 88
174 198 102
167 192 76
173 196 80
168 193 62
173 197 95
175 197 72
174 198 102
172 196 92
167 191 72
173 196 95
167 192 76
171 194 76
168 191 95
167 191 105
174 196 95
167 191 95
172 196 80
173 197 105
170 194 99
172 195 95
167 190 76
170 194 95
173 197 99
168 192 84
175 199 99
170 194 105
171 194 105
170 194 117
166 190 95
163 188 80
170 193 95
169 192 95
165 189 67
169 192 111
174 197 92
164 187 80
168 191 88
171 195 105
164 187 92
161 184 92
166 188 88
167 190 92
168 191 92
167 191 92
167 190 88
171 193 111
170 192 102
166 190 102
166 189 92
170 193 84
168 191 107
166 189 114
170 193 99
166 190 99
165 188 99
161 183 88
155 179 76
168 191 133
164 187 108
152 174 82
158 181 103
163 185 108
158 181 100
166 188 108
168 190 120
161 184 102
149 171 111
157 179 99
156 177 108
157 179 108
160 182 105
165 187 105
152 175 95
159 181 111
146 168 88
157 179 95
151 173 88
154 176 99
152 174 95
157 178 99
158 180 99
157 178 88
147 168 108
152 172 95
146 167 80
146 167 95
143 164 80
140 159 80
147 169 62
147 167 95
148 168 102
148 168 95
140 159 76
146 165 84
140 160 76
135 154 88
136 155 76
143 163 76
132 151 72
129 148 62
134 153 62
126 145 67
136 154 72
117 135 76
117 137 95
90 114 102
101 124 120
85 111 103
95 120 113
90 116 122
100 123 125
96 119 118
93 117 105
85 111 110
101 124 120
85 111 108
110 133 139
111 133 126
107 130 129
100 124 122
102 126 105
81 108 99
92 117 113
101 126 107
92 118 97
94 119 104
106 127 109
106 122 107
126 140 98
142 157 86
135 149 74
127 142 74
113 130 86
97 115 95
101 121 102
87 113 113
76 105 121
76 106 117
82 108 105
69 97 108
86 112 102
75 102 103
70 98 105
73 101 105
63 92 90
70 99 96
63 92 108
65 94 92
89 113 82
79 103 62
75 101 92
54 86 86
55 87 103
53 85 82
54 86 92
53 85 86
55 87 103
53 83 78
54 85 92
56 88 94
55 88 88
55 87 102
53 85 86
56 88 99
55 87 103
54 85 76
56 88 100
56 88 102
55 87 97
56 89 102
58 91 118
55 87 105
57 89 110
56 88 95
58 91 115
54 86 100
55 88 88
55 88 92
54 86 84
54 86 97
54 86 90
57 90 100
56 89 102
58 91 107
55 87 94
55 88 101
56 88 105
56 88 102
56 88 102
57 90 100
56 88 86
53 84 80
54 86 99
55 87 94
56 88 105
57 90 100
53 85 84
53 85 92
57 90 107
53 85 88
51 82 82
55 87 100
54 87 103
58 85 76
55 84 90
74 99 76
66 89 78
72 93 31
81 99 36
90 108 54
98 114 31
90 107 18
92 105 0
84 99 0
100 117 0
104 119 0
108 124 0
108 123 0
111 126 0
102 117 0
97 113 0
105 120 0
122 139 0
91 108 0
106 123 0
109 125 0
106 120 0
117 134 0
118 135 0
107 124 0
107 124 0
118 134 0
107 124 0
130 146 0
106 123 0
122 139 0
124 141 0
120 136 0
122 139 0
130 147 0
115 129 0
131 149 0
121 139 0
122 139 0
135 153 0
125 143 0
117 133 0
135 152 0
126 143 0
124 139 0
132 149 0
137 156 0
139 158 0
136 152 0
130 146 0
123 139 0
135 153 0
139 157 0
139 157 0
134 151 0
126 143 0
138 155 0
138 157 0
145 163 0
137 156 0
135 152 0
140 159 0
140 160 0
138 157 0
138 155 0
139 158 0
139 155 0
150 169 0
128 146 0
131 150 0
147 166 0
139 157 0
141 161 0
133 151 0
145 164 0
146 163 0
140 157 0
152 170 0
146 163 0
149 168 0
148 168 0
143 162 0
150 168 0
133 150 0
149 169 0
150 171 0
153 174 0
146 163 0
145 166 0
149 168 0
151 169 0
154 172 0
148 168 0
146 162 0
147 166 0
151 170 0
148 167 0
152 171 0
148 169 0
153 172 0
150 169 0
153 172 0
151 169 0
148 165 0
150 170 0
152 171 0
147 166 0
151 171 0
149 168 0
156 177 0
149 167 0
150 168 0
157 178 0
147 165 0
156 177 0
155 173 0
149 167 0
152 171 0
157 178 0
155 174 0
153 171 0
153 174 0
153 172 0
153 172 0
157 173 0
157 176 0
154 170 0
156 177 0
151 170 0
161 180 0
159 179 0
158 179 0
158 178 0
156 174 0
147 166 0
154 172 0
157 177 0
153 171 0
163 183 0
153 171 0
159 178 0
157 177 0
163 183 0
155 174 0
158 179 0
157 175 0
155 175 0
156 174 0
163 181 0
159 178 0
162 183 0
165 184 0
159 178 0
165 185 0
163 181 0
155 173 0
156 174 0
157 177 0
155 175 0
160 180 0
160 180 0
162 180 0
166 186 0
161 181 0
160 178 0
158 178 0
160 179 0
162 182 0
164 185 0
165 186 0
159 179 0
162 181 0
162 181 0
156 177 0
167 187 0
162 183 0
166 187 0
167 186 0
164 186 0
162 182 0
163 184 0
165 185 0
161 181 0
167 188 0
165 186 0
166 185 0
161 182 0
162 183 0
162 182 0
163 183 0
167 189 0
167 187 0
165 185 0
171 196 84
170 195 80
170 193 80
173 196 76
168 191 88
164 188 72
171 195 95
169 192 67
171 195 80
168 192 76
172 196 102
175 198 99
173 197 92
176 200 108
173 196 88
166 189 99
175 199 102
171 195 88
175 198 114
172 195 108
170 193 105
171 195 105
172 195 99
172 195 102
168 192 88
171 195 95
170 194 88
168 191 105
170 193 76
171 194 92
172 195 95
166 190 95
173 196 105
171 195 111
174 198 99
168 190 120
164 188 108
174 197 88
164 188 99
167 190 95
164 187 84
167 190 72
167 191 95
164 188 102
169 191 99
170 193 102
165 188 80
167 192 117
167 190 95
164 188 92
163 186 92
165 188 84
167 191 105
166 190 95
160 184 90
169 191 103
167 190 82
170 193 105
164 188 108
159 183 103
162 185 100
165 188 122
156 180 76
164 188 88
154 176 99
164 187 117
163 186 111
160 183 111
166 188 88
158 179 103
161 183 82
165 187 114
159 182 92
156 178 92
162 183 105
154 175 88
154 176 102
159 181 111
164 185 84
154 176 105
159 181 111
147 168 92
149 170 92
157 177 114
158 178 117
136 158 67
156 176 95
157 177 111
152 173 92
161 182 84
146 166 88
144 165 92
150 170 120
147 167 80
144 164 76
135 154 84
136 156 80
144 163 84
147 166 80
135 154 76
135 154 62
139 158 67
132 151 72
134 152 88
128 146 67
123 141 72
111 129 60
128 147 97
102 124 118
87 111 97
77 103 97
93 116 118
87 112 110
91 117 115
96 121 121
91 116 107
85 110 115
98 121 113
101 125 126
104 128 128
85 110 110
98 123 118
101 125 108
94 120 112
107 131 115
107 131 114
101 124 102
94 118 111
100 123 108
110 130 106
132 147 103
144 158 81
139 156 78
127 141 74
116 132 92
99 120 82
95 117 94
93 116 97
85 111 113
72 101 108
72 102 105
77 104 105
69 98 103
74 103 111
73 101 104
78 103 86
68 96 97
69 97 91
69 98 97
67 93 76
88 113 82
74 100 76
78 103 74
60 90 88
55 87 104
55 87 92
54 86 92
54 86 92
56 89 105
56 88 105
54 85 90
56 89 100
56 88 100
54 86 78
54 86 88
55 88 97
54 85 90
55 87 86
53 85 95
54 86 95
56 88 103
56 89 92
54 86 103
53 84 95
53 85 94
52 83 92
56 89 97
56 89 103
56 89 97
55 88 105
55 88 108
54 86 90
54 85 92
51 81 86
52 84 97
57 89 121
54 86 90
53 85 99
56 89 102
53 85 82
53 85 88
54 86 95
54 87 90
53 84 95
56 89 107
55 87 95
53 85 94
55 87 95
54 85 99
55 87 99
54 85 88
53 84 86
52 83 78
59 88 84
59 85 70
70 94 74
68 89 70
67 88 57
89 107 47
80 97 36
90 106 25
86 99 0
102 116 0
105 119 0
104 120 0
96 109 0
98 113 0
111 124 0
102 119 0
105 119 0
101 117 0
108 126 0
123 140 0
106 123 0
109 126 0
107 123 0
110 126 0
111 129 0
101 118 0
108 124 0
95 111 0
101 117 0
120 136 0
116 133 0
118 135 0
120 138 0
126 142 0
112 129 0
103 120 0
126 144 0
111 130 0
121 138 0
122 139 0
108 125 0
129 147 0
129 147 0
134 153 0
123 140 0
119 137 0
127 147 0
134 153 0
123 142 0
133 151 0
122 141 0
128 148 0
133 153 0
137 154 0
132 150 0
134 152 0
134 153 0
131 148 0
130 146 0
129 146 0
134 153 0
136 153 0
142 162 0
140 158 0
136 154 0
136 154 0
132 150 0
139 157 0
139 158 0
148 167 0
131 148 0
138 156 0
144 164 0
146 165 0
143 161 0
147 166 0
151 171 0
139 159 0
139 157 0
144 161 0
154 173 0
150 168 0
140 159 0
145 163 0
146 166 0
144 164 0
141 159 0
142 158 0
145 164 0
150 168 0
148 166 0
149 167 0
146 166 0
147 166 0
152 171 0
151 171 0
151 170 0
155 173 0
150 170 0
148 166 0
136 153 0
152 171 0
152 172 0
152 170 0
149 169 0
153 172 0
160 179 0
155 176 0
152 172 0
154 173 0
155 175 0
150 169 0
149 168 0
153 173 0
149 167 0
150 170 0
152 170 0
158 178 0
161 180 0
145 164 0
158 177 0
152 170 0
153 173 0
155 176 0
157 176 0
154 173 0
150 168 0
148 165 0
152 171 0
154 173 0
158 178 0
155 174 0
157 178 0
160 179 0
159 179 0
150 168 0
155 176 0
163 183 0
161 180 0
146 164 0
155 175 0
160 180 0
153 170 0
159 179 0
151 170 0
156 174 0
154 174 0
159 179 0
159 177 0
162 179 0
153 171 0
158 175 0
159 175 0
158 179 0
158 177 0
160 180 0
162 182 0
163 183 0
160 178 0
159 178 0
162 182 0
164 185 0
160 179 0
158 179 0
158 179 0
169 189 0
162 181 0
163 181 0
161 181 0
164 181 0
161 181 0
163 184 0
165 186 0
157 178 0
163 184 0
161 180 0
164 186 0
161 181 0
166 187 0
164 186 0
162 182 0
158 178 0
164 186 0
166 187 0
160 179 0
163 183 0
169 190 0
162 183 0
166 185 0
163 181 0
165 186 0
163 184 0
165 186 0
162 180 0
168 188 0
166 186 0
163 183 0
168 191 57
173 197 99
173 197 84
170 194 67
168 192 76
172 195 80
170 194 84
170 194 72
165 189 72
170 194 80
171 194 72
169 193 76
174 197 84
170 193 92
172 196 92
173 196 92
173 197 88
165 188 92
170 194 92
176 200 105
170 193 92
171 194 105
170 195 88
172 196 95
168 191 95
171 194 111
173 195 95
177 200 105
170 193 76
172 195 99
165 188 84
170 194 105
168 192 95
165 188 80
170 193 92
164 188 92
165 188 76
166 190 88
170 193 92
175 198 117
167 190 102
163 186 92
169 193 102
165 188 92
166 189 99
162 186 84
159 182 88
167 190 111
167 190 95
166 189 95
161 184 92
169 192 84
163 187 92
165 189 113
164 187 84
156 180 102
166 189 105
155 178 80
166 190 114
162 185 105
160 184 76
162 185 99
159 182 103
163 186 108
160 182 84
161 184 108
162 183 107
153 175 62
159 181 88
157 179 95
160 182 95
160 183 84
162 185 72
154 177 80
161 183 108
159 182 99
158 179 108
152 174 76
163 184 111
155 177 72
160 181 111
145 166 62
158 180 111
154 175 105
149 169 95
157 178 102
135 155 76
159 180 117
149 170 102
150 171 92
155 175 111
157 176 114
145 166 80
151 170 99
152 172 102
138 158 95
146 164 95
142 162 67
144 164 84
140 159 88
133 152 67
135 155 92
131 149 84
130 148 80
132 150 80
120 137 62
124 141 72
123 140 84
99 118 80
91 113 90
77 103 100
73 98 88
84 109 102
91 116 108
103 125 134
82 107 113
93 118 102
102 125 118
94 118 111
96 120 128
97 121 132
102 125 121
89 116 110
91 117 84
100 125 102
101 127 125
98 122 120
105 127 117
99 122 97
105 126 125
129 147 102
145 158 76
147 162 51
136 151 65
120 134 72
106 123 72
113 132 86
102 124 102
85 111 95
94 119 92
69 100 121
75 104 113
77 103 95
73 100 99
82 106 84
70 98 102
77 103 90
75 101 86
76 103 88
58 87 86
79 104 78
87 111 77
76 101 67
69 97 74
52 83 80
52 83 84
53 84 82
53 84 76
54 86 86
54 86 88
55 87 97
54 85 90
54 86 90
54 86 94
56 89 107
55 87 86
56 89 102
57 89 92
56 88 110
57 90 108
53 85 88
54 85 95
56 89 104
54 86 90
54 86 97
56 88 97
54 86 90
54 85 97
54 86 82
53 84 88
56 88 94
53 85 86
53 85 94
53 84 94
52 83 92
55 86 88
56 88 100
53 85 78
55 88 80
52 83 84
53 84 80
53 85 86
54 85 90
53 84 99
53 85 92
52 83 84
55 88 103
52 83 90
52 83 86
53 83 95
54 84 82
58 83 74
64 89 70
75 96 60
66 87 54
81 101 60
88 107 40
84 101 40
98 113 31
93 110 0
88 102 0
86 101 0
101 117 0
99 116 0
103 118 0
104 119 0
93 108 0
107 123 0
98 113 0
113 128 0
109 125 0
116 134 0
118 134 0
91 107 0
113 131 0
108 125 0
113 130 0
126 143 0
109 126 0
112 129 0
113 131 0
119 135 0
127 144 0
112 126 0
123 140 0
120 138 0
114 131 0
133 152 0
116 131 0
127 145 0
119 137 0
124 142 0
120 140 0
120 135 0
125 144 0
134 152 0
119 137 0
122 140 0
131 150 0
128 146 0
130 149 0
126 145 0
127 143 0
130 147 0
120 137 0
135 153 0
126 144 0
138 157 0
125 144 0
129 149 0
136 155 0
135 155 0
138 156 0
132 150 0
132 149 0
137 154 0
138 154 0
143 162 0
140 158 0
136 153 0
144 163 0
142 160 0
143 164 0
138 153 0
140 159 0
132 149 0
153 173 0
147 167 0
138 156 0
147 165 0
133 151 0
146 164 0
147 166 0
138 157 0
145 163 0
151 171 0
139 158 0
150 170 0
149 169 0
146 167 0
142 162 0
151 170 0
148 168 0
141 160 0
143 161 0
154 174 0
147 164 0
152 170 0
137 157 0
144 163 0
147 166 0
151 171 0
147 166 0
145 164 0
150 169 0
144 162 0
150 169 0
150 169 0
147 163 0
152 170 0
154 175 0
154 172 0
153 172 0
151 169 0
154 172 0
154 171 0
157 177 0
153 171 0
156 177 0
155 173 0
155 173 0
158 177 0
155 172 0
151 170 0
153 171 0
153 171 0
162 182 0
153 172 0
152 171 0
157 179 0
157 175 0
154 173 0
158 177 0
160 179 0
160 180 0
157 176 0
151 169 0
159 176 0
159 179 0
161 182 0
156 176 0
157 175 0
162 183 0
160 179 0
155 174 0
158 178 0
159 178 0
155 173 0
161 180 0
156 176 0
162 182 0
158 175 0
160 182 0
152 172 0
162 184 0
164 184 0
155 173 0
164 184 0
164 183 0
164 185 0
155 174 0
154 176 0
160 180 0
159 177 0
160 180 0
159 179 0
167 189 0
162 181 0
163 183 0
165 186 0
162 183 0
161 179 0
162 183 0
165 184 0
162 183 0
164 185 0
163 183 0
160 181 0
164 184 0
161 181 0
166 188 0
164 184 0
166 186 0
164 186 0
164 185 0
164 184 0
163 183 0
162 183 0
169 189 0
166 187 0
162 183 0
162 183 0
159 179 0
163 183 0
166 186 0
165 184 0
159 180 0
164 183 0
161 182 0
159 179 0
171 194 67
173 196 57
168 192 80
172 195 84
171 195 76
175 198 84
168 191 72
175 198 92
172 196 92
174 196 88
171 195 99
171 195 99
173 197 114
168 192 80
173 196 88
169 192 67
167 191 80
169 192 84
171 195 108
171 195 84
174 198 105
171 193 92
172 195 80
170 194 102
170 193 108
169 192 84
171 194 88
172 195 105
170 194 99
165 187 99
173 196 108
172 194 95
171 194 108
171 194 95
163 186 76
164 187 92
163 187 80
167 190 92
162 185 84
171 194 105
166 190 95
168 192 105
168 190 114
164 186 99
166 189 88
169 193 84
167 190 95
167 190 76
171 195 102
169 193 102
167 191 105
165 188 99
157 181 99
161 184 102
165 188 103
166 189 100
163 186 78
154 177 111
155 178 102
161 185 88
167 190 95
158 182 80
164 187 103
161 184 95
161 184 102
158 181 72
159 182 111
155 178 115
162 185 108
161 182 92
161 183 88
164 187 95
154 176 105
156 179 88
163 184 102
153 176 62
160 182 92
155 177 105
157 179 80
154 175 102
155 176 105
156 178 95
146 167 95
153 174 84
156 178 114
154 176 95
152 173 88
149 170 99
156 177 105
151 171 99
150 171 88
145 165 99
142 161 88
146 166 95
147 167 92
152 172 76
138 157 102
142 161 72
145 164 72
136 155 76
128 147 76
125 144 76
124 142 72
142 160 80
134 152 80
123 141 72
126 144 80
127 144 76
117 134 62
113 131 113
117 137 121
86 110 94
84 108 97
81 106 99
101 123 124
87 113 111
102 125 117
105 129 113
107 129 128
102 125 126
96 120 110
94 119 103
85 110 100
93 119 113
105 128 115
105 128 110
111 134 96
98 122 113
92 117 105
100 123 107
133 149 94
151 167 70
150 165 36
135 149 54
130 143 62
121 135 70
123 142 76
112 132 76
87 113 103
79 106 97
82 109 107
64 95 113
66 96 99
70 97 94
75 102 97
76 101 90
71 97 92
68 95 84
66 94 92
85 110 84
85 109 72
99 121 70
72 98 84
61 90 74
53 84 82
51 82 62
50 81 72
52 82 80
54 86 78
54 86 90
54 86 99
48 78 70
52 83 74
54 85 105
53 84 88
53 84 94
53 84 82
53 84 92
52 82 86
57 89 113
56 88 88
55 88 102
53 84 90
53 85 95
55 87 107
54 86 95
54 86 86
54 86 90
56 89 107
53 85 92
52 82 74
52 84 82
50 80 82
52 83 72
56 88 110
54 86 90
53 85 88
53 85 82
55 87 99
50 81 78
53 84 92
50 81 72
54 85 95
55 87 100
53 84 84
58 86 88
53 81 74
62 89 82
50 78 74
60 84 70
70 93 74
73 94 72
77 95 31
93 110 31
79 97 44
89 105 31
94 109 0
94 109 18
85 100 0
85 98 0
104 119 0
99 115 0
92 105 0
113 128 0
108 125 0
95 111 0
103 118 0
100 115 0
118 134 0
118 133 0
111 128 0
117 133 0
112 129 0
115 132 0
113 129 0
103 119 0
118 137 0
128 144 0
121 139 0
126 142 0
115 132 0
115 130 0
117 134 0
106 124 0
121 139 0
126 144 0
126 143 0
118 135 0
136 152 0
121 138 0
126 143 0
120 138 0
127 145 0
126 145 0
126 143 0
132 149 0
120 138 0
133 150 0
128 146 0
113 131 0
136 156 0
130 148 0
136 154 0
129 147 0
138 155 0
140 160 0
137 155 0
136 155 0
137 155 0
120 139 0
139 159 0
138 156 0
140 157 0
127 145 0
139 158 0
145 164 0
130 148 0
136 155 0
134 154 0
140 159 0
135 154 0
145 164 0
136 156 0
143 162 0
140 160 0
132 150 0
141 158 0
144 163 0
145 165 0
146 164 0
137 157 0
141 158 0
140 159 0
146 165 0
154 174 0
150 169 0
151 170 0
140 159 0
144 162 0
144 162 0
147 164 0
143 163 0
148 168 0
150 169 0
149 169 0
152 170 0
145 165 0
148 166 0
146 164 0
150 170 0
148 166 0
154 172 0
149 168 0
150 169 0
146 164 0
145 165 0
149 169 0
157 176 0
156 176 0
155 174 0
163 184 0
156 176 0
155 174 0
146 167 0
157 178 0
150 168 0
159 179 0
152 173 0
152 171 0
150 168 0
150 170 0
154 173 0
158 176 0
145 165 0
153 173 0
152 171 0
155 174 0
156 176 0
159 178 0
152 171 0
155 175 0
159 177 0
156 173 0
157 177 0
158 178 0
153 174 0
157 177 0
151 168 0
164 184 0
158 178 0
158 178 0
157 175 0
162 182 0
159 178 0
158 178 0
158 179 0
157 175 0
160 179 0
160 180 0
153 173 0
153 173 0
156 174 0
159 180 0
160 178 0
164 185 0
157 177 0
160 181 0
159 178 0
158 178 0
160 179 0
161 183 0
161 181 0
158 180 0
156 177 0
157 177 0
157 176 0
156 175 0
162 180 0
166 189 0
166 186 0
165 185 0
164 184 0
163 183 0
166 187 0
163 184 0
165 185 0
164 183 0
164 185 0
163 183 0
161 181 0
159 178 0
163 183 0
166 186 0
165 187 0
157 177 0
167 188 0
163 183 0
168 190 0
161 180 0
166 186 0
166 186 0
168 189 0
160 177 0
166 186 0
168 190 0
165 187 0
168 191 0
169 189 0
166 187 0
166 186 0
173 196 67
175 198 84
173 197 84
173 197 72
170 193 80
171 195 88
174 197 84
169 194 72
169 192 67
174 197 105
172 196 84
174 197 111
173 196 92
172 195 105
175 198 84
172 195 88
172 196 120
168 192 95
175 197 99
168 192 84
171 195 111
173 197 95
176 199 120
173 196 108
170 193 95
168 192 99
165 188 84
174 197 92
169 193 99
171 195 99
166 189 102
169 192 88
168 193 95
170 194 108
165 188 88
172 195 111
169 192 80
169 192 76
164 187 95
172 195 84
161 185 105
165 189 88
172 195 120
164 187 108
164 187 95
172 196 114
165 189 102
164 188 102
161 185 72
166 188 80
167 190 76
171 193 105
167 190 102
157 182 76
164 186 88
159 182 88
165 189 97
165 187 105
158 181 74
162 185 88
170 192 114
157 181 88
158 181 95
168 190 105
165 187 102
156 179 99
165 188 92
166 189 113
161 184 84
153 175 76
161 183 102
156 178 102
160 183 88
163 184 117
161 184 122
159 180 99
152 174 95
154 175 102
159 181 84
153 175 95
164 186 105
150 173 102
155 177 80
150 171 99
156 178 80
157 179 105
157 178 95
159 180 108
160 181 125
157 177 92
150 170 111
143 163 80
155 175 92
140 160 102
147 167 84
146 166 92
141 161 80
147 166 108
141 160 105
140 160 92
140 158 99
141 159 80
125 144 72
131 150 88
122 140 72
119 137 72
126 143 88
120 138 76
128 145 72
127 144 99
104 122 60
98 118 107
108 128 119
86 109 90
86 109 92
87 112 105
90 113 105
88 112 113
98 121 107
92 117 110
102 125 99
97 121 103
91 115 110
90 115 89
95 120 107
108 132 102
91 115 111
97 122 117
92 117 95
104 127 95
133 149 86
148 163 57
153 166 25
142 155 44
130 144 65
120 135 76
124 143 67
111 131 74
98 122 86
91 115 86
73 101 102
75 103 97
75 102 86
81 107 99
77 104 103
73 100 80
70 98 99
64 92 86
79 104 67
78 102 67
80 105 65
94 117 70
90 110 54
77 101 74
54 81 74
56 83 74
52 81 75
51 81 76
50 80 74
54 85 82
52 84 80
52 83 94
53 85 88
53 85 92
54 85 99
51 82 72
53 84 88
54 85 90
53 85 90
52 82 82
54 85 83
52 83 94
53 84 94
55 87 88
49 78 60
53 85 92
56 88 108
54 86 76
54 86 95
53 85 78
55 88 94
53 84 80
55 87 80
54 86 95
53 84 78
53 85 78
53 84 88
53 85 86
53 83 90
53 84 90
54 86 88
56 85 80
52 81 76
51 79 65
58 84 76
80 103 76
72 96 54
72 93 51
74 92 57
81 101 47
73 91 44
86 102 31
99 116 0
84 102 40
90 105 18
100 113 0
85 98 0
92 107 0
88 102 0
95 110 0
95 110 0
91 106 0
113 128 0
99 114 0
100 113 0
107 122 0
104 120 0
111 126 0
105 121 0
101 118 0
104 119 0
103 120 0
105 121 0
118 134 0
104 120 0
113 130 0
114 130 0
103 120 0
117 134 0
115 132 0
114 131 0
128 146 0
120 136 0
124 142 0
111 128 0
115 133 0
110 128 0
107 123 0
119 135 0
135 152 0
128 145 0
119 137 0
132 151 0
130 148 0
124 141 0
127 144 0
132 151 0
125 144 0
127 145 0
141 157 0
132 149 0
126 145 0
134 152 0
118 135 0
135 154 0
136 155 0
141 161 0
131 150 0
138 155 0
140 159 0
129 147 0
133 152 0
142 160 0
132 150 0
131 148 0
136 155 0
140 159 0
147 165 0
139 158 0
136 157 0
136 156 0
134 152 0
142 163 0
138 155 0
142 161 0
146 165 0
147 168 0
140 156 0
146 165 0
138 156 0
143 162 0
144 162 0
139 158 0
148 168 0
140 159 0
144 165 0
151 171 0
138 158 0
156 174 0
143 161 0
143 162 0
146 165 0
144 164 0
151 169 0
139 155 0
145 166 0
142 160 0
152 170 0
145 164 0
144 163 0
141 161 0
146 165 0
151 172 0
146 166 0
160 180 0
153 171 0
152 172 0
146 165 0
157 175 0
150 166 0
147 166 0
151 170 0
154 176 0
151 166 0
152 170 0
153 172 0
159 179 0
146 165 0
155 176 0
149 169 0
159 179 0
151 170 0
151 170 0
155 174 0
159 178 0
158 177 0
157 177 0
151 170 0
160 179 0
150 169 0
154 174 0
158 178 0
160 181 0
158 178 0
162 182 0
157 176 0
158 175 0
156 175 0
157 176 0
159 177 0
162 184 0
153 173 0
153 174 0
158 178 0
160 180 0
167 188 0
160 179 0
157 176 0
153 171 0
160 179 0
162 180 0
156 174 0
162 181 0
161 181 0
159 179 0
164 184 0
160 180 0
166 186 0
156 175 0
160 181 0
164 186 0
161 178 0
163 184 0
159 180 0
156 175 0
163 184 0
164 184 0
164 184 0
162 180 0
165 185 0
157 176 0
160 180 0
161 181 0
166 186 0
164 184 0
161 182 0
164 184 0
162 182 0
163 183 0
168 187 0
160 178 0
163 184 0
164 185 0
163 184 0
167 185 0
164 184 0
159 179 0
165 185 0
166 187 0
164 184 0
165 186 0
165 187 0
166 186 0
168 189 0
165 187 0
169 189 0
162 183 0
161 181 0
170 191 0
168 187 0
175 199 99
171 193 84
172 196 99
169 192 76
176 198 95
170 194 108
171 194 80
177 200 114
174 197 95
170 193 99
174 198 117
170 193 76
168 192 105
172 195 105
165 188 67
176 199 95
172 195 95
168 191 84
170 194 92
169 192 95
170 192 99
172 196 80
174 198 125
168 193 102
173 196 102
166 190 88
169 193 92
170 194 105
171 194 105
169 193 88
178 200 99
167 191 84
170 193 88
169 192 99
175 197 120
166 189 117
170 193 92
159 182 67
167 190 92
170 192 95
170 193 84
170 193 111
169 193 95
165 189 105
173 197 105
163 187 95
167 191 80
165 189 80
163 185 108
164 188 92
166 189 111
162 184 95
168 191 100
163 186 102
165 187 95
157 180 84
165 187 103
157 179 80
163 186 80
166 188 121
161 184 94
163 186 102
167 189 84
160 183 102
160 184 92
163 186 105
160 183 108
162 184 124
159 182 108
153 176 94
167 189 97
164 188 102
150 172 84
163 185 80
154 176 108
159 180 80
162 183 105
149 171 84
158 179 95
153 175 72
147 169 84
156 178 92
147 168 92
157 179 108
148 169 88
155 176 95
151 171 105
153 174 88
149 169 99
149 169 117
142 161 92
141 161 88
162 182 128
147 168 92
150 170 102
153 173 108
138 157 72
141 160 88
146 165 108
142 161 76
133 152 72
135 153 99
148 166 88
146 165 92
126 145 72
138 156 72
129 147 67
122 138 80
136 154 95
119 136 76
125 142 80
125 142 95
97 116 82
86 109 80
96 117 108
71 98 80
83 108 97
87 110 102
104 126 126
94 118 97
109 131 120
95 119 105
86 112 96
100 124 111
85 111 110
103 126 106
97 121 108
101 125 110
104 127 105
96 119 104
124 143 99
152 168 40
150 163 31
148 162 18
143 159 44
132 150 67
119 137 67
119 138 76
109 130 82
93 118 90
87 112 95
81 106 92
75 103 94
79 105 95
86 111 103
71 98 107
74 101 86
73 100 95
79 101 67
81 105 65
87 110 74
100 122 44
100 121 60
84 102 54
88 107 44
85 106 54
65 88 47
72 94 65
61 89 80
62 88 74
55 84 70
63 92 78
60 86 84
52 82 88
53 84 72
52 84 82
52 82 80
52 83 78
53 84 92
53 84 80
53 85 84
54 87 86
54 86 84
52 83 88
52 83 78
54 86 86
53 84 88
53 84 80
50 80 80
52 83 80
53 84 95
51 82 78
51 81 70
55 87 90
55 83 80
60 88 82
60 86 70
50 80 76
58 86 86
62 87 76
63 86 51
74 96 62
62 88 76
70 91 62
74 94 18
75 93 44
75 93 62
85 102 36
71 88 0
82 98 25
91 105 0
75 90 18
93 106 0
94 110 0
101 117 0
90 106 0
95 110 0
99 116 0
96 112 0
96 109 0
120 137 0
92 109 0
97 113 0
92 107 0
116 132 0
112 127 0
106 122 0
113 129 0
108 125 0
107 123 0
117 132 0
118 134 0
104 122 0
112 129 0
116 134 0
115 132 0
117 134 0
114 129 0
113 130 0
129 147 0
118 136 0
119 136 0
110 127 0
121 139 0
121 137 0
120 136 0
120 139 0
110 128 0
120 138 0
116 134 0
129 147 0
122 142 0
119 137 0
133 153 0
125 143 0
124 143 0
122 137 0
125 144 0
132 150 0
134 152 0
138 155 0
126 144 0
132 152 0
133 150 0
130 148 0
131 151 0
136 156 0
133 152 0
137 157 0
136 155 0
144 162 0
133 153 0
138 156 0
137 154 0
145 163 0
147 167 0
136 155 0
135 154 0
144 163 0
137 156 0
146 166 0
133 150 0
136 154 0
134 153 0
141 158 0
137 156 0
137 157 0
140 156 0
141 160 0
150 170 0
131 149 0
143 161 0
148 168 0
144 163 0
146 165 0
149 168 0
157 179 0
136 155 0
144 162 0
150 169 0
148 167 0
150 169 0
140 157 0
145 165 0
149 167 0
152 171 0
141 162 0
146 166 0
148 170 0
156 176 0
149 169 0
149 167 0
153 173 0
153 174 0
152 172 0
146 164 0
147 167 0
148 168 0
145 164 0
156 175 0
158 180 0
153 173 0
157 176 0
158 178 0
147 165 0
146 164 0
155 176 0
157 178 0
152 171 0
158 177 0
151 170 0
152 171 0
149 167 0
157 176 0
157 176 0
153 172 0
160 180 0
159 181 0
156 174 0
158 179 0
149 164 0
159 179 0
155 174 0
145 165 0
160 180 0
157 176 0
156 175 0
158 178 0
161 181 0
155 175 0
153 171 0
155 173 0
159 176 0
159 183 0
151 170 0
158 178 0
160 179 0
163 184 0
158 177 0
157 177 0
151 171 0
162 185 0
166 187 0
158 178 0
159 179 0
157 178 0
156 174 0
162 183 0
163 183 0
159 179 0
162 181 0
165 186 0
156 177 0
156 177 0
164 184 0
160 179 0
156 175 0
162 182 0
163 182 0
159 180 0
164 185 0
160 180 0
161 181 0
166 187 0
157 176 0
166 186 0
161 181 0
166 186 0
164 185 0
163 184 0
166 187 0
163 183 0
164 187 0
165 186 0
160 180 0
164 183 0
168 189 0
167 187 0
166 186 0
165 186 0
163 185 0
165 186 0
168 189 0
167 188 0
165 185 0
164 183 0
163 183 0
162 184 0
166 186 0
164 186 0
174 198 114
171 195 84
173 196 108
171 194 84
176 199 105
173 196 108
176 199 105
169 192 105
169 193 102
173 195 72
174 196 111
172 196 99
173 196 114
175 198 92
170 193 102
172 196 92
169 193 84
165 188 88
170 194 102
169 192 88
166 190 88
169 193 84
176 198 108
168 191 99
172 194 88
166 189 92
172 195 111
165 189 84
169 192 76
172 195 99
165 189 92
172 195 114
171 193 99
173 196 95
167 190 114
167 190 92
169 192 92
165 188 102
169 193 117
165 188 99
164 188 88
160 184 92
167 190 117
161 185 95
169 193 99
171 193 111
169 192 108
169 192 108
167 190 99
167 190 95
164 187 95
160 183 80
167 190 99
172 195 122
167 191 92
164 187 102
161 183 96
168 190 88
173 196 120
159 182 57
165 188 99
161 184 99
163 186 102
165 187 86
161 184 100
160 182 105
159 182 76
165 188 130
158 181 110
168 190 115
153 175 72
162 185 122
160 183 99
151 173 108
153 175 102
163 185 102
155 177 99
164 186 99
156 177 95
157 179 102
155 176 88
147 169 80
156 178 102
148 169 92
153 175 92
153 173 102
143 166 88
152 172 111
146 167 102
150 170 102
147 167 105
156 176 117
149 169 95
152 173 99
148 167 114
143 163 80
133 153 80
151 171 84
139 159 88
136 155 84
139 158 88
136 155 80
138 157 95
119 137 76
132 150 67
128 146 76
123 140 88
126 143 84
120 137 76
122 139 92
125 142 57
117 133 76
113 130 95
91 109 80
104 124 95
85 109 103
88 111 97
98 121 111
93 117 121
108 130 134
92 116 108
89 113 92
89 115 110
90 114 100
105 129 107
99 122 94
112 134 103
102 125 103
107 131 105
96 119 100
110 129 74
140 154 51
151 167 25
143 157 0
147 163 0
145 161 44
127 145 44
124 144 60
108 128 67
102 124 76
106 127 80
76 100 95
83 108 100
75 102 97
73 98 84
74 102 92
76 102 94
70 97 76
70 96 67
78 101 62
97 117 47
93 113 60
94 115 62
84 105 51
89 106 31
81 98 31
80 99 57
67 86 47
66 87 40
79 97 44
71 92 51
72 95 54
61 86 62
61 85 62
66 90 60
69 91 54
69 94 72
57 84 78
58 84 76
55 84 76
57 82 67
52 82 80
62 89 70
59 87 70
60 88 88
54 82 67
63 90 74
75 100 74
58 84 67
53 80 60
79 102 76
56 82 62
61 85 60
63 87 67
66 87 60
67 89 60
75 96 72
66 87 54
79 99 62
72 91 57
84 103 54
79 97 40
79 98 60
89 107 0
95 111 18
93 109 31
93 110 18
90 104 18
97 113 18
98 112 0
74 89 0
94 109 0
83 99 0
92 107 0
94 109 0
90 104 0
95 112 0
103 118 0
97 115 0
90 106 0
94 110 0
109 127 0
108 124 0
109 123 0
100 117 0
110 124 0
108 123 0
103 119 0
100 115 0
104 121 0
119 137 0
114 130 0
112 128 0
124 139 0
119 137 0
105 124 0
121 138 0
101 119 0
120 137 0
113 131 0
129 148 0
122 138 0
118 136 0
127 145 0
124 140 0
131 149 0
123 139 0
123 142 0
127 145 0
128 147 0
137 154 0
116 134 0
128 148 0
133 150 0
133 152 0
118 137 0
136 155 0
120 138 0
137 154 0
128 148 0
125 143 0
136 156 0
137 155 0
137 155 0
129 147 0
133 152 0
131 147 0
133 152 0
133 149 0
131 149 0
122 139 0
135 154 0
140 160 0
139 159 0
138 157 0
141 160 0
144 164 0
136 155 0
135 153 0
144 163 0
137 156 0
134 154 0
145 165 0
147 167 0
138 155 0
145 166 0
148 167 0
143 161 0
141 160 0
147 166 0
143 160 0
147 169 0
139 158 0
151 171 0
135 153 0
142 162 0
143 161 0
151 170 0
148 165 0
137 155 0
150 168 0
148 169 0
150 168 0
151 169 0
146 165 0
149 170 0
141 161 0
146 165 0
144 163 0
144 163 0
144 163 0
149 169 0
154 173 0
153 173 0
147 166 0
147 166 0
156 176 0
144 162 0
146 165 0
153 171 0
154 175 0
154 175 0
154 174 0
152 171 0
152 173 0
157 178 0
141 160 0
146 164 0
147 167 0
153 173 0
151 173 0
150 170 0
152 171 0
158 177 0
160 180 0
155 175 0
158 177 0
151 170 0
150 170 0
157 177 0
150 169 0
160 181 0
156 175 0
156 176 0
156 175 0
158 177 0
159 178 0
154 175 0
165 186 0
161 179 0
155 173 0
158 177 0
155 176 0
163 181 0
161 182 0
163 183 0
161 183 0
157 178 0
157 176 0
164 184 0
159 177 0
162 183 0
160 180 0
162 179 0
164 185 0
162 182 0
163 183 0
160 180 0
164 184 0
168 189 0
164 183 0
162 183 0
156 174 0
159 180 0
163 184 0
161 180 0
161 183 0
165 185 0
160 180 0
166 186 0
163 184 0
162 183 0
164 184 0
161 182 0
161 181 0
158 177 0
165 186 0
163 183 0
158 178 0
165 186 0
168 190 0
171 192 0
162 183 0
164 185 0
159 180 0
167 186 0
164 184 0
161 179 0
163 183 0
163 183 0
165 185 0
164 185 0
171 192 0
164 186 0
162 182 0
165 186 0
167 186 0
169 189 0
173 194 0
165 186 0
174 197 95
172 196 92
169 193 76
169 193 76
174 198 84
174 198 88
170 194 67
172 195 92
168 191 76
170 194 88
176 200 128
168 192 72
174 197 95
178 200 122
172 195 76
167 190 111
169 192 108
169 193 88
170 193 88
173 197 99
170 193 102
171 194 76
171 195 108
167 190 92
168 192 92
166 189 92
167 191 80
176 199 105
166 187 95
171 193 88
169 193 108
173 196 99
169 193 99
165 188 67
172 195 102
167 191 84
170 193 95
159 183 88
170 193 102
170 194 105
168 192 102
167 190 108
162 186 95
165 188 72
163 187 95
168 191 102
163 187 102
170 193 111
169 193 120
163 186 95
163 186 92
158 182 80
167 191 117
164 187 102
164 188 102
162 185 102
155 179 88
164 187 84
164 187 114
157 180 86
155 178 76
163 186 92
160 184 88
160 183 90
162 184 80
166 189 92
163 186 111
157 180 62
150 173 86
164 186 80
162 184 80
154 177 99
161 183 95
156 178 76
159 181 99
162 184 95
168 190 108
155 177 95
162 184 120
162 183 114
156 178 76
155 177 108
157 178 114
155 176 105
148 169 76
150 172 80
155 176 95
148 169 92
151 171 88
149 169 99
153 172 111
147 167 102
145 166 84
148 168 84
151 170 105
147 166 88
142 160 95
138 158 67
143 162 92
139 158 99
139 157 95
130 149 88
133 152 88
137 156 76
138 156 102
129 148 76
123 140 76
131 149 76
133 151 84
125 143 80
116 134 67
126 142 72
115 131 57
111 126 76
95 111 67
101 119 88
109 128 113
102 123 99
110 131 121
85 110 102
89 114 111
90 114 88
102 125 103
105 128 111
94 119 95
93 119 95
89 115 92
107 130 90
100 124 94
92 115 99
113 135 67
124 139 31
149 165 31
149 163 25
137 151 31
144 157 25
130 146 40
136 153 40
118 137 60
119 140 74
95 117 76
106 128 82
102 125 90
76 101 80
82 106 72
72 101 92
83 107 88
83 105 72
75 96 60
90 111 62
96 115 54
97 118 57
98 120 68
97 117 54
88 102 0
83 97 0
88 104 0
80 97 18
97 113 31
69 87 47
81 98 25
72 90 40
85 101 25
76 96 47
70 90 40
70 89 51
71 90 47
77 99 62
77 96 44
53 73 49
73 94 44
69 89 47
71 95 82
73 94 57
80 100 44
82 102 51
73 94 54
73 94 60
75 96 62
68 89 47
71 91 36
74 93 47
76 94 47
85 101 54
79 98 44
75 93 36
84 102 36
80 96 25
76 92 31
91 109 25
96 110 18
99 114 25
90 105 36
77 92 25
88 103 0
76 91 0
95 110 0
92 106 0
102 119 0
101 116 0
79 95 0
103 119 0
100 116 0
83 97 0
103 119 0
102 118 0
92 106 0
112 127 0
96 111 0
106 122 0
103 119 0
99 114 0
99 114 0
110 126 0
113 128 0
106 123 0
117 133 0
106 123 0
109 126 0
112 129 0
115 132 0
116 132 0
117 134 0
119 137 0
117 135 0
120 137 0
123 141 0
119 139 0
128 146 0
120 137 0
111 129 0
128 145 0
108 125 0
128 146 0
119 137 0
130 146 0
133 152 0
123 142 0
124 141 0
127 144 0
126 144 0
138 156 0
124 142 0
118 136 0
130 147 0
119 137 0
131 149 0
125 144 0
135 154 0
132 149 0
125 143 0
126 142 0
131 150 0
137 157 0
132 150 0
125 141 0
124 140 0
136 154 0
140 160 0
127 144 0
145 165 0
131 150 0
135 152 0
142 161 0
135 153 0
145 165 0
140 159 0
148 169 0
148 168 0
135 154 0
142 161 0
134 152 0
141 159 0
145 165 0
137 155 0
145 163 0
145 163 0
145 164 0
141 161 0
148 168 0
146 166 0
140 158 0
144 165 0
140 159 0
138 159 0
151 171 0
147 167 0
147 167 0
144 163 0
146 164 0
146 166 0
143 161 0
156 175 0
154 174 0
151 171 0
151 172 0
141 160 0
143 161 0
150 171 0
145 164 0
154 174 0
153 171 0
156 177 0
148 169 0
148 167 0
151 173 0
154 175 0
149 169 0
157 177 0
149 169 0
154 174 0
146 165 0
154 175 0
155 176 0
153 172 0
155 173 0
156 175 0
152 172 0
159 178 0
147 167 0
152 171 0
153 173 0
154 173 0
153 172 0
155 173 0
157 176 0
161 182 0
151 171 0
156 176 0
160 180 0
159 179 0
152 172 0
159 179 0
152 172 0
164 184 0
155 172 0
159 178 0
160 182 0
160 179 0
157 176 0
162 180 0
164 186 0
157 177 0
156 176 0
153 173 0
161 181 0
161 181 0
160 180 0
154 172 0
159 179 0
158 177 0
163 184 0
158 178 0
155 174 0
162 184 0
161 182 0
158 179 0
164 184 0
160 181 0
164 185 0
157 177 0
159 179 0
158 178 0
164 185 0
160 179 0
165 184 0
161 181 0
166 187 0
165 187 0
158 178 0
162 182 0
168 189 0
165 185 0
164 185 0
167 188 0
163 185 0
165 187 0
166 186 0
164 185 0
166 186 0
165 185 0
163 183 0
167 188 0
167 189 0
162 184 0
166 186 0
162 183 0
163 185 0
167 189 0
167 188 0
167 188 0
165 185 0
165 186 0
166 186 0
169 190 0
165 186 0
162 181 0
166 188 0
165 186 0
169 188 0
168 191 72
171 194 88
175 198 88
175 197 102
175 198 84
171 196 105
170 193 95
175 199 92
172 195 92
164 187 67
175 199 105
173 196 102
171 194 105
173 196 108
169 193 117
170 192 99
171 195 108
171 195 114
173 196 80
172 195 84
169 193 102
169 192 88
170 194 88
173 196 99
169 193 105
164 187 105
174 196 111
170 193 88
170 193 111
167 190 92
167 189 95
171 195 92
168 192 114
162 184 72
169 193 99
169 192 80
164 187 95
167 189 80
167 191 80
166 189 67
165 188 102
169 192 102
165 189 111
173 195 108
165 189 99
161 186 80
166 190 105
162 185 108
168 191 102
173 196 95
164 188 105
169 192 92
164 187 88
163 185 102
173 196 111
156 178 84
166 189 102
159 181 80
158 181 88
163 186 108
164 188 107
161 184 105
158 181 95
158 182 97
162 185 67
161 184 95
165 187 95
166 188 102
162 185 92
166 187 128
165 188 99
153 175 80
156 178 95
159 181 92
150 172 102
156 178 105
157 179 92
163 185 102
154 177 102
162 184 105
159 181 105
159 181 111
160 181 125
163 183 102
160 181 122
156 178 80
154 175 84
150 170 108
155 176 114
150 171 92
156 176 92
150 171 99
148 167 105
150 170 84
150 170 102
154 173 95
149 169 92
145 164 99
147 166 95
146 166 95
145 164 84
134 152 99
137 157 76
132 151 88
128 145 88
130 147 62
131 148 80
132 149 80
132 149 84
124 143 72
125 141 76
115 133 88
124 141 67
120 135 72
108 123 62
113 130 86
105 124 76
112 130 111
102 124 99
98 119 97
119 140 121
98 121 94
85 109 92
99 122 103
89 113 110
100 124 110
95 118 102
92 117 90
97 121 95
103 125 103
111 132 88
133 149 60
153 168 31
147 162 18
151 166 0
148 164 0
135 151 25
125 142 40
119 137 31
129 150 40
104 124 76
101 123 80
89 113 70
81 104 74
79 104 78
74 99 76
74 98 74
80 102 70
84 105 51
79 98 51
105 122 25
91 109 36
101 121 65
98 116 51
99 114 25
85 101 0
103 118 0
96 111 0
91 107 0
89 104 0
92 108 0
93 108 18
83 96 18
95 111 0
91 105 0
88 104 25
89 104 36
96 112 31
80 98 36
84 102 31
72 89 51
90 106 18
91 107 36
86 103 44
90 106 25
72 89 31
91 107 31
77 94 31
70 85 40
75 92 40
79 95 25
78 93 31
80 95 31
77 92 31
92 107 18
73 90 31
78 93 18
88 102 0
90 107 0
78 93 0
101 116 0
86 102 0
85 100 0
96 111 0
92 106 0
103 119 0
98 112 0
80 96 0
87 102 0
84 99 0
104 120 0
94 108 0
100 115 0
97 115 0
97 113 0
114 131 0
108 124 0
104 119 0
91 105 0
98 115 0
93 110 0
115 130 0
107 124 0
113 130 0
115 131 0
114 130 0
108 125 0
121 138 0
107 124 0
107 122 0
116 133 0
120 138 0
111 127 0
112 129 0
128 145 0
116 133 0
124 142 0
113 131 0
118 137 0
124 142 0
120 138 0
116 132 0
128 147 0
115 133 0
115 132 0
131 149 0
124 141 0
120 138 0
112 129 0
122 142 0
134 153 0
122 140 0
125 144 0
123 143 0
135 154 0
128 147 0
117 135 0
125 142 0
132 152 0
135 153 0
143 163 0
133 152 0
132 151 0
132 150 0
137 157 0
138 159 0
131 149 0
135 154 0
140 159 0
137 157 0
129 149 0
142 163 0
139 159 0
133 151 0
139 158 0
131 150 0
139 158 0
146 167 0
135 155 0
140 159 0
142 163 0
137 155 0
145 165 0
144 162 0
146 165 0
149 169 0
143 164 0
136 155 0
148 168 0
149 171 0
142 163 0
144 165 0
140 160 0
152 172 0
151 172 0
141 161 0
141 160 0
149 167 0
144 164 0
143 162 0
154 175 0
144 165 0
149 168 0
147 166 0
157 177 0
150 171 0
151 170 0
153 171 0
154 176 0
148 168 0
147 165 0
149 168 0
154 172 0
146 166 0
148 169 0
150 170 0
155 175 0
152 172 0
154 173 0
154 173 0
152 169 0
154 173 0
163 182 0
153 172 0
157 178 0
148 168 0
157 179 0
153 173 0
150 171 0
154 173 0
147 167 0
152 171 0
158 178 0
155 174 0
149 169 0
159 180 0
152 170 0
162 184 0
156 176 0
150 171 0
160 180 0
155 173 0
155 174 0
159 179 0
153 173 0
156 177 0
162 183 0
160 181 0
156 177 0
161 182 0
161 181 0
153 173 0
163 182 0
156 176 0
159 181 0
159 179 0
163 183 0
160 182 0
166 186 0
159 181 0
161 179 0
161 182 0
160 179 0
164 185 0
162 181 0
161 181 0
157 177 0
161 181 0
161 181 0
157 178 0
160 179 0
161 181 0
167 187 0
158 179 0
157 176 0
163 182 0
162 183 0
165 186 0
160 180 0
165 186 0
164 184 0
160 181 0
165 186 0
163 184 0
166 188 0
166 188 0
157 176 0
164 185 0
165 185 0
163 184 0
162 181 0
169 189 0
164 185 0
164 184 0
163 185 0
163 184 0
163 183 0
167 188 0
167 188 0
165 186 0
166 187 0
166 186 0
160 180 0
169 190 0
159 179 0
164 184 0
164 185 0
168 190 0
163 184 0
167 188 0
174 198 62
173 196 67
173 195 88
174 197 88
168 192 84
173 195 92
175 199 95
173 196 99
174 197 102
166 190 72
167 190 84
171 195 102
169 193 108
172 195 111
167 191 80
168 191 102
170 194 105
174 196 108
173 195 108
170 193 92
172 196 108
171 196 111
168 191 92
171 195 95
169 192 76
168 190 102
166 190 88
169 193 95
169 193 102
168 192 84
170 193 88
161 185 92
166 189 92
167 192 84
169 192 95
176 199 111
164 187 95
167 191 95
165 187 88
170 193 99
168 192 111
164 188 80
172 196 108
167 190 95
166 190 99
165 188 108
171 195 102
161 184 102
167 191 117
165 187 80
161 184 102
163 186 102
160 183 99
169 192 111
163 186 99
166 188 99
164 186 92
164 187 105
167 191 88
156 179 74
163 186 102
159 181 103
158 182 80
163 187 122
156 179 94
162 185 105
167 191 111
159 182 88
160 182 90
154 176 92
161 184 102
161 183 105
157 179 80
157 179 88
161 183 111
163 185 130
158 180 117
151 173 76
156 178 88
147 169 99
161 183 76
153 175 102
158 179 88
155 177 99
154 175 117
147 167 95
154 175 88
157 178 108
151 172 84
152 171 114
147 168 84
150 171 102
155 175 108
155 175 95
151 171 102
147 167 95
149 168 105
150 170 102
137 156 88
130 149 88
141 162 67
136 154 84
141 159 88
131 150 67
129 147 92
141 159 92
132 151 80
125 143 92
129 147 76
137 154 88
128 146 67
127 142 95
107 123 72
109 126 72
116 131 72
123 138 80
114 129 102
98 114 76
93 112 90
104 124 118
93 114 87
87 110 99
89 112 84
84 108 72
94 118 108
114 136 110
105 128 95
85 112 94
98 122 84
100 121 84
108 126 60
138 156 62
146 161 25
155 173 18
145 162 18
151 169 18
150 166 0
136 154 25
130 149 36
119 139 44
114 133 60
99 119 47
101 119 60
90 110 36
84 105 74
78 101 72
76 101 65
79 102 65
78 98 40
102 118 0
103 120 18
105 123 47
97 116 44
100 120 36
102 117 0
102 118 0
104 120 0
83 98 0
85 99 0
92 108 0
98 114 0
92 108 0
84 97 0
105 119 0
78 93 0
74 89 0
99 114 0
102 117 0
101 115 18
89 106 25
86 100 0
75 90 0
83 98 18
83 98 18
94 108 0
83 99 0
89 104 0
85 100 18
78 93 18
86 100 18
96 110 0
90 106 0
97 111 0
85 99 0
80 95 0
99 113 18
88 104 0
98 112 0
90 104 0
92 107 0
92 107 0
95 110 0
84 99 0
94 109 0
104 119 0
85 100 0
93 108 0
91 107 0
99 116 0
97 112 0
101 117 0
102 118 0
77 92 0
99 116 0
105 120 0
105 121 0
101 117 0
103 118 0
108 126 0
107 123 0
103 119 0
117 132 0
109 126 0
112 129 0
100 117 0
96 110 0
116 133 0
105 121 0
99 117 0
112 130 0
113 131 0
121 139 0
124 142 0
119 137 0
123 140 0
123 141 0
116 133 0
119 138 0
122 138 0
113 131 0
108 125 0
132 150 0
131 149 0
128 146 0
114 133 0
120 139 0
130 150 0
132 151 0
125 143 0
135 155 0
130 147 0
129 146 0
139 158 0
130 149 0
120 138 0
130 149 0
135 155 0
126 146 0
142 162 0
138 156 0
134 150 0
137 156 0
137 155 0
139 158 0
127 145 0
139 157 0
135 154 0
143 161 0
136 155 0
132 150 0
142 162 0
134 154 0
141 160 0
137 157 0
144 164 0
143 161 0
142 162 0
144 163 0
135 155 0
145 164 0
143 162 0
130 150 0
147 167 0
135 153 0
142 162 0
144 162 0
145 165 0
145 164 0
145 164 0
139 159 0
140 159 0
148 168 0
153 174 0
154 175 0
143 162 0
136 154 0
156 177 0
146 167 0
154 173 0
147 165 0
148 167 0
142 163 0
152 173 0
153 171 0
155 176 0
148 167 0
153 172 0
155 178 0
151 171 0
152 172 0
148 167 0
151 171 0
149 168 0
150 169 0
156 179 0
152 172 0
148 167 0
143 161 0
156 176 0
150 170 0
146 164 0
158 177 0
158 179 0
154 174 0
154 173 0
151 173 0
155 174 0
155 174 0
149 168 0
159 179 0
160 179 0
153 173 0
155 174 0
161 181 0
157 179 0
153 174 0
154 173 0
162 183 0
150 169 0
156 177 0
157 177 0
156 176 0
162 182 0
157 176 0
161 181 0
157 176 0
157 177 0
167 186 0
165 186 0
160 181 0
160 179 0
156 177 0
161 181 0
161 182 0
160 181 0
157 178 0
165 186 0
162 182 0
160 179 0
160 181 0
156 175 0
162 181 0
161 180 0
162 182 0
164 184 0
158 177 0
158 179 0
159 178 0
163 183 0
159 178 0
158 177 0
159 181 0
159 179 0
164 183 0
161 180 0
159 180 0
166 187 0
160 183 0
166 186 0
163 184 0
161 182 0
163 183 0
166 188 0
160 180 0
161 183 0
167 187 0
167 187 0
165 187 0
164 183 0
159 178 0
167 188 0
160 180 0
161 181 0
166 186 0
167 188 0
162 183 0
163 185 0
163 186 0
169 191 0
166 187 0
168 188 0
163 183 0
166 188 0
166 188 0
164 184 0
167 188 0
164 185 0
168 190 0
170 191 0
168 189 0
173 196 102
169 193 95
173 196 105
171 193 88
175 198 99
175 198 80
168 192 88
173 196 111
178 200 111
172 195 88
171 195 92
174 197 102
171 194 102
174 197 84
173 197 92
167 190 108
176 198 108
171 194 99
174 197 108
170 194 108
169 193 99
168 191 84
172 195 105
170 193 88
173 196 99
172 196 99
164 189 99
172 196 111
168 191 108
169 192 105
170 194 84
169 193 105
171 193 114
168 192 111
165 189 72
169 193 105
168 192 84
164 187 88
170 194 99
168 191 114
170 194 117
168 191 102
163 186 99
172 195 84
159 182 51
167 189 95
172 195 122
170 193 108
163 186 80
164 187 74
159 183 95
159 182 105
164 187 95
161 184 86
162 186 88
162 185 100
162 185 105
164 187 108
164 187 108
164 186 84
154 177 90
162 185 67
159 182 84
158 181 82
152 175 92
163 186 102
162 185 108
162 185 99
162 184 80
152 174 88
159 181 95
155 178 84
155 177 88
165 188 95
164 186 92
154 176 117
155 177 92
164 185 102
161 183 102
154 175 111
155 177 114
151 174 105
149 170 92
155 176 99
158 180 99
155 177 102
155 177 99
149 170 88
152 174 99
152 172 108
161 183 114
144 164 84
151 171 105
152 173 95
143 163 108
149 170 84
140 159 102
143 162 102
136 156 84
149 169 99
139 157 95
134 153 80
140 159 80
143 161 92
139 157 92
139 157 92
120 137 72
133 151 80
135 153 95
134 152 76
124 143 67
126 143 84
124 141 80
117 133 80
113 129 72
118 132 88
112 126 76
102 117 70
116 133 86
91 109 80
104 124 82
101 123 82
102 123 92
81 106 78
91 114 94
94 117 95
85 109 99
107 129 100
98 120 100
97 119 65
121 141 65
135 152 31
151 167 0
151 169 0
155 172 18
136 154 0
146 165 0
142 160 0
135 154 0
131 151 0
123 141 40
103 119 47
114 132 44
88 107 54
93 113 51
81 101 65
81 103 51
86 107 31
100 115 31
100 115 0
97 113 25
98 116 25
98 116 18
108 126 0
90 106 0
100 116 0
106 122 0
91 107 0
98 113 0
98 114 0
96 111 0
104 118 0
97 112 0
85 100 0
94 110 0
104 118 0
85 99 0
82 96 0
89 103 0
91 105 0
93 108 0
98 114 0
93 107 0
80 95 0
85 100 0
97 111 0
82 96 0
88 103 0
92 107 0
95 111 0
99 114 0
105 121 0
87 102 0
95 110 0
97 111 0
91 106 0
88 103 0
71 87 0
85 99 0
85 99 0
91 106 0
101 117 0
97 113 0
97 112 0
101 117 0
95 110 0
102 118 0
103 118 0
88 103 0
88 104 0
108 124 0
106 123 0
100 116 0
110 127 0
96 114 0
99 114 0
109 126 0
106 122 0
103 120 0
106 124 0
90 106 0
104 121 0
112 128 0
96 112 0
111 130 0
95 113 0
116 132 0
118 136 0
110 128 0
120 138 0
120 136 0
127 144 0
116 134 0
132 149 0
124 143 0
109 127 0
117 133 0
115 132 0
126 143 0
120 138 0
118 135 0
116 135 0
126 146 0
121 137 0
117 136 0
125 143 0
122 141 0
122 141 0
121 139 0
126 145 0
126 144 0
133 152 0
124 143 0
137 157 0
137 156 0
132 152 0
127 147 0
136 155 0
137 155 0
133 151 0
142 162 0
128 148 0
135 152 0
131 150 0
131 149 0
127 146 0
127 144 0
137 156 0
139 160 0
139 156 0
142 161 0
145 164 0
142 163 0
141 161 0
135 155 0
137 156 0
155 175 0
133 153 0
135 155 0
142 162 0
150 170 0
141 160 0
138 158 0
147 167 0
146 165 0
142 161 0
136 153 0
139 158 0
153 173 0
149 171 0
145 164 0
149 168 0
144 163 0
145 164 0
142 163 0
146 164 0
150 170 0
148 169 0
145 165 0
148 168 0
149 167 0
149 167 0
144 164 0
146 164 0
149 170 0
145 164 0
154 173 0
144 163 0
158 179 0
151 172 0
146 165 0
150 170 0
149 169 0
144 164 0
159 179 0
151 170 0
155 176 0
150 169 0
151 172 0
152 173 0
149 168 0
158 177 0
152 173 0
148 169 0
160 179 0
155 175 0
155 172 0
151 171 0
158 178 0
156 178 0
156 176 0
163 184 0
158 178 0
161 180 0
154 176 0
150 171 0
154 173 0
160 180 0
160 179 0
157 177 0
162 183 0
156 176 0
160 179 0
160 179 0
155 176 0
158 179 0
160 181 0
165 186 0
157 177 0
161 180 0
166 187 0
159 179 0
157 178 0
160 180 0
157 176 0
160 181 0
152 172 0
161 180 0
161 181 0
166 185 0
156 177 0
157 178 0
161 181 0
160 182 0
158 178 0
162 183 0
167 186 0
157 178 0
159 179 0
164 184 0
159 179 0
164 183 0
167 188 0
162 182 0
162 183 0
160 181 0
165 183 0
165 185 0
163 184 0
163 184 0
163 185 0
162 183 0
164 184 0
161 181 0
159 178 0
166 186 0
170 190 0
159 180 0
166 187 0
166 189 0
157 177 0
167 188 0
160 181 0
163 183 0
163 185 0
164 185 0
164 185 0
166 189 0
163 185 0
168 188 0
167 187 0
164 185 0
165 186 0
167 189 0
165 188 0
164 185 0
162 184 0
164 186 0
163 184 0
167 188 0
170 193 84
168 192 84
177 200 105
169 193 84
177 200 95
176 199 88
170 193 92
172 196 108
174 197 84
171 194 92
175 197 99
170 193 95
174 198 108
173 197 92
172 195 80
169 193 105
176 199 117
170 193 95
170 194 102
164 187 95
168 191 80
176 199 102
171 194 108
169 193 99
170 193 80
169 193 99
166 190 95
169 192 108
170 194 120
172 196 95
171 194 108
168 190 99
165 189 88
167 191 102
174 198 120
168 192 105
169 193 95
173 196 108
169 193 117
160 183 80
165 189 95
169 192 84
164 188 92
161 185 105
154 177 84
161 184 99
161 184 95
164 188 99
161 185 99
169 193 105
160 183 99
163 187 102
164 187 88
163 186 90
164 187 99
163 186 102
164 188 92
156 179 76
160 183 94
163 185 99
157 180 88
165 188 114
159 182 80
160 182 88
162 184 84
158 181 92
158 180 95
152 176 80
152 175 86
160 182 102
154 176 99
159 180 76
157 178 80
159 181 95
155 177 99
158 180 80
164 186 102
152 174 88
153 175 105
152 173 88
164 186 128
152 173 88
151 172 95
144 166 92
156 177 95
155 176 99
158 179 95
157 177 114
157 177 114
154 175 108
143 163 102
145 165 80
151 171 122
149 170 99
150 170 102
137 156 67
149 168 99
147 166 108
151 170 105
145 164 114
143 162 99
152 170 102
148 167 99
144 162 92
135 153 80
133 151 76
128 146 80
142 160 108
128 146 67
145 163 92
129 146 80
126 145 67
121 138 62
113 129 62
115 131 76
105 121 51
125 140 80
109 124 51
117 133 60
106 121 84
91 108 70
90 109 76
100 120 72
109 127 107
98 121 86
116 137 103
103 125 92
99 122 84
96 119 76
115 136 74
118 137 44
128 146 44
149 163 18
154 171 0
146 162 0
149 167 0
144 162 0
145 165 18
137 155 18
133 151 36
128 145 18
120 137 47
110 129 40
116 134 36
108 128 44
100 119 54
100 117 36
102 118 0
104 117 0
105 120 0
120 137 0
122 139 18
115 132 0
112 128 0
120 135 0
97 114 0
97 114 0
92 109 0
94 109 0
94 110 0
96 111 0
95 109 0
101 116 0
99 115 0
84 100 0
83 100 0
84 100 0
103 118 0
88 104 0
105 121 0
89 104 0
72 87 0
89 102 0
95 111 0
92 107 0
101 116 0
88 104 0
87 101 0
82 97 0
90 106 0
104 119 0
95 110 0
108 124 0
94 109 0
106 120 0
91 107 0
87 101 0
91 106 0
91 106 0
93 109 0
101 117 0
102 118 0
94 109 0
87 104 0
99 116 0
98 114 0
94 110 0
102 120 0
104 118 0
112 128 0
106 123 0
94 109 0
110 126 0
109 126 0
107 123 0
93 109 0
99 114 0
112 129 0
105 121 0
109 127 0
104 122 0
99 116 0
121 139 0
99 116 0
111 128 0
107 125 0
119 137 0
114 133 0
123 140 0
114 132 0
112 130 0
119 137 0
125 142 0
105 123 0
121 139 0
115 132 0
123 141 0
119 137 0
137 156 0
123 142 0
130 148 0
123 142 0
128 147 0
124 143 0
132 151 0
127 144 0
134 154 0
136 153 0
119 137 0
119 137 0
125 146 0
126 145 0
123 143 0
123 142 0
139 159 0
128 145 0
133 152 0
125 145 0
130 150 0
132 151 0
131 150 0
127 146 0
130 151 0
139 158 0
127 145 0
140 159 0
144 163 0
140 160 0
129 148 0
144 161 0
145 166 0
141 160 0
137 154 0
132 152 0
135 153 0
145 165 0
147 167 0
136 155 0
134 154 0
140 158 0
147 166 0
134 154 0
139 158 0
133 153 0
139 159 0
145 167 0
138 157 0
149 169 0
155 174 0
144 165 0
143 163 0
143 165 0
145 162 0
143 163 0
146 166 0
147 166 0
153 173 0
144 163 0
146 165 0
141 161 0
145 164 0
156 176 0
154 173 0
146 167 0
145 163 0
151 170 0
150 171 0
153 173 0
145 163 0
149 169 0
160 181 0
144 162 0
151 168 0
155 176 0
148 169 0
153 174 0
147 166 0
144 162 0
153 173 0
153 174 0
156 176 0
153 172 0
159 178 0
152 172 0
157 177 0
155 176 0
157 176 0
154 174 0
155 175 0
157 178 0
154 173 0
154 173 0
154 173 0
160 180 0
152 172 0
149 170 0
159 178 0
158 179 0
161 181 0
153 175 0
157 178 0
146 164 0
160 180 0
156 178 0
155 174 0
158 179 0
161 183 0
163 185 0
158 178 0
159 181 0
159 180 0
162 182 0
157 177 0
163 184 0
159 179 0
158 179 0
161 182 0
158 178 0
159 177 0
163 184 0
160 180 0
163 184 0
165 186 0
161 182 0
161 181 0
160 181 0
156 176 0
158 176 0
168 191 0
166 187 0
161 182 0
160 182 0
163 185 0
169 189 0
164 184 0
161 181 0
160 180 0
164 183 0
162 183 0
166 188 0
161 180 0
165 186 0
163 185 0
164 184 0
162 182 0
165 186 0
162 184 0
161 182 0
166 188 0
160 183 0
165 187 0
164 184 0
163 184 0
162 182 0
160 179 0
167 187 0
163 182 0
159 179 0
165 187 0
166 187 0
160 180 0
163 185 0
166 183 0
164 185 0
168 190 0
164 185 0
163 184 0
168 190 0
162 185 0
167 188 0
172 195 95
173 196 80
172 196 92
177 200 108
175 197 92
172 194 84
171 194 80
175 199 95
168 191 72
173 196 88
172 195 105
170 193 108
174 197 92
176 199 102
167 190 88
170 193 72
171 195 99
169 192 88
180 202 128
169 192 117
163 187 67
172 196 108
163 186 76
170 193 95
171 194 108
170 193 99
172 196 105
165 188 92
163 186 88
166 190 95
170 194 111
172 196 105
173 196 120
168 191 95
165 189 92
165 188 88
168 192 84
169 193 92
173 197 105
163 187 84
163 187 84
170 193 108
171 195 117
163 187 105
158 181 76
168 193 102
163 186 92
167 191 92
168 191 105
163 185 95
165 189 95
160 183 99
157 180 88
159 183 105
169 193 124
165 188 99
167 190 99
165 188 108
158 180 76
166 189 108
164 186 76
156 179 88
166 190 102
163 186 84
158 181 95
159 182 111
160 183 88
160 183 99
163 185 84
148 171 88
157 179 57
156 178 80
158 180 99
158 180 111
156 178 84
165 188 102
154 176 88
159 181 80
153 176 80
158 179 108
155 176 111
155 177 95
155 177 92
154 175 99
151 173 80
160 181 108
160 181 92
154 175 92
157 178 92
146 166 102
155 176 95
147 167 105
159 180 99
144 164 80
151 171 95
153 173 95
153 173 111
136 154 84
157 176 114
148 168 76
148 168 88
140 159 95
151 171 95
143 162 76
141 159 95
134 153 92
147 165 95
148 166 95
145 163 92
132 150 92
136 154 92
123 141 57
127 145 76
129 147 84
123 139 84
116 132 51
124 140 72
114 129 72
129 144 80
117 133 72
108 123 54
104 121 60
104 121 70
94 112 76
102 121 86
96 117 76
82 105 74
114 134 88
101 121 82
119 139 62
122 140 18
127 144 25
149 167 18
152 169 0
149 167 18
151 168 0
144 163 0
136 154 0
133 151 0
136 153 0
138 155 0
121 138 0
117 134 18
102 122 54
98 114 25
96 113 0
92 107 0
102 118 0
109 125 0
104 120 0
107 123 0
110 127 0
120 138 0
112 129 0
95 113 0
102 117 0
99 115 0
112 128 0
109 126 0
95 110 0
102 118 0
97 111 0
95 111 0
101 118 0
104 120 0
97 112 0
97 113 0
90 105 0
93 109 0
90 105 0
93 108 0
89 105 0
95 111 0
95 109 0
85 100 0
88 104 0
98 113 0
103 118 0
92 106 0
110 125 0
93 108 0
97 113 0
91 105 0
95 111 0
104 120 0
91 106 0
86 102 0
90 107 0
90 107 0
111 128 0
93 107 0
91 108 0
107 123 0
94 110 0
104 120 0
93 108 0
107 123 0
101 118 0
91 105 0
104 120 0
113 129 0
110 127 0
106 123 0
107 123 0
108 124 0
95 110 0
105 121 0
113 129 0
115 133 0
99 115 0
106 122 0
112 129 0
118 137 0
107 124 0
107 125 0
112 129 0
128 146 0
123 140 0
113 131 0
105 124 0
115 134 0
122 141 0
123 143 0
113 131 0
130 148 0
124 143 0
118 137 0
122 141 0
124 142 0
127 145 0
120 138 0
120 138 0
126 144 0
133 150 0
129 148 0
131 149 0
123 141 0
133 152 0
123 143 0
116 136 0
129 148 0
121 140 0
137 155 0
123 141 0
139 158 0
139 159 0
124 143 0
136 155 0
139 157 0
123 142 0
119 138 0
144 163 0
133 152 0
136 156 0
136 156 0
137 156 0
141 160 0
131 149 0
144 165 0
143 162 0
140 160 0
131 151 0
140 159 0
146 165 0
139 159 0
142 160 0
139 161 0
138 158 0
146 165 0
146 165 0
150 170 0
144 163 0
138 158 0
130 149 0
146 166 0
135 153 0
157 177 0
145 164 0
143 161 0
146 166 0
146 166 0
138 157 0
147 166 0
143 163 0
140 159 0
149 168 0
145 166 0
145 165 0
151 171 0
152 173 0
153 172 0
151 172 0
153 173 0
155 175 0
150 169 0
152 172 0
152 172 0
150 170 0
151 171 0
149 170 0
159 180 0
147 167 0
152 172 0
147 167 0
156 177 0
152 172 0
155 175 0
158 179 0
150 171 0
155 174 0
150 170 0
162 182 0
150 170 0
153 173 0
150 170 0
150 171 0
150 170 0
158 178 0
157 177 0
158 178 0
154 175 0
159 178 0
160 180 0
159 179 0
160 179 0
161 181 0
159 179 0
151 169 0
157 178 0
157 177 0
161 183 0
161 180 0
157 178 0
153 174 0
160 180 0
153 174 0
158 179 0
164 184 0
155 176 0
156 174 0
158 178 0
163 183 0
164 185 0
160 181 0
156 176 0
160 180 0
156 178 0
163 184 0
164 183 0
162 183 0
166 188 0
156 175 0
159 180 0
158 179 0
161 182 0
160 180 0
156 179 0
158 178 0
161 181 0
159 180 0
161 182 0
165 186 0
157 175 0
161 182 0
164 184 0
161 182 0
162 183 0
162 183 0
160 182 0
164 185 0
158 180 0
167 188 0
157 177 0
167 189 0
161 181 0
162 184 0
163 183 0
158 177 0
160 181 0
163 184 0
164 186 0
159 181 0
165 186 0
165 186 0
158 179 0
163 185 0
165 185 0
166 186 0
167 187 0
162 185 0
164 186 0
165 187 0
163 183 0
164 187 0
166 187 0
165 187 0
163 185 0
163 185 0
165 185 0
166 188 0
173 197 92
175 198 102
165 189 62
172 196 99
175 199 105
172 195 95
168 193 57
173 197 99
172 195 105
175 199 102
170 194 102
177 200 111
170 194 95
173 195 99
167 191 80
172 195 95
173 196 99
173 196 108
171 194 92
170 194 102
170 193 88
172 196 95
171 195 102
167 190 95
170 194 111
168 192 92
172 195 117
165 188 92
166 189 92
168 192 95
165 188 84
162 185 88
168 192 95
171 194 111
168 192 117
172 196 122
169 192 108
170 194 108
171 195 122
163 186 95
165 189 102
168 191 88
168 192 92
168 191 99
170 193 108
169 192 95
166 190 117
166 189 92
162 185 72
161 185 105
166 189 80
167 191 92
162 186 95
158 181 102
162 185 107
165 188 105
159 183 95
162 185 102
168 192 117
169 193 102
157 180 78
161 184 99
159 182 84
168 191 111
166 189 110
157 180 72
161 184 111
158 181 97
153 175 92
158 180 117
163 185 88
163 185 95
163 186 88
156 178 99
160 182 108
165 186 95
158 179 88
158 180 114
159 181 135
165 188 120
150 172 80
156 178 108
157 179 102
161 183 105
152 173 92
156 177 99
154 175 88
155 176 95
152 173 84
154 175 99
153 174 88
147 167 84
158 179 105
156 176 114
150 171 95
141 161 95
158 177 114
140 160 88
144 163 95
151 171 108
151 169 105
139 159 80
133 151 99
144 163 95
140 158 88
145 163 80
136 154 92
137 155 80
129 146 67
141 159 80
137 156 76
128 146 76
129 147 92
127 145 72
128 145 62
130 146 88
112 127 62
117 134 84
120 136 72
125 142 57
126 143 62
105 122 31
105 121 72
88 105 54
103 120 82
107 125 72
106 125 78
110 128 84
107 127 51
115 135 51
115 131 0
122 139 0
150 169 0
155 176 18
146 163 0
152 170 0
147 165 18
140 157 0
136 155 0
131 151 0
130 149 0
112 129 0
118 136 0
127 144 0
110 126 0
101 116 0
95 109 0
105 122 0
91 107 0
111 128 0
104 122 0
111 130 0
122 140 0
111 128 0
122 138 0
101 118 0
99 115 0
101 117 0
93 110 0
100 116 0
107 124 0
97 114 0
92 107 0
107 124 0
86 101 0
79 96 0
92 109 0
110 126 0
90 106 0
104 120 0
100 117 0
98 112 0
97 113 0
106 122 0
97 112 0
101 117 0
94 109 0
103 119 0
86 101 0
104 120 0
102 119 0
98 114 0
91 107 0
100 115 0
94 111 0
89 104 0
99 115 0
87 102 0
108 125 0
101 118 0
96 111 0
98 113 0
88 104 0
100 115 0
103 119 0
110 127 0
109 126 0
108 125 0
109 127 0
103 119 0
100 116 0
111 128 0
91 107 0
100 117 0
108 125 0
114 132 0
109 126 0
106 124 0
111 128 0
115 132 0
116 134 0
110 127 0
113 130 0
120 139 0
116 132 0
122 139 0
117 133 0
110 128 0
126 144 0
123 142 0
106 125 0
123 141 0
126 144 0
121 140 0
117 135 0
121 139 0
118 136 0
135 154 0
120 138 0
123 141 0
119 137 0
128 148 0
131 151 0
126 142 0
140 159 0
121 140 0
131 149 0
129 148 0
131 150 0
126 146 0
137 158 0
128 147 0
139 158 0
132 152 0
140 160 0
131 151 0
140 160 0
129 146 0
129 147 0
130 151 0
140 159 0
134 152 0
133 151 0
131 150 0
140 160 0
130 149 0
143 164 0
131 149 0
136 155 0
143 163 0
142 163 0
141 160 0
143 164 0
145 164 0
141 161 0
149 169 0
145 165 0
144 163 0
141 161 0
143 163 0
135 154 0
152 173 0
151 172 0
144 163 0
147 167 0
140 160 0
146 166 0
143 161 0
141 160 0
149 168 0
152 172 0
154 174 0
151 171 0
142 162 0
158 179 0
147 167 0
146 164 0
152 172 0
148 168 0
147 167 0
146 167 0
151 170 0
146 166 0
151 171 0
150 171 0
146 166 0
150 169 0
144 166 0
148 167 0
149 167 0
155 173 0
153 173 0
155 176 0
149 168 0
154 174 0
148 167 0
152 173 0
149 168 0
149 170 0
153 173 0
153 173 0
156 175 0
155 174 0
154 176 0
147 167 0
156 176 0
158 179 0
153 175 0
163 183 0
158 179 0
162 182 0
153 175 0
156 175 0
159 179 0
155 175 0
155 175 0
161 183 0
155 176 0
156 175 0
154 176 0
162 183 0
153 172 0
158 177 0
156 177 0
156 176 0
155 176 0
158 179 0
158 178 0
156 177 0
163 182 0
160 181 0
158 178 0
162 185 0
158 179 0
163 184 0
164 185 0
156 175 0
159 179 0
157 179 0
163 185 0
166 187 0
160 182 0
162 182 0
163 184 0
163 184 0
162 181 0
155 175 0
163 183 0
166 187 0
154 174 0
165 184 0
166 187 0
161 181 0
165 186 0
162 182 0
161 182 0
162 182 0
160 182 0
163 183 0
165 187 0
166 187 0
167 188 0
166 186 0
167 188 0
162 184 0
163 184 0
159 181 0
161 181 0
160 179 0
163 183 0
154 174 0
166 187 0
160 181 0
164 184 0
162 185 0
165 186 0
164 185 0
156 177 0
167 189 0
167 188 0
162 182 0
162 183 0
163 184 0
163 182 0
167 187 0
169 190 0
169 192 0
161 181 0
168 189 0
162 181 0
171 195 80
173 197 84
176 199 84
168 191 95
171 194 105
175 198 95
172 197 92
173 195 102
174 197 88
174 198 95
175 197 105
175 197 105
170 194 76
168 191 92
169 192 80
172 194 99
166 189 88
164 188 99
174 197 108
169 192 84
173 197 105
166 189 99
170 193 102
163 186 67
174 197 122
170 194 114
168 191 95
169 192 95
162 186 76
169 192 88
171 195 120
162 185 88
171 194 102
166 189 111
169 193 105
164 187 76
165 189 102
164 188 99
166 190 80
170 193 102
167 190 99
167 190 76
169 193 114
170 193 92
162 185 108
167 190 88
166 189 108
168 191 84
164 189 105
166 189 92
169 192 102
166 188 99
165 187 88
162 185 95
164 188 80
161 185 99
166 189 108
159 182 99
161 185 110
161 184 88
156 179 76
153 176 84
158 181 92
163 186 88
166 189 102
155 178 95
161 184 99
160 183 99
149 170 80
161 183 118
163 185 114
151 172 76
155 177 80
164 186 95
160 182 114
154 177 84
149 171 80
160 182 102
165 187 108
150 171 84
148 170 92
158 180 111
152 174 105
158 180 105
152 173 76
156 176 114
157 179 99
156 178 76
157 178 120
156 177 92
148 169 105
152 174 105
149 170 76
147 167 88
151 171 99
152 172 105
152 171 102
150 170 95
160 179 114
143 163 95
146 165 122
140 159 99
134 153 80
153 171 105
134 152 76
153 171 105
129 147 76
141 159 95
140 159 84
143 162 95
136 154 80
130 148 88
131 147 99
135 153 84
122 140 57
127 144 99
130 146 88
112 130 51
124 140 67
116 132 44
112 128 57
115 130 62
117 133 57
126 142 76
115 132 60
104 118 60
111 128 70
109 127 54
118 136 54
128 146 51
124 141 25
130 148 40
151 169 0
152 169 0
155 173 0
149 167 0
151 172 0
135 153 0
141 159 0
141 157 0
123 141 0
120 138 0
128 146 0
119 138 0
115 133 0
108 126 0
101 117 0
103 119 0
106 122 0
98 114 0
115 131 0
124 142 0
114 132 0
94 112 0
102 120 0
94 110 0
101 118 0
109 126 0
113 129 0
96 112 0
116 133 0
93 111 0
104 120 0
93 108 0
105 121 0
101 116 0
106 121 0
102 118 0
103 119 0
86 103 0
109 125 0
90 106 0
85 101 0
102 117 0
101 118 0
103 118 0
92 108 0
105 122 0
92 108 0
113 130 0
110 126 0
102 120 0
102 118 0
99 114 0
97 113 0
88 105 0
105 121 0
101 119 0
103 120 0
112 129 0
105 121 0
102 117 0
96 113 0
111 126 0
109 126 0
111 127 0
104 121 0
110 129 0
98 114 0
107 124 0
112 130 0
110 127 0
109 127 0
108 126 0
108 125 0
108 124 0
117 134 0
100 118 0
108 125 0
105 122 0
117 135 0
110 127 0
106 123 0
112 130 0
123 141 0
117 135 0
118 137 0
130 148 0
111 129 0
118 135 0
116 134 0
117 135 0
125 144 0
128 146 0
119 137 0
119 137 0
113 130 0
125 143 0
126 144 0
120 138 0
121 140 0
124 144 0
121 140 0
135 155 0
128 146 0
126 146 0
129 147 0
132 151 0
122 139 0
126 144 0
121 140 0
134 153 0
130 148 0
131 152 0
136 155 0
138 158 0
126 146 0
132 151 0
135 156 0
135 155 0
132 151 0
138 159 0
133 154 0
142 162 0
135 155 0
135 154 0
149 171 0
127 147 0
124 145 0
132 152 0
142 163 0
143 162 0
143 164 0
138 158 0
144 164 0
136 157 0
139 159 0
143 162 0
149 168 0
148 168 0
138 159 0
138 157 0
154 175 0
142 163 0
150 168 0
147 167 0
147 168 0
146 165 0
143 163 0
154 174 0
142 163 0
145 165 0
147 167 0
144 164 0
149 169 0
138 158 0
145 165 0
155 177 0
142 162 0
154 174 0
151 172 0
151 172 0
154 174 0
149 169 0
153 174 0
149 170 0
151 172 0
152 170 0
150 170 0
152 171 0
156 177 0
152 172 0
150 170 0
148 168 0
156 176 0
153 174 0
158 177 0
150 170 0
151 170 0
152 172 0
152 174 0
154 176 0
152 173 0
154 174 0
153 172 0
163 183 0
163 183 0
160 181 0
155 175 0
155 176 0
150 170 0
161 181 0
157 178 0
156 175 0
151 170 0
158 179 0
158 179 0
155 177 0
157 179 0
154 177 0
159 180 0
163 182 0
156 178 0
157 178 0
159 179 0
160 182 0
157 178 0
160 180 0
167 188 0
153 175 0
161 183 0
163 184 0
158 178 0
166 186 0
162 180 0
159 180 0
159 178 0
159 179 0
164 185 0
161 181 0
160 178 0
162 183 0
163 182 0
162 184 0
163 184 0
155 175 0
160 180 0
165 184 0
164 184 0
166 186 0
168 189 0
160 181 0
159 179 0
161 181 0
161 182 0
161 181 0
162 182 0
163 184 0
162 184 0
165 187 0
169 190 0
167 188 0
161 182 0
164 185 0
164 185 0
163 183 0
166 186 0
161 182 0
163 185 0
160 180 0
164 186 0
163 185 0
166 188 0
165 186 0
161 182 0
169 191 0
167 187 0
166 189 0
168 190 0
164 184 0
165 185 0
166 187 0
168 189 0
170 191 0
167 190 0
160 179 0
166 186 0
170 193 0
163 183 0
167 189 0
177 199 92
172 195 88
172 195 95
174 196 99
174 198 102
175 197 133
174 197 114
172 195 95
170 194 76
168 191 88
174 197 88
174 197 102
171 195 88
168 192 67
174 198 67
167 191 95
171 194 105
171 194 102
170 194 111
172 195 133
169 191 99
169 192 108
168 191 95
167 190 76
166 188 84
167 189 84
170 194 99
169 193 114
172 195 92
164 188 84
166 190 84
166 190 88
168 191 108
162 186 67
167 191 80
172 195 99
162 185 67
169 193 105
167 191 102
163 187 88
162 184 80
161 185 95
167 191 88
166 189 88
170 194 114
168 191 84
165 188 92
169 193 102
168 191 105
165 188 80
163 187 95
166 189 99
170 193 105
167 189 107
161 184 102
163 186 95
166 189 102
162 186 105
162 185 108
165 188 76
169 192 120
163 186 95
160 183 72
156 179 90
159 182 88
160 181 84
165 188 102
156 178 88
160 183 102
162 185 92
151 175 80
158 181 99
163 186 92
159 180 111
162 183 105
154 176 95
164 185 105
166 188 111
156 178 88
165 186 108
156 178 80
156 177 92
147 168 99
157 179 95
154 174 99
156 177 105
153 174 72
153 174 95
144 165 102
156 176 102
155 177 92
152 172 95
143 164 84
153 174 92
151 171 111
155 175 108
144 164 95
153 173 95
148 168 84
146 165 108
150 169 128
142 162 80
132 150 95
144 163 102
141 159 95
140 158 76
137 156 88
154 172 92
135 153 84
140 157 99
131 151 67
130 147 80
130 148 80
130 146 80
135 153 88
132 149 88
119 137 67
142 160 76
113 129 44
116 131 72
121 137 57
130 146 72
115 132 67
120 136 62
104 119 57
117 133 54
116 133 40
111 129 51
122 139 57
127 146 0
125 143 25
124 143 25
151 167 25
148 164 0
156 174 0
149 167 0
155 174 0
145 165 0
134 154 0
141 160 0
140 157 0
137 153 0
113 131 0
118 136 0
123 140 0
121 138 0
105 122 0
106 121 0
107 124 0
120 137 0
109 125 0
113 130 0
123 141 0
112 130 0
110 128 0
100 118 0
112 128 0
114 132 0
96 113 0
89 106 0
101 119 0
95 112 0
97 115 0
99 116 0
104 120 0
100 116 0
95 113 0
96 112 0
113 129 0
106 123 0
112 128 0
96 113 0
95 112 0
98 116 0
102 118 0
112 129 0
93 109 0
98 114 0
98 114 0
99 115 0
111 128 0
105 120 0
98 113 0
104 120 0
106 124 0
99 114 0
99 115 0
111 127 0
97 115 0
101 117 0
106 123 0
102 119 0
103 120 0
93 108 0
109 124 0
110 127 0
105 121 0
108 127 0
104 122 0
118 137 0
125 143 0
101 118 0
106 124 0
113 130 0
122 140 0
110 128 0
107 125 0
115 133 0
117 135 0
120 137 0
122 140 0
94 111 0
109 125 0
111 129 0
128 145 0
109 127 0
112 129 0
113 131 0
116 134 0
123 142 0
125 144 0
131 151 0
120 139 0
119 137 0
114 132 0
127 145 0
133 150 0
125 144 0
125 142 0
119 137 0
117 136 0
127 146 0
130 150 0
128 147 0
127 147 0
137 158 0
124 143 0
128 149 0
130 151 0
129 148 0
120 140 0
124 143 0
141 161 0
130 150 0
137 158 0
135 155 0
129 148 0
140 156 0
135 155 0
144 163 0
141 162 0
142 162 0
135 156 0
133 154 0
145 164 0
129 149 0
139 159 0
144 163 0
146 166 0
134 153 0
138 155 0
131 150 0
146 167 0
140 160 0
144 165 0
144 164 0
136 155 0
138 157 0
141 162 0
147 168 0
145 163 0
144 163 0
146 168 0
135 154 0
143 163 0
151 171 0
140 160 0
152 172 0
144 166 0
149 171 0
149 168 0
153 175 0
149 170 0
155 176 0
151 171 0
151 170 0
152 171 0
154 176 0
157 176 0
147 167 0
154 174 0
150 171 0
144 165 0
147 168 0
150 169 0
147 166 0
153 174 0
152 172 0
150 170 0
150 169 0
151 171 0
156 176 0
157 177 0
153 173 0
157 177 0
146 166 0
152 174 0
160 180 0
157 179 0
154 176 0
158 179 0
156 178 0
152 172 0
152 172 0
156 177 0
157 176 0
153 174 0
157 178 0
152 172 0
148 170 0
153 173 0
157 177 0
150 171 0
148 169 0
158 180 0
152 171 0
149 169 0
156 174 0
154 175 0
166 186 0
157 177 0
151 172 0
158 179 0
151 173 0
164 186 0
159 178 0
158 179 0
159 179 0
159 180 0
162 185 0
155 176 0
161 181 0
160 179 0
155 175 0
155 176 0
164 185 0
164 185 0
162 183 0
156 176 0
159 180 0
158 179 0
162 182 0
162 181 0
164 183 0
157 177 0
159 178 0
169 191 0
165 188 0
157 178 0
161 181 0
161 180 0
162 183 0
166 188 0
162 184 0
161 182 0
167 189 0
164 185 0
162 182 0
163 182 0
163 182 0
162 182 0
162 183 0
162 183 0
163 185 0
165 186 0
161 181 0
164 185 0
163 184 0
166 188 0
159 181 0
168 189 0
164 185 0
165 187 0
166 187 0
163 184 0
165 186 0
161 182 0
166 188 0
166 189 0
159 179 0
165 187 0
168 189 0
168 191 0
164 186 0
170 191 0
168 190 0
166 187 0
166 189 0
167 189 0
169 190 0
173 196 99
179 202 111
173 195 102
175 198 95
173 196 120
172 195 84
174 197 84
170 193 114
174 197 114
171 194 95
170 194 72
172 195 105
172 195 92
172 196 99
172 195 88
168 191 95
173 197 108
168 192 99
172 195 108
168 191 88
170 194 105
171 194 88
171 195 92
170 193 99
167 191 108
170 193 105
172 195 88
167 191 95
169 193 102
165 189 102
165 188 92
162 186 84
165 189 92
166 190 88
173 196 122
164 188 122
170 194 80
168 191 84
171 194 88
162 185 99
168 192 105
164 188 88
165 188 95
161 184 95
167 190 76
168 190 95
158 181 95
162 185 92
167 191 108
165 189 92
164 188 102
165 189 88
163 187 105
169 193 108
163 187 92
166 189 111
167 190 114
167 190 80
164 187 102
163 185 95
165 188 95
156 179 92
161 184 92
160 182 99
161 185 92
161 184 95
164 187 99
161 184 108
162 184 92
167 190 102
161 184 99
159 182 80
166 188 111
157 179 88
161 182 92
162 184 88
163 185 99
156 177 84
160 182 99
162 184 92
157 178 95
157 179 105
161 182 120
163 185 105
150 172 95
156 177 99
148 169 92
159 181 92
148 169 92
153 174 105
154 174 102
149 169 102
152 172 99
148 169 95
159 179 88
148 169 99
150 170 108
152 172 108
145 164 76
150 169 108
139 158 88
151 171 84
137 156 76
148 166 105
150 169 92
143 162 95
143 162 99
145 163 92
142 160 80
143 160 84
130 147 92
132 150 84
141 160 80
133 151 62
139 157 84
130 148 72
124 141 67
138 156 72
127 145 51
122 138 57
118 134 57
133 151 62
119 137 62
118 134 57
113 129 25
122 137 67
106 121 36
113 130 51
129 147 25
123 142 0
131 150 0
130 147 25
149 168 0
156 174 0
157 176 0
150 169 0
149 169 0
145 164 0
143 162 0
143 164 0
131 147 0
139 159 0
126 144 0
122 139 0
109 128 0
120 138 0
117 135 0
107 124 0
104 121 0
105 121 0
113 131 0
114 133 0
126 145 0
124 142 0
112 131 0
109 127 0
122 140 0
111 129 0
116 133 0
117 134 0
105 123 0
107 125 0
110 129 0
100 116 0
107 125 0
105 122 0
111 127 0
107 124 0
99 115 0
113 130 0
110 126 0
101 117 0
93 109 0
95 112 0
103 120 0
101 118 0
98 116 0
113 130 0
101 118 0
92 109 0
102 118 0
115 132 0
105 121 0
108 125 0
110 126 0
105 122 0
113 130 0
105 123 0
109 126 0
98 115 0
110 127 0
106 123 0
95 112 0
98 115 0
104 121 0
113 131 0
112 129 0
111 129 0
106 123 0
105 124 0
109 126 0
113 131 0
112 130 0
109 127 0
111 128 0
121 139 0
120 138 0
119 136 0
108 126 0
112 128 0
115 132 0
112 130 0
119 137 0
130 149 0
121 139 0
127 146 0
127 145 0
128 147 0
116 134 0
117 135 0
124 142 0
130 149 0
125 145 0
135 153 0
130 149 0
108 126 0
118 136 0
114 132 0
124 141 0
130 151 0
112 130 0
121 140 0
128 147 0
127 147 0
122 140 0
127 145 0
135 153 0
123 143 0
132 151 0
128 147 0
132 150 0
122 141 0
143 164 0
123 142 0
137 157 0
128 147 0
138 159 0
132 151 0
123 144 0
136 157 0
139 159 0
141 162 0
137 157 0
136 156 0
142 161 0
136 156 0
133 152 0
141 163 0
140 161 0
149 169 0
150 171 0
142 162 0
141 161 0
138 159 0
141 162 0
142 162 0
145 166 0
137 158 0
142 160 0
134 155 0
146 166 0
147 168 0
139 159 0
152 172 0
150 170 0
143 163 0
148 167 0
154 175 0
138 158 0
146 165 0
151 171 0
149 168 0
151 173 0
153 173 0
153 173 0
150 170 0
145 165 0
147 167 0
146 168 0
145 165 0
143 162 0
140 157 0
150 170 0
153 174 0
152 171 0
145 166 0
151 171 0
152 173 0
154 176 0
154 175 0
146 166 0
152 174 0
150 170 0
152 171 0
153 173 0
151 170 0
157 178 0
153 174 0
152 173 0
154 174 0
159 179 0
152 173 0
158 177 0
154 175 0
154 176 0
162 182 0
157 178 0
152 173 0
160 181 0
158 179 0
153 174 0
156 175 0
157 177 0
153 174 0
158 180 0
155 178 0
160 182 0
159 179 0
160 179 0
160 179 0
153 174 0
153 172 0
156 177 0
154 173 0
158 178 0
157 177 0
157 177 0
164 186 0
156 179 0
161 182 0
158 180 0
155 176 0
156 176 0
160 183 0
161 182 0
163 185 0
154 174 0
153 175 0
158 179 0
161 183 0
162 181 0
160 182 0
161 182 0
165 187 0
158 178 0
163 182 0
164 185 0
165 186 0
163 184 0
163 184 0
165 185 0
157 176 0
161 183 0
160 181 0
162 182 0
164 185 0
162 184 0
160 181 0
168 190 0
163 184 0
163 184 0
161 181 0
162 182 0
166 187 0
163 183 0
160 182 0
167 190 0
164 184 0
163 183 0
167 187 0
162 184 0
169 190 0
163 183 0
166 187 0
167 190 0
164 185 0
165 186 0
164 185 0
168 190 0
167 189 0
167 188 0
164 185 0
164 186 0
168 190 0
166 188 0
162 184 0
165 187 0
168 190 0
165 186 0
165 186 0
174 198 102
176 199 95
171 194 62
174 196 108
165 189 84
176 199 84
169 192 84
171 195 111
171 194 99
173 197 99
170 193 99
170 194 95
172 195 108
169 192 84
169 192 95
171 194 114
171 195 92
168 192 76
169 192 102
172 196 92
172 196 111
173 196 111
175 198 105
171 194 95
167 190 88
168 192 95
169 193 95
165 189 72
167 190 105
163 187 76
167 189 92
170 194 99
167 191 92
169 192 84
168 191 88
166 190 88
169 191 105
170 194 95
160 184 95
169 192 88
168 191 99
167 190 92
163 186 84
167 189 84
166 190 92
162 185 92
161 184 99
160 184 99
156 179 92
163 185 102
163 187 88
160 184 80
169 192 92
168 191 117
164 187 88
166 188 99
163 186 110
162 185 111
154 177 76
163 187 107
158 181 105
160 182 84
164 187 92
161 184 95
160 183 95
158 180 111
162 185 84
153 175 62
165 188 111
165 187 105
159 183 102
163 186 99
156 179 99
160 183 84
161 183 88
163 185 111
159 180 105
156 178 88
156 177 88
157 179 102
152 174 80
157 178 95
156 177 95
161 182 99
159 181 88
163 184 108
157 178 99
151 172 105
157 179 102
161 181 114
149 169 84
154 175 108
160 181 108
149 169 95
156 175 108
145 165 105
154 174 95
147 167 95
158 177 114
149 170 76
147 167 92
143 162 92
151 171 108
145 164 102
143 162 99
145 164 80
140 159 102
136 154 72
140 158 99
135 153 92
150 168 105
134 153 80
138 155 72
135 155 57
129 146 57
120 138 67
128 146 72
123 140 51
139 157 44
132 149 62
115 132 51
114 131 44
113 130 36
129 146 44
119 136 57
120 137 44
127 144 44
134 151 57
117 135 44
122 140 0
122 140 0
138 157 36
152 173 0
154 174 0
156 177 0
151 170 0
146 166 0
147 164 0
137 155 0
136 155 0
133 151 0
125 143 0
130 147 0
118 137 0
115 131 0
115 132 0
105 121 0
106 122 0
117 132 0
106 124 0
117 135 0
121 139 0
125 144 0
113 130 0
110 127 0
103 122 0
107 124 0
125 143 0
120 137 0
102 119 0
106 124 0
111 127 0
116 133 0
107 125 0
117 135 0
104 120 0
106 123 0
117 133 0
110 126 0
97 114 0
88 106 0
117 134 0
92 110 0
104 121 0
102 119 0
103 120 0
111 129 0
116 131 0
103 119 0
97 113 0
104 121 0
115 133 0
111 128 0
103 121 0
103 121 0
105 121 0
102 117 0
112 130 0
118 135 0
105 122 0
105 121 0
107 124 0
103 120 0
115 132 0
117 136 0
124 141 0
109 127 0
108 126 0
112 130 0
111 130 0
105 122 0
123 140 0
110 129 0
119 138 0
117 136 0
117 136 0
120 137 0
115 132 0
107 125 0
115 134 0
111 127 0
121 140 0
118 136 0
111 129 0
123 140 0
126 144 0
120 140 0
119 137 0
137 156 0
111 130 0
121 138 0
125 144 0
121 139 0
128 147 0
127 145 0
116 136 0
125 144 0
133 151 0
127 145 0
133 152 0
128 147 0
130 150 0
130 148 0
121 141 0
119 138 0
137 157 0
127 147 0
130 151 0
123 142 0
130 149 0
127 146 0
137 156 0
141 161 0
139 159 0
130 149 0
128 147 0
142 162 0
126 145 0
131 152 0
140 159 0
130 151 0
143 163 0
141 161 0
136 156 0
140 159 0
145 165 0
132 152 0
141 162 0
141 161 0
133 153 0
139 158 0
139 161 0
150 171 0
150 172 0
141 162 0
149 170 0
143 164 0
151 172 0
142 159 0
145 165 0
132 153 0
150 171 0
145 165 0
146 167 0
144 164 0
149 170 0
150 171 0
139 158 0
148 168 0
144 163 0
144 165 0
155 177 0
151 172 0
149 170 0
147 168 0
153 174 0
149 170 0
149 168 0
144 165 0
152 172 0
146 166 0
149 169 0
156 175 0
149 168 0
149 171 0
151 171 0
150 169 0
145 166 0
153 173 0
150 170 0
149 169 0
155 176 0
157 177 0
148 169 0
156 177 0
145 164 0
150 171 0
148 170 0
159 178 0
156 176 0
157 176 0
153 173 0
159 180 0
149 168 0
157 177 0
156 178 0
156 178 0
157 179 0
155 176 0
152 174 0
159 180 0
158 179 0
155 175 0
160 180 0
157 177 0
159 181 0
152 173 0
152 173 0
160 180 0
161 181 0
154 176 0
153 174 0
157 178 0
154 174 0
159 180 0
159 181 0
158 179 0
160 182 0
160 181 0
162 183 0
160 182 0
159 180 0
158 178 0
157 177 0
160 182 0
161 180 0
160 178 0
153 174 0
164 185 0
163 184 0
157 179 0
161 182 0
161 181 0
158 179 0
158 178 0
160 180 0
155 176 0
160 180 0
159 179 0
166 188 0
165 187 0
162 185 0
163 183 0
166 188 0
165 185 0
163 185 0
166 188 0
167 188 0
163 185 0
163 183 0
167 187 0
166 187 0
157 179 0
162 183 0
163 185 0
165 187 0
162 181 0
170 191 0
165 186 0
167 188 0
162 180 0
161 180 0
166 188 0
159 179 0
169 190 0
165 186 0
168 189 0
164 186 0
165 186 0
164 186 0
168 189 0
166 187 0
162 183 0
164 184 0
164 185 0
165 185 0
165 187 0
166 186 0
162 182 0
162 184 0
175 198 95
176 198 95
177 200 125
174 196 122
169 192 111
171 194 95
173 197 105
174 197 92
177 200 108
169 193 67
177 200 105
179 201 114
166 190 102
171 194 95
167 191 99
170 194 95
170 193 84
172 195 88
172 195 88
168 192 114
172 194 105
168 192 84
171 194 102
168 192 95
171 194 72
169 192 108
169 193 92
175 199 117
167 190 88
166 190 72
166 190 92
167 190 88
172 196 102
168 190 76
165 189 84
170 193 102
171 194 92
167 191 99
166 189 62
165 188 84
161 185 72
165 188 95
165 188 76
169 193 102
171 194 111
167 190 111
166 189 108
167 191 108
163 186 80
164 188 105
164 187 80
160 183 102
159 182 95
166 190 95
162 184 95
165 187 108
162 185 84
167 190 103
160 183 72
159 182 92
169 192 102
155 178 80
156 180 102
164 187 108
158 181 92
165 186 95
164 187 105
154 177 102
157 179 88
161 183 110
154 176 105
159 181 105
161 183 99
154 177 80
159 181 102
160 182 114
164 186 114
159 180 95
158 180 99
152 174 102
157 179 105
153 173 88
159 180 72
149 170 92
159 181 114
153 173 102
161 182 95
160 182 117
156 178 99
158 179 92
143 164 88
148 169 108
159 179 102
152 172 105
148 169 72
156 176 111
154 174 95
144 163 76
144 164 92
154 173 84
144 162 92
134 154 51
139 159 84
143 162 84
144 162 95
136 154 88
147 165 92
130 148 76
148 166 102
132 151 62
138 156 76
143 161 80
144 162 92
143 161 95
136 155 80
137 156 57
125 142 67
136 154 57
124 142 36
117 133 57
122 138 67
120 137 51
112 130 44
131 148 72
122 139 57
128 146 51
129 147 51
130 148 36
125 142 0
127 146 0
132 152 25
145 164 0
144 162 0
155 174 0
154 174 0
147 166 0
149 169 0
147 164 0
141 160 0
142 161 0
126 146 0
127 146 0
124 142 0
132 150 0
126 144 0
119 137 0
121 139 0
108 125 0
116 134 0
113 133 0
112 129 0
122 142 0
127 145 0
120 138 0
121 140 0
115 134 0
114 132 0
113 131 0
108 125 0
106 124 0
115 133 0
101 119 0
110 128 0
115 131 0
114 131 0
110 127 0
102 119 0
118 135 0
110 128 0
113 129 0
112 130 0
100 117 0
128 146 0
110 128 0
101 117 0
117 135 0
105 123 0
112 130 0
110 127 0
113 131 0
116 132 0
101 118 0
107 126 0
116 133 0
112 128 0
107 124 0
112 129 0
106 124 0
110 128 0
116 134 0
96 114 0
120 138 0
99 116 0
104 121 0
118 135 0
119 138 0
108 124 0
112 131 0
115 134 0
99 117 0
122 138 0
116 134 0
120 138 0
119 137 0
100 119 0
130 148 0
103 122 0
121 138 0
113 132 0
127 146 0
113 131 0
123 141 0
123 142 0
115 133 0
122 141 0
116 133 0
129 148 0
121 140 0
127 147 0
109 127 0
122 140 0
128 146 0
127 146 0
134 154 0
127 146 0
135 154 0
125 145 0
138 158 0
130 149 0
129 149 0
118 135 0
132 152 0
125 144 0
124 143 0
128 147 0
136 155 0
128 148 0
129 147 0
128 147 0
128 148 0
137 157 0
142 162 0
132 151 0
143 163 0
133 152 0
136 155 0
135 156 0
134 155 0
135 154 0
134 154 0
150 169 0
132 154 0
140 160 0
143 163 0
140 159 0
138 157 0
139 158 0
143 164 0
138 158 0
138 159 0
142 161 0
145 166 0
145 165 0
137 157 0
144 163 0
145 166 0
137 156 0
144 164 0
142 160 0
151 172 0
144 165 0
145 162 0
144 165 0
148 168 0
153 174 0
140 161 0
154 175 0
149 170 0
150 172 0
148 169 0
144 164 0
154 175 0
151 171 0
142 161 0
146 166 0
154 175 0
151 171 0
151 170 0
157 179 0
152 173 0
151 172 0
152 173 0
148 168 0
160 182 0
153 173 0
153 173 0
153 173 0
149 170 0
155 176 0
154 174 0
152 174 0
151 170 0
153 174 0
149 170 0
151 172 0
153 175 0
152 173 0
151 171 0
152 173 0
152 173 0
154 172 0
159 180 0
155 175 0
157 179 0
149 170 0
161 181 0
158 180 0
158 178 0
157 177 0
157 178 0
154 174 0
157 178 0
161 183 0
159 180 0
153 172 0
160 182 0
157 178 0
159 179 0
160 181 0
162 182 0
163 184 0
161 183 0
160 181 0
158 179 0
163 184 0
158 179 0
161 181 0
152 171 0
159 179 0
164 185 0
146 167 0
159 179 0
155 176 0
158 179 0
156 176 0
161 181 0
162 183 0
158 179 0
163 184 0
162 183 0
163 184 0
162 180 0
158 179 0
163 182 0
161 180 0
158 179 0
155 175 0
159 179 0
157 177 0
161 179 0
158 179 0
163 185 0
155 175 0
162 183 0
161 181 0
160 182 0
164 184 0
164 187 0
158 180 0
168 191 0
162 183 0
164 185 0
165 186 0
165 188 0
162 185 0
169 189 0
165 186 0
167 188 0
167 188 0
170 192 0
165 186 0
163 185 0
168 190 0
166 186 0
166 188 0
166 186 0
166 189 0
167 187 0
161 183 0
163 185 0
166 188 0
161 181 0
163 186 0
161 183 0
165 187 0
164 186 0
168 190 0
167 190 0
168 188 0
168 190 0
174 197 95
172 195 76
177 200 102
174 197 108
170 194 92
172 194 80
169 193 80
173 195 88
174 198 99
171 195 88
170 194 99
173 196 80
171 194 114
172 195 105
179 202 122
171 195 99
171 195 92
170 194 92
170 193 95
171 195 95
168 192 99
170 193 84
165 188 76
169 193 120
171 194 95
175 198 111
167 189 99
168 192 102
172 196 125
169 193 99
167 190 88
167 190 88
168 190 92
165 189 95
166 189 108
170 194 108
160 184 92
164 187 95
166 189 99
165 189 84
166 189 102
163 186 84
169 193 102
169 192 95
167 191 92
166 190 99
167 191 88
170 194 102
158 182 67
164 188 88
157 180 92
173 196 117
166 190 95
165 188 95
166 189 92
162 186 88
156 179 80
163 186 88
160 183 111
162 186 84
160 184 95
171 195 114
154 177 72
152 174 99
161 184 105
161 183 99
159 181 99
159 182 102
162 184 95
162 185 114
156 178 92
163 186 95
163 186 117
156 177 72
158 180 72
168 190 108
160 183 80
158 180 114
151 173 105
152 174 102
157 179 120
160 181 102
162 184 95
153 175 92
157 177 114
158 179 92
158 181 95
153 175 108
151 172 99
161 182 105
154 176 80
165 185 99
162 182 117
156 177 114
139 161 72
146 167 88
154 174 84
149 168 80
150 170 92
154 174 114
154 172 120
157 177 114
138 157 95
146 165 102
144 163 88
152 171 102
151 171 88
140 159 80
142 161 95
146 165 76
146 163 102
138 156 92
136 153 72
137 156 80
131 150 72
132 149 80
125 143 57
131 150 84
129 147 51
122 139 62
119 137 57
123 140 44
130 149 57
129 148 51
111 127 36
121 139 51
116 134 36
130 148 44
134 154 0
133 152 25
131 151 0
135 154 0
143 163 25
157 178 0
152 173 0
152 172 0
150 170 0
147 166 0
149 169 0
137 157 0
141 161 0
132 151 0
132 150 0
127 148 0
117 134 0
108 125 0
120 138 0
113 131 0
126 144 0
120 138 0
128 146 0
110 129 0
135 153 0
119 139 0
104 122 0
105 123 0
115 133 0
118 136 0
121 139 0
116 134 0
111 129 0
103 120 0
100 117 0
115 133 0
111 127 0
105 123 0
116 134 0
112 130 0
109 126 0
103 121 0
110 127 0
101 117 0
109 127 0
113 132 0
100 119 0
99 116 0
114 130 0
107 123 0
112 128 0
119 137 0
102 119 0
105 122 0
112 130 0
99 117 0
106 123 0
102 119 0
118 135 0
108 125 0
116 133 0
120 137 0
112 131 0
103 121 0
116 133 0
112 129 0
111 130 0
121 140 0
115 132 0
127 145 0
113 130 0
116 136 0
104 123 0
110 130 0
131 151 0
113 132 0
110 126 0
123 142 0
115 135 0
115 133 0
120 139 0
116 135 0
120 140 0
124 142 0
116 134 0
124 142 0
125 145 0
119 138 0
120 138 0
125 143 0
118 136 0
115 133 0
125 144 0
128 147 0
125 144 0
126 143 0
136 155 0
117 135 0
131 150 0
130 150 0
123 143 0
130 151 0
138 158 0
127 147 0
133 152 0
129 149 0
129 148 0
121 141 0
128 148 0
137 158 0
134 152 0
135 155 0
134 154 0
130 151 0
130 150 0
140 161 0
147 167 0
137 157 0
137 157 0
140 160 0
137 157 0
129 148 0
137 157 0
145 167 0
138 158 0
134 154 0
137 156 0
145 165 0
131 151 0
138 159 0
145 166 0
142 163 0
147 168 0
143 165 0
144 164 0
147 168 0
149 170 0
149 170 0
143 161 0
157 179 0
145 167 0
138 159 0
146 167 0
145 165 0
144 162 0
147 168 0
136 157 0
152 172 0
151 171 0
148 167 0
147 168 0
147 168 0
148 167 0
148 167 0
147 167 0
146 167 0
148 170 0
141 161 0
152 174 0
145 166 0
153 173 0
146 167 0
156 176 0
147 169 0
145 165 0
153 174 0
151 171 0
149 170 0
154 175 0
152 172 0
151 171 0
153 174 0
157 178 0
154 176 0
152 172 0
155 175 0
152 174 0
154 176 0
163 183 0
154 174 0
155 176 0
156 178 0
156 177 0
152 172 0
149 169 0
158 179 0
165 185 0
157 176 0
156 178 0
157 177 0
152 171 0
159 179 0
153 175 0
155 175 0
157 177 0
159 182 0
153 174 0
156 176 0
158 179 0
161 181 0
158 178 0
154 175 0
156 176 0
159 179 0
157 177 0
157 178 0
154 175 0
160 181 0
160 181 0
158 180 0
161 183 0
163 183 0
161 183 0
158 179 0
158 179 0
160 182 0
164 184 0
160 182 0
158 179 0
159 180 0
164 184 0
160 180 0
164 187 0
159 180 0
163 185 0
160 183 0
160 179 0
164 185 0
165 187 0
165 187 0
158 179 0
159 179 0
165 185 0
159 181 0
161 182 0
157 178 0
157 179 0
160 181 0
160 181 0
166 188 0
165 187 0
167 189 0
165 186 0
161 181 0
164 186 0
163 183 0
161 182 0
165 187 0
168 187 0
165 187 0
162 183 0
161 181 0
168 189 0
161 181 0
166 187 0
171 193 0
165 187 0
167 189 0
163 184 0
167 189 0
167 190 0
164 186 0
169 189 0
164 185 0
164 185 0
167 188 0
162 184 0
165 185 0
165 187 0
169 191 0
170 191 0
167 188 0
175 198 99
176 199 95
174 197 102
178 200 95
174 197 102
169 192 80
172 196 88
176 199 111
169 191 84
173 196 92
175 199 102
170 194 108
167 190 57
167 190 92
174 197 105
168 193 102
166 189 76
167 190 105
171 194 102
174 197 105
169 192 88
171 194 114
169 193 102
172 195 88
166 189 105
170 193 88
166 189 84
170 193 95
168 192 128
165 189 88
171 194 84
170 194 88
165 188 99
169 192 111
165 188 72
167 191 95
164 188 108
164 188 95
170 193 99
170 194 92
166 189 111
159 182 88
165 188 102
167 192 102
167 190 102
158 181 99
165 188 95
167 191 108
159 182 99
169 192 111
171 194 88
168 191 105
165 188 88
166 189 117
170 193 95
159 182 72
164 187 108
165 187 102
166 189 84
163 187 105
161 184 111
165 188 95
158 180 95
161 183 105
166 189 108
163 186 95
155 177 76
158 180 62
169 192 111
159 182 80
156 178 95
165 186 105
155 178 76
163 185 102
162 185 114
158 180 88
158 180 88
164 185 92
157 179 92
159 181 99
158 180 108
163 184 95
155 176 105
165 186 120
156 177 95
164 184 117
157 178 108
157 178 102
155 177 105
151 172 105
147 168 84
151 171 92
157 178 92
157 178 92
151 171 102
155 176 99
155 175 114
153 174 95
145 165 88
151 171 111
147 166 88
142 160 108
156 175 102
140 159 105
149 168 105
131 151 76
152 172 105
156 175 95
132 151 57
149 168 92
137 156 72
144 162 84
134 153 80
132 150 80
140 159 80
129 146 62
132 151 57
129 148 57
136 155 72
127 145 44
130 147 57
129 147 57
132 150 62
129 147 51
122 140 51
126 144 51
114 131 44
127 144 36
134 152 0
130 148 0
142 162 0
139 160 25
148 167 0
157 178 0
145 165 0
151 171 0
151 172 0
146 166 0
143 162 0
147 168 0
133 153 0
130 151 0
130 150 0
140 158 0
116 133 0
117 137 0
109 129 0
123 141 0
112 131 0
126 145 0
118 136 0
120 140 0
122 140 0
138 157 0
118 136 0
122 141 0
102 120 0
115 134 0
109 126 0
121 139 0
127 144 0
118 137 0
109 127 0
109 128 0
101 120 0
127 146 0
118 136 0
117 134 0
105 122 0
120 137 0
114 132 0
113 131 0
108 125 0
107 126 0
110 128 0
117 135 0
119 138 0
125 142 0
108 126 0
106 123 0
123 142 0
111 129 0
109 127 0
124 142 0
116 134 0
113 130 0
108 126 0
120 138 0
115 133 0
110 126 0
113 131 0
117 135 0
106 124 0
112 131 0
124 142 0
107 125 0
119 138 0
104 123 0
122 140 0
122 140 0
115 132 0
117 135 0
114 132 0
124 143 0
120 138 0
121 140 0
126 144 0
133 151 0
129 147 0
117 134 0
107 126 0
122 141 0
130 148 0
129 147 0
118 136 0
133 152 0
118 136 0
125 144 0
120 138 0
139 159 0
121 140 0
133 152 0
128 146 0
132 152 0
124 144 0
118 137 0
131 151 0
132 151 0
130 151 0
130 149 0
125 145 0
134 154 0
131 152 0
130 148 0
138 158 0
127 147 0
125 145 0
131 151 0
132 151 0
131 151 0
131 150 0
135 154 0
132 152 0
137 156 0
141 161 0
137 156 0
138 159 0
140 160 0
138 158 0
139 159 0
136 156 0
142 163 0
139 159 0
142 161 0
137 156 0
140 159 0
139 158 0
142 163 0
137 157 0
135 155 0
147 169 0
141 161 0
147 167 0
136 157 0
144 163 0
142 163 0
154 176 0
140 161 0
141 161 0
147 169 0
145 166 0
150 172 0
147 167 0
145 165 0
151 174 0
148 169 0
144 164 0
146 166 0
147 168 0
147 167 0
149 170 0
154 175 0
149 170 0
145 164 0
154 174 0
149 169 0
150 170 0
155 177 0
152 173 0
141 160 0
149 170 0
153 174 0
153 173 0
153 173 0
150 171 0
153 174 0
154 176 0
150 172 0
158 178 0
144 163 0
156 178 0
152 172 0
153 175 0
160 180 0
152 173 0
157 178 0
154 175 0
158 178 0
161 182 0
162 183 0
151 173 0
153 173 0
158 179 0
154 176 0
160 180 0
154 176 0
153 174 0
156 177 0
161 182 0
157 178 0
154 174 0
163 184 0
155 176 0
163 183 0
160 180 0
163 185 0
156 177 0
158 179 0
162 183 0
162 185 0
156 177 0
164 185 0
155 176 0
164 185 0
159 180 0
162 184 0
157 178 0
160 182 0
164 185 0
163 184 0
159 179 0
158 179 0
161 182 0
161 182 0
156 176 0
163 183 0
163 184 0
165 188 0
161 181 0
163 184 0
165 187 0
163 183 0
162 182 0
163 185 0
160 180 0
162 182 0
163 185 0
161 183 0
162 182 0
160 181 0
160 182 0
159 180 0
157 178 0
167 189 0
163 185 0
161 184 0
162 185 0
161 182 0
161 182 0
165 184 0
162 184 0
162 184 0
165 186 0
160 182 0
169 188 0
165 188 0
167 189 0
164 185 0
165 186 0
163 185 0
165 188 0
163 186 0
168 190 0
167 188 0
163 185 0
166 187 0
165 185 0
170 192 0
168 189 0
169 191 0
164 184 0
163 185 0
166 187 0
163 184 0
170 191 0
162 184 0
166 188 0
160 182 0
161 183 0
166 187 0
177 199 117
176 200 111
181 203 135
168 192 102
171 194 111
176 200 105
171 194 88
174 198 95
168 191 95
170 193 95
169 192 105
171 194 92
165 188 88
170 194 111
170 194 92
175 198 105
168 192 80
165 188 84
169 193 117
169 193 95
172 195 76
164 187 84
172 196 114
166 189 80
169 193 80
168 191 117
171 194 99
170 193 102
165 188 72
168 192 108
166 190 95
169 192 99
170 193 99
170 194 92
172 196 111
165 189 99
168 191 84
168 191 102
163 186 84
167 189 88
167 190 99
172 195 114
168 191 95
164 189 114
170 193 84
164 187 76
162 185 99
159 182 80
174 197 105
156 179 88
164 187 99
163 186 84
165 188 88
161 184 105
163 186 102
164 187 108
158 181 84
167 190 122
161 183 88
161 185 88
161 184 88
162 186 105
166 187 92
168 192 92
159 182 99
155 178 92
161 185 88
163 186 99
162 185 105
162 184 111
165 187 108
165 187 88
154 177 80
159 182 92
162 185 108
161 184 105
158 180 99
158 179 88
168 190 114
155 177 57
157 179 84
158 180 84
158 179 117
161 183 105
164 186 99
154 176 92
153 175 108
161 182 102
152 173 105
157 178 102
146 167 88
157 178 88
163 184 108
152 173 92
150 171 76
152 172 105
154 175 99
146 165 99
154 174 99
146 167 92
138 158 84
161 181 120
154 174 99
149 168 88
151 169 108
148 167 111
150 168 105
143 162 88
145 164 88
141 160 95
151 169 80
139 158 92
136 155 80
139 159 57
150 169 99
139 157 72
140 158 88
137 157 62
130 149 25
136 155 44
131 149 51
129 148 44
134 151 57
137 155 76
126 144 36
128 146 51
122 140 0
128 147 25
134 153 0
131 150 25
121 139 36
133 153 25
147 167 0
155 176 0
153 174 0
151 172 0
148 168 0
145 165 0
143 164 0
139 159 0
138 158 0
132 151 0
139 159 0
126 146 0
132 151 0
130 148 0
110 128 0
122 141 0
120 138 0
118 137 0
123 142 0
135 154 0
127 146 0
117 137 0
129 148 0
109 127 0
113 131 0
125 144 0
111 129 0
118 136 0
110 128 0
114 133 0
107 125 0
110 128 0
120 139 0
100 117 0
118 136 0
114 131 0
121 140 0
117 135 0
102 120 0
112 130 0
123 142 0
118 136 0
119 137 0
104 121 0
116 135 0
118 135 0
114 132 0
112 130 0
113 130 0
114 132 0
107 125 0
86 104 0
112 130 0
106 124 0
123 142 0
108 126 0
126 145 0
115 134 0
113 132 0
116 134 0
113 131 0
111 128 0
105 124 0
110 129 0
120 139 0
115 133 0
119 136 0
126 144 0
122 141 0
134 153 0
119 136 0
109 128 0
112 129 0
111 130 0
126 144 0
121 140 0
131 150 0
129 146 0
124 142 0
117 138 0
123 142 0
121 140 0
121 139 0
138 158 0
114 135 0
124 144 0
137 156 0
115 134 0
129 148 0
131 150 0
119 139 0
125 144 0
132 150 0
135 155 0
132 153 0
134 154 0
133 151 0
127 145 0
130 149 0
139 159 0
131 151 0
143 163 0
136 156 0
130 150 0
137 156 0
135 155 0
137 157 0
141 158 0
137 156 0
131 149 0
137 157 0
135 156 0
138 158 0
138 158 0
132 150 0
144 165 0
144 165 0
143 164 0
142 163 0
129 150 0
145 165 0
139 158 0
141 162 0
141 162 0
141 161 0
145 165 0
146 168 0
147 167 0
142 162 0
145 165 0
134 156 0
147 168 0
138 157 0
144 165 0
137 155 0
148 168 0
146 166 0
136 157 0
142 163 0
146 167 0
145 166 0
143 164 0
144 165 0
146 166 0
142 162 0
154 173 0
149 169 0
153 174 0
147 168 0
148 170 0
149 169 0
148 169 0
156 177 0
153 173 0
152 173 0
153 173 0
143 163 0
146 166 0
153 174 0
148 169 0
155 177 0
155 176 0
152 173 0
149 171 0
149 170 0
153 175 0
153 175 0
152 173 0
156 177 0
156 175 0
150 172 0
162 183 0
155 177 0
156 177 0
154 175 0
148 168 0
155 177 0
159 180 0
158 179 0
158 179 0
156 177 0
158 179 0
157 177 0
156 176 0
159 180 0
160 181 0
151 171 0
154 174 0
153 173 0
155 175 0
159 179 0
162 183 0
158 178 0
154 174 0
154 175 0
158 177 0
158 177 0
162 184 0
154 176 0
155 176 0
162 184 0
166 186 0
157 178 0
155 175 0
160 181 0
159 179 0
157 179 0
159 180 0
157 179 0
160 180 0
161 183 0
161 182 0
156 176 0
160 182 0
160 182 0
163 185 0
159 179 0
163 184 0
158 178 0
156 177 0
163 185 0
158 180 0
163 183 0
161 184 0
166 187 0
166 187 0
162 182 0
168 189 0
169 191 0
164 187 0
165 187 0
160 179 0
165 187 0
159 181 0
165 185 0
165 185 0
160 181 0
158 178 0
165 184 0
168 189 0
169 190 0
169 188 0
162 183 0
164 186 0
167 188 0
163 184 0
165 186 0
161 182 0
163 185 0
164 186 0
164 185 0
162 180 0
165 187 0
163 183 0
165 186 0
166 187 0
169 190 0
165 187 0
167 189 0
168 190 0
160 182 0
164 186 0
165 188 0
168 190 0
162 184 0
163 185 0
166 187 0
163 185 0
170 193 99
174 197 99
175 198 105
175 198 95
172 195 122
167 190 88
174 196 99
175 197 108
176 198 92
169 193 80
172 195 102
168 191 108
172 195 105
171 193 105
174 197 99
173 196 99
172 195 90
174 197 105
164 188 72
167 190 84
164 187 92
173 196 102
175 198 102
166 189 105
168 191 95
169 193 102
166 190 92
167 191 92
170 193 108
169 193 92
169 192 80
168 191 92
172 196 111
165 187 80
173 197 108
166 190 92
168 191 95
168 191 92
165 188 99
168 192 102
169 191 88
171 194 105
159 182 92
167 190 105
167 191 105
167 191 111
166 188 95
164 188 99
170 193 108
162 185 72
171 193 108
168 191 111
163 187 111
163 186 105
167 190 105
165 187 95
157 181 84
163 186 92
168 191 95
170 192 102
166 189 102
164 187 76
161 184 88
166 189 108
163 186 99
162 185 117
157 180 105
160 183 84
159 181 99
161 183 76
164 186 108
157 179 88
166 188 108
162 185 88
164 186 117
159 181 88
156 177 88
158 179 105
161 182 99
160 181 92
155 176 88
159 181 120
165 187 102
164 185 120
155 177 95
162 184 105
164 185 105
152 172 76
163 184 117
157 178 108
157 178 102
156 177 108
156 177 120
146 166 92
160 180 105
147 167 105
151 171 111
156 177 102
151 171 114
154 175 80
159 179 114
146 166 99
151 171 102
158 177 99
146 166 88
150 170 76
144 162 102
145 163 92
148 167 80
145 165 95
145 162 111
153 172 108
135 153 67
134 152 76
133 153 44
126 145 57
132 152 62
126 145 44
134 152 62
130 149 44
136 155 51
127 145 25
130 149 51
144 162 57
139 158 62
121 141 25
129 148 25
140 158 44
131 151 36
122 142 25
134 152 36
140 161 25
148 169 0
155 175 0
153 174 0
151 171 0
154 175 0
155 177 0
138 158 0
141 161 0
135 155 0
137 157 0
127 146 0
139 158 0
132 150 0
128 149 0
128 148 0
122 141 0
120 138 0
124 144 0
125 146 0
131 151 0
120 140 0
126 146 0
118 136 0
129 148 0
119 138 0
133 153 0
117 136 0
110 129 0
127 145 0
117 135 0
127 144 0
115 133 0
121 139 0
124 142 0
124 143 0
113 131 0
120 139 0
114 134 0
109 127 0
125 143 0
108 126 0
113 130 0
115 133 0
119 137 0
119 138 0
106 123 0
112 131 0
124 141 0
120 138 0
119 137 0
119 138 0
112 130 0
103 122 0
126 144 0
98 116 0
122 140 0
113 131 0
122 140 0
118 136 0
112 130 0
115 134 0
116 135 0
113 131 0
125 144 0
123 141 0
125 144 0
115 134 0
124 143 0
127 146 0
128 146 0
132 150 0
127 145 0
121 140 0
122 141 0
129 148 0
115 134 0
115 135 0
114 133 0
112 130 0
131 150 0
118 136 0
122 141 0
124 143 0
125 143 0
114 132 0
119 139 0
129 148 0
120 139 0
118 137 0
121 141 0
135 156 0
134 152 0
125 145 0
129 148 0
132 152 0
138 156 0
140 159 0
129 150 0
133 152 0
127 146 0
127 148 0
134 153 0
137 158 0
140 160 0
123 141 0
137 156 0
138 158 0
136 158 0
138 159 0
144 164 0
143 163 0
135 153 0
142 162 0
136 157 0
142 162 0
142 162 0
144 165 0
144 164 0
135 155 0
138 158 0
139 159 0
136 157 0
139 161 0
141 161 0
141 161 0
149 170 0
147 168 0
138 158 0
143 162 0
143 162 0
147 168 0
147 168 0
144 164 0
146 165 0
142 162 0
154 175 0
144 164 0
141 162 0
141 162 0
140 161 0
146 167 0
149 170 0
146 166 0
150 167 0
149 169 0
147 167 0
154 174 0
154 175 0
149 170 0
150 170 0
155 175 0
149 170 0
146 167 0
155 176 0
151 170 0
153 174 0
150 172 0
154 175 0
154 176 0
150 172 0
152 172 0
152 173 0
151 171 0
159 181 0
157 178 0
157 177 0
153 174 0
148 169 0
154 176 0
161 183 0
154 174 0
151 172 0
156 178 0
146 165 0
154 175 0
151 171 0
158 179 0
157 178 0
148 170 0
152 174 0
152 172 0
156 177 0
159 179 0
155 176 0
154 175 0
154 173 0
161 183 0
158 179 0
155 178 0
157 180 0
162 183 0
161 182 0
164 186 0
162 184 0
155 177 0
157 178 0
156 177 0
158 178 0
161 182 0
157 178 0
161 180 0
165 188 0
157 177 0
161 181 0
160 181 0
166 187 0
159 181 0
158 180 0
158 180 0
160 181 0
166 186 0
164 184 0
163 184 0
163 184 0
158 179 0
154 175 0
164 184 0
163 183 0
163 185 0
166 186 0
163 186 0
163 184 0
155 176 0
161 182 0
163 183 0
160 182 0
157 178 0
165 188 0
164 185 0
162 184 0
161 182 0
165 185 0
165 186 0
165 186 0
159 180 0
165 186 0
159 181 0
166 187 0
159 179 0
161 181 0
161 182 0
164 185 0
165 186 0
170 191 0
161 183 0
165 187 0
165 187 0
161 182 0
163 184 0
166 186 0
157 179 0
166 186 0
164 185 0
164 187 0
161 181 0
165 187 0
165 187 0
168 189 0
167 189 0
167 188 0
170 192 0
171 193 0
163 185 0
166 188 0
162 184 0
169 192 0
164 186 0
165 188 0
175 197 111
173 197 95
171 194 95
176 198 108
174 196 99
170 194 92
171 194 108
171 194 99
175 197 88
172 195 114
166 190 95
170 194 92
168 192 88
167 191 88
167 190 102
175 198 122
171 195 99
171 194 88
170 193 111
170 193 99
164 186 99
169 192 88
174 197 102
172 195 76
167 191 108
170 193 76
174 198 108
169 193 88
170 193 111
169 193 92
172 195 114
168 192 105
167 190 95
168 191 84
168 191 84
165 189 92
166 189 92
166 190 92
165 189 92
173 196 111
167 190 92
171 194 92
164 187 108
165 188 105
162 185 88
162 185 95
167 190 117
164 187 80
163 186 84
163 186 88
163 186 80
170 193 108
163 187 92
168 190 95
166 189 88
156 180 99
160 183 108
163 186 105
166 188 99
154 176 84
164 187 95
164 187 84
159 182 92
166 189 95
165 187 92
167 189 105
159 181 108
161 184 62
161 184 105
165 188 95
163 185 105
156 179 80
154 176 95
155 177 88
158 180 95
163 185 111
162 184 102
160 182 108
160 182 108
163 184 92
165 188 99
158 179 92
156 178 108
163 185 111
161 182 114
159 181 92
158 180 76
161 182 105
159 180 114
148 169 95
146 166 99
150 171 88
157 177 95
152 172 92
159 179 84
165 186 108
154 175 102
154 174 105
146 167 92
157 177 111
155 174 92
143 163 84
143 161 95
152 172 105
149 168 99
151 170 108
146 164 105
139 158 80
146 165 88
148 167 88
143 162 102
143 163 95
144 163 80
151 169 99
143 162 67
141 160 62
123 142 51
141 161 62
142 162 57
132 151 25
134 154 57
132 151 51
131 149 62
139 158 62
127 147 25
143 162 62
126 145 25
136 157 36
137 156 0
137 157 25
135 156 0
131 152 0
147 167 0
160 181 0
154 175 0
141 163 0
143 163 0
144 163 0
148 168 0
136 157 0
134 155 0
139 158 0
130 151 0
120 140 0
131 150 0
132 151 0
121 141 0
112 130 0
121 141 0
136 154 0
127 147 0
128 148 0
123 143 0
119 138 0
133 152 0
117 135 0
119 138 0
118 137 0
122 142 0
112 130 0
105 123 0
116 135 0
127 145 0
120 137 0
116 135 0
118 137 0
113 132 0
122 140 0
115 133 0
120 138 0
125 144 0
109 127 0
115 135 0
119 138 0
114 133 0
112 131 0
110 129 0
112 130 0
110 128 0
124 143 0
130 148 0
126 145 0
110 129 0
127 145 0
114 131 0
125 144 0
110 127 0
131 149 0
114 133 0
130 148 0
122 140 0
118 135 0
121 140 0
124 142 0
104 123 0
119 135 0
124 141 0
122 140 0
115 133 0
122 141 0
118 137 0
115 134 0
114 133 0
120 139 0
121 139 0
114 133 0
128 146 0
120 139 0
113 131 0
120 139 0
129 147 0
134 153 0
112 131 0
112 130 0
127 147 0
134 154 0
133 151 0
118 136 0
128 147 0
130 151 0
131 152 0
138 158 0
124 142 0
132 151 0
131 152 0
132 152 0
126 146 0
134 154 0
121 141 0
137 158 0
132 152 0
126 146 0
124 143 0
132 151 0
123 142 0
129 149 0
141 161 0
138 157 0
142 163 0
139 160 0
132 152 0
136 154 0
138 156 0
136 157 0
143 163 0
144 163 0
146 164 0
137 158 0
145 166 0
142 163 0
145 165 0
133 153 0
139 159 0
150 172 0
154 174 0
137 157 0
141 161 0
147 167 0
140 159 0
137 157 0
153 172 0
147 167 0
148 168 0
146 166 0
142 162 0
146 167 0
142 163 0
148 169 0
148 168 0
146 166 0
144 163 0
152 173 0
138 159 0
150 171 0
132 152 0
153 174 0
149 168 0
143 164 0
151 170 0
152 173 0
148 170 0
147 168 0
154 175 0
147 168 0
147 167 0
132 152 0
155 176 0
155 175 0
152 174 0
159 180 0
152 173 0
155 175 0
158 180 0
146 167 0
151 173 0
155 176 0
157 179 0
154 175 0
149 170 0
149 170 0
151 172 0
151 173 0
151 171 0
153 174 0
147 166 0
159 178 0
150 171 0
158 177 0
158 179 0
156 177 0
155 176 0
163 183 0
155 175 0
159 182 0
148 167 0
155 177 0
160 182 0
156 177 0
158 179 0
161 184 0
159 180 0
151 173 0
162 183 0
162 184 0
155 177 0
157 177 0
164 187 0
157 179 0
155 176 0
159 180 0
154 175 0
164 185 0
160 181 0
161 182 0
162 184 0
163 184 0
152 173 0
161 182 0
157 178 0
159 181 0
155 177 0
159 180 0
159 180 0
164 185 0
160 182 0
156 175 0
153 172 0
154 176 0
158 179 0
162 184 0
163 184 0
159 180 0
165 186 0
160 182 0
167 189 0
160 180 0
162 183 0
159 180 0
165 185 0
163 185 0
162 182 0
167 188 0
163 184 0
165 186 0
161 182 0
165 187 0
163 186 0
165 189 0
155 176 0
162 184 0
159 180 0
161 183 0
165 187 0
161 183 0
168 189 0
165 188 0
163 186 0
165 184 0
163 182 0
165 186 0
166 187 0
163 186 0
163 186 0
167 189 0
164 186 0
166 188 0
169 190 0
166 187 0
167 189 0
165 187 0
170 192 0
164 184 0
163 185 0
165 186 0
168 189 0
168 190 0
164 185 0
164 186 0
166 188 0
167 187 0
174 197 88
172 196 111
178 201 102
178 200 117
171 194 84
170 193 99
170 193 108
168 192 92
172 195 102
173 197 80
172 195 125
172 196 80
171 195 111
171 194 80
171 193 99
171 194 88
167 191 84
177 199 114
169 192 99
174 198 108
170 193 88
171 194 111
170 193 95
176 199 114
165 188 72
169 192 114
170 193 80
174 197 99
166 189 99
168 192 95
169 193 108
162 186 99
170 193 80
168 191 84
173 197 92
172 195 120
168 192 114
168 191 117
166 189 80
163 186 84
169 192 95
162 186 80
169 192 108
165 189 99
168 190 76
168 190 99
171 194 102
158 182 111
164 186 84
163 186 102
162 185 80
161 185 95
167 189 102
167 190 95
161 184 80
161 185 111
159 182 80
161 183 108
163 186 92
155 178 99
162 186 117
163 185 108
157 180 102
164 187 114
164 187 88
166 189 95
158 180 99
162 183 84
157 179 76
158 180 92
157 180 95
158 181 80
162 185 80
165 187 95
157 179 99
154 177 95
163 185 95
158 181 92
152 174 72
164 186 102
166 187 88
155 177 84
162 183 117
154 175 105
159 181 88
156 178 95
152 173 76
166 186 114
159 180 92
154 174 95
152 173 72
153 174 99
148 169 72
155 176 76
153 173 62
152 172 105
156 177 99
151 172 95
151 171 92
157 177 99
154 175 102
158 178 99
139 159 76
157 178 88
146 166 88
148 167 95
157 176 95
155 174 95
140 158 80
156 175 105
150 170 105
142 161 62
153 172 84
136 155 62
144 163 95
144 164 92
132 150 72
133 153 36
138 157 57
128 147 25
136 155 51
140 159 57
141 160 44
140 159 51
144 164 44
140 160 44
144 164 36
145 165 25
132 151 25
135 155 36
137 157 0
131 150 0
153 174 36
158 179 0
157 177 0
161 183 0
146 167 0
150 171 0
141 161 0
144 162 0
143 162 0
133 154 0
137 157 0
139 160 0
119 138 0
140 160 0
126 145 0
118 136 0
120 139 0
122 142 0
126 145 0
120 140 0
124 142 0
117 136 0
123 142 0
122 140 0
123 142 0
127 146 0
118 135 0
127 147 0
111 131 0
117 136 0
133 153 0
113 132 0
128 147 0
126 144 0
110 129 0
114 133 0
110 128 0
113 133 0
122 141 0
118 135 0
113 132 0
114 133 0
103 121 0
109 127 0
123 142 0
120 139 0
110 128 0
119 138 0
113 132 0
121 139 0
120 138 0
121 139 0
115 134 0
107 127 0
109 128 0
123 142 0
115 132 0
125 143 0
121 139 0
119 136 0
117 135 0
130 149 0
119 138 0
111 128 0
112 131 0
114 133 0
125 145 0
120 139 0
103 122 0
136 156 0
115 133 0
124 143 0
126 144 0
119 140 0
135 155 0
127 145 0
126 145 0
130 149 0
123 142 0
126 145 0
124 141 0
119 138 0
122 141 0
131 151 0
127 147 0
121 141 0
123 141 0
123 142 0
130 150 0
130 151 0
130 150 0
132 152 0
128 148 0
143 164 0
132 153 0
139 159 0
140 160 0
139 160 0
138 158 0
135 155 0
136 156 0
144 164 0
134 153 0
144 164 0
136 157 0
136 157 0
137 157 0
137 158 0
131 151 0
132 152 0
145 166 0
138 159 0
139 159 0
141 162 0
137 157 0
132 151 0
138 157 0
142 162 0
144 165 0
142 161 0
138 159 0
143 165 0
149 169 0
144 164 0
145 166 0
138 159 0
146 166 0
150 170 0
152 174 0
151 173 0
146 168 0
147 167 0
146 166 0
147 167 0
151 173 0
147 167 0
152 172 0
140 160 0
142 163 0
148 169 0
153 176 0
145 166 0
147 166 0
148 169 0
150 170 0
147 167 0
146 168 0
147 167 0
148 167 0
156 177 0
156 176 0
151 172 0
154 174 0
155 177 0
159 180 0
151 173 0
153 174 0
157 177 0
151 171 0
151 171 0
164 184 0
151 173 0
152 173 0
152 174 0
153 174 0
153 174 0
156 177 0
154 174 0
156 178 0
153 176 0
152 174 0
157 177 0
157 177 0
156 180 0
154 174 0
152 174 0
156 176 0
162 183 0
157 178 0
157 179 0
150 172 0
158 180 0
158 179 0
158 179 0
159 181 0
158 180 0
158 179 0
159 179 0
164 184 0
158 180 0
155 176 0
161 182 0
161 180 0
151 172 0
161 181 0
155 177 0
164 185 0
156 175 0
162 183 0
161 182 0
163 184 0
156 178 0
160 180 0
160 182 0
157 179 0
158 179 0
161 183 0
162 183 0
161 184 0
159 179 0
164 185 0
158 178 0
160 182 0
163 185 0
159 179 0
168 189 0
166 187 0
161 183 0
165 186 0
167 187 0
160 183 0
159 180 0
163 184 0
165 186 0
166 187 0
160 181 0
162 183 0
163 185 0
161 181 0
162 184 0
161 183 0
162 183 0
164 186 0
165 187 0
156 178 0
166 188 0
158 179 0
171 192 0
164 186 0
166 186 0
167 189 0
163 183 0
164 186 0
168 189 0
166 188 0
164 185 0
165 187 0
166 188 0
165 186 0
168 192 0
163 186 0
163 185 0
170 192 0
166 187 0
166 187 0
167 189 0
167 189 0
161 181 0
165 187 0
165 188 0
166 189 0
167 190 0
168 190 0
163 184 0
167 188 0
168 190 0
166 188 0
166 188 0
175 198 120
171 195 95
179 202 125
173 195 88
169 193 84
171 195 102
174 196 114
170 193 88
172 195 80
178 201 105
171 194 111
169 192 80
170 193 90
169 193 88
170 194 99
173 196 99
175 198 102
168 191 84
169 193 84
167 189 88
168 192 102
172 195 111
169 192 99
165 188 92
172 195 108
167 191 92
167 191 88
166 190 92
174 197 92
171 195 111
169 192 92
170 194 102
168 191 111
168 192 95
161 184 92
166 189 99
168 192 92
167 190 99
173 197 114
166 189 99
168 192 114
167 190 80
171 195 117
163 187 99
166 189 84
170 194 92
164 187 76
162 185 102
162 185 99
160 183 92
164 188 99
166 189 105
166 189 88
161 184 84
162 185 80
162 184 92
163 185 95
164 186 99
165 187 92
165 188 99
160 183 92
170 192 99
154 176 80
156 179 76
160 182 88
161 184 114
162 185 108
163 186 92
167 189 102
161 183 99
164 185 111
164 187 95
159 183 92
160 182 102
156 179 111
160 182 88
160 182 88
154 175 76
162 185 102
161 183 92
160 182 88
156 177 102
162 184 99
163 185 95
158 179 92
161 181 88
152 173 99
164 187 92
155 175 88
165 187 105
156 177 92
160 180 108
153 174 88
152 173 80
157 178 80
149 169 84
157 177 102
151 171 92
155 176 102
155 175 105
161 182 111
156 176 102
156 175 114
154 174 92
155 174 88
162 181 108
152 171 105
155 175 84
148 167 80
149 167 95
155 174 92
148 167 80
143 162 67
138 156 80
132 153 62
138 158 62
140 158 57
143 163 67
139 158 51
145 165 44
139 158 25
136 155 57
145 165 76
143 162 62
137 156 51
130 150 36
138 158 36
125 145 0
138 157 51
132 151 0
134 153 36
138 159 25
160 183 0
156 177 0
155 178 0
160 183 0
145 166 0
148 170 0
148 170 0
142 162 0
138 159 0
138 159 0
140 161 0
134 155 0
126 146 0
113 134 0
133 153 0
125 144 0
122 140 0
120 140 0
130 150 0
128 147 0
127 146 0
135 155 0
128 149 0
129 148 0
121 141 0
121 141 0
117 137 0
127 145 0
131 151 0
110 129 0
129 148 0
121 140 0
123 142 0
108 126 0
119 138 0
131 151 0
122 141 0
118 138 0
117 135 0
111 129 0
124 142 0
122 142 0
127 147 0
116 135 0
123 142 0
117 136 0
133 152 0
114 132 0
120 139 0
126 145 0
111 130 0
121 140 0
131 150 0
121 138 0
114 133 0
114 133 0
120 138 0
116 135 0
118 137 0
122 139 0
130 149 0
125 145 0
127 147 0
115 134 0
123 142 0
125 145 0
127 146 0
128 148 0
120 139 0
131 152 0
117 135 0
125 145 0
127 146 0
137 158 0
121 140 0
123 143 0
126 145 0
126 145 0
136 156 0
128 148 0
122 141 0
133 153 0
129 149 0
124 144 0
127 146 0
135 155 0
134 154 0
136 154 0
130 150 0
127 146 0
130 149 0
143 164 0
131 152 0
138 157 0
137 157 0
139 159 0
136 158 0
138 159 0
136 156 0
136 157 0
139 160 0
139 160 0
135 154 0
136 155 0
135 154 0
137 156 0
129 149 0
144 164 0
138 158 0
146 166 0
136 157 0
135 156 0
144 163 0
139 159 0
142 163 0
135 155 0
143 164 0
136 155 0
142 163 0
142 162 0
139 161 0
150 172 0
152 172 0
140 161 0
144 165 0
141 160 0
149 170 0
145 166 0
150 170 0
156 177 0
149 169 0
146 167 0
149 170 0
141 162 0
151 172 0
150 170 0
152 173 0
150 172 0
149 171 0
152 174 0
151 173 0
150 169 0
154 175 0
154 175 0
139 160 0
152 173 0
156 176 0
145 165 0
148 170 0
154 175 0
158 180 0
156 178 0
144 164 0
153 174 0
151 172 0
159 179 0
145 167 0
152 172 0
147 167 0
155 176 0
158 180 0
150 171 0
150 169 0
152 174 0
147 166 0
144 166 0
154 176 0
152 172 0
160 180 0
160 180 0
162 182 0
149 171 0
158 180 0
154 176 0
154 176 0
158 178 0
150 172 0
152 173 0
159 179 0
154 174 0
156 177 0
154 175 0
161 181 0
156 177 0
163 186 0
158 179 0
160 181 0
158 181 0
151 172 0
159 180 0
159 181 0
153 172 0
159 180 0
158 178 0
165 186 0
161 183 0
161 182 0
162 183 0
161 182 0
158 180 0
160 180 0
155 175 0
162 184 0
162 184 0
160 181 0
162 182 0
158 180 0
165 186 0
160 181 0
159 181 0
160 182 0
158 178 0
162 184 0
162 184 0
158 179 0
158 179 0
162 184 0
158 179 0
163 184 0
166 187 0
163 183 0
159 180 0
165 186 0
161 182 0
164 185 0
162 183 0
164 184 0
162 182 0
163 182 0
163 183 0
159 180 0
164 186 0
163 182 0
164 184 0
164 186 0
160 182 0
165 188 0
161 182 0
164 187 0
165 185 0
164 185 0
164 184 0
160 182 0
163 185 0
161 183 0
168 191 0
166 189 0
165 186 0
163 185 0
168 189 0
166 188 0
161 182 0
169 190 0
164 185 0
161 182 0
166 186 0
166 188 0
165 186 0
165 186 0
165 185 0
166 187 0
169 191 0
164 185 0
166 188 0
170 192 0
166 188 0
166 188 0
169 192 0
173 195 92
176 200 108
174 197 108
175 198 108
170 193 92
168 192 80
173 196 99
171 194 80
173 196 95
171 194 111
166 190 102
174 197 128
171 195 122
167 190 99
171 194 88
172 195 88
171 194 95
171 194 92
173 197 108
168 192 95
176 199 120
165 188 72
168 192 84
166 190 62
167 191 88
170 193 117
174 197 95
168 191 105
169 193 92
167 190 92
166 189 92
162 185 67
163 186 88
166 189 88
165 188 72
168 192 102
167 191 88
169 192 84
161 185 102
166 190 120
166 189 99
168 191 102
165 187 95
163 186 72
162 185 99
160 183 95
166 188 92
169 192 117
165 188 95
164 187 99
173 195 111
163 186 102
163 186 99
167 190 105
167 190 88
155 178 95
161 184 80
160 183 84
159 182 92
168 191 99
162 184 76
157 181 88
160 183 67
160 183 114
161 184 95
155 177 88
159 181 84
163 186 80
163 185 76
159 181 72
162 184 108
164 187 88
163 184 95
159 182 99
161 183 105
168 190 84
159 181 88
152 174 80
153 175 88
165 187 117
159 181 108
157 179 105
164 185 99
158 179 88
159 181 92
149 170 92
154 176 84
160 182 84
161 183 102
157 179 99
155 175 99
146 166 95
161 183 105
159 179 99
157 178 105
157 178 88
151 171 88
156 176 99
157 176 111
150 169 95
157 177 88
152 171 111
156 175 108
154 173 88
149 169 108
146 166 84
153 172 105
150 169 84
145 163 108
154 174 80
149 168 92
151 171 76
154 174 84
143 162 62
149 168 95
129 148 72
135 155 72
131 152 36
145 165 62
140 158 44
137 157 51
133 153 44
133 152 57
144 164 44
133 152 51
137 157 36
131 150 44
119 139 25
140 160 0
140 161 0
142 162 0
146 167 0
155 176 0
157 179 0
149 171 0
152 173 0
156 179 0
144 165 0
135 157 0
141 161 0
150 172 0
137 158 0
141 161 0
133 154 0
136 155 0
125 144 0
126 145 0
134 153 0
132 152 0
136 157 0
135 156 0
136 155 0
128 148 0
120 139 0
122 141 0
126 145 0
118 138 0
120 141 0
128 147 0
118 137 0
127 145 0
124 143 0
120 139 0
119 137 0
115 134 0
116 135 0
122 139 0
124 144 0
124 142 0
118 137 0
128 147 0
118 138 0
113 132 0
118 138 0
116 135 0
125 145 0
124 143 0
132 151 0
128 146 0
132 151 0
123 142 0
120 139 0
129 149 0
114 133 0
125 145 0
116 135 0
121 140 0
120 139 0
114 133 0
124 144 0
129 148 0
130 148 0
122 142 0
123 142 0
128 149 0
130 150 0
124 144 0
110 128 0
118 137 0
125 144 0
126 144 0
123 142 0
124 143 0
126 145 0
120 140 0
130 150 0
120 138 0
137 156 0
133 152 0
117 135 0
125 145 0
133 152 0
134 153 0
132 151 0
136 155 0
127 147 0
140 160 0
133 152 0
130 151 0
130 150 0
130 151 0
125 143 0
129 149 0
118 137 0
127 149 0
135 155 0
136 156 0
140 161 0
133 153 0
138 159 0
137 159 0
144 164 0
136 155 0
132 151 0
136 157 0
137 157 0
137 158 0
144 165 0
147 168 0
135 155 0
141 162 0
142 162 0
138 158 0
138 159 0
148 168 0
139 157 0
144 165 0
141 162 0
141 162 0
129 149 0
145 166 0
137 157 0
142 163 0
151 173 0
144 164 0
137 157 0
141 162 0
140 160 0
147 168 0
148 169 0
144 165 0
145 166 0
146 167 0
151 172 0
145 166 0
152 172 0
146 166 0
144 164 0
151 171 0
149 170 0
154 177 0
150 171 0
141 160 0
151 172 0
150 172 0
148 170 0
150 170 0
147 167 0
149 170 0
153 173 0
146 166 0
145 166 0
154 175 0
157 180 0
152 173 0
157 179 0
148 170 0
152 172 0
147 168 0
160 181 0
159 180 0
149 170 0
151 171 0
151 173 0
153 174 0
149 170 0
153 174 0
149 171 0
150 172 0
149 171 0
152 173 0
155 178 0
158 179 0
155 175 0
153 174 0
152 171 0
159 180 0
157 178 0
156 178 0
156 177 0
157 178 0
156 176 0
162 183 0
159 179 0
153 173 0
158 178 0
156 178 0
158 180 0
157 178 0
154 175 0
159 180 0
161 181 0
158 179 0
156 179 0
158 179 0
162 183 0
152 174 0
156 179 0
165 186 0
163 185 0
165 186 0
157 179 0
158 179 0
159 178 0
157 179 0
159 179 0
164 184 0
161 183 0
165 188 0
148 168 0
163 184 0
161 183 0
165 186 0
161 183 0
164 185 0
166 188 0
161 179 0
160 181 0
162 182 0
163 186 0
162 185 0
161 184 0
164 185 0
163 185 0
166 187 0
157 177 0
161 183 0
163 185 0
162 183 0
161 183 0
164 185 0
166 187 0
166 187 0
162 182 0
162 184 0
164 186 0
164 185 0
165 186 0
164 185 0
163 185 0
163 184 0
162 182 0
163 185 0
165 187 0
167 189 0
164 185 0
168 191 0
167 189 0
160 182 0
164 186 0
165 188 0
166 188 0
167 189 0
165 187 0
168 190 0
168 188 0
162 184 0
167 189 0
168 190 0
169 191 0
161 183 0
170 192 0
168 191 0
170 192 0
165 186 0
172 194 0
166 188 0
168 190 0
163 185 0
164 186 0
171 194 88
178 200 108
172 195 76
176 199 108
168 191 88
173 196 102
175 199 99
176 199 95
166 189 76
170 193 102
168 192 80
170 194 92
174 197 102
172 195 102
173 196 88
174 197 95
175 198 108
172 196 76
174 196 108
168 192 99
171 194 105
171 195 88
167 191 92
170 193 108
169 193 108
168 190 99
169 192 92
166 190 84
167 190 99
164 187 84
172 195 114
166 189 76
170 193 92
166 189 92
166 189 95
166 189 108
159 183 72
164 188 111
161 184 95
160 183 80
168 192 95
167 190 117
168 192 111
166 189 105
162 185 102
157 180 72
171 194 102
165 188 84
165 188 99
163 186 84
159 182 95
157 181 122
165 189 84
163 186 80
169 192 111
164 186 80
165 189 111
160 182 102
163 186 88
161 184 95
167 189 102
161 184 84
162 186 80
169 192 117
160 182 108
163 185 95
166 188 102
154 177 99
162 184 102
169 192 111
155 177 88
153 175 84
158 181 114
162 184 117
152 174 80
154 176 62
155 178 95
161 183 102
156 178 95
159 181 95
159 180 84
160 182 108
162 183 92
158 180 76
164 185 99
159 181 84
160 181 102
146 168 88
153 174 108
156 176 102
162 183 120
161 182 95
153 174 84
154 176 99
162 183 122
159 179 114
157 177 99
140 160 62
140 159 92
155 176 99
160 180 105
141 162 92
162 183 105
150 170 108
148 168 84
155 173 102
153 172 105
144 163 95
144 163 80
143 162 76
159 179 95
149 169 72
141 161 72
144 164 67
149 169 67
145 164 72
136 155 57
142 163 44
138 158 51
147 166 51
137 157 25
136 156 25
140 160 25
141 161 25
140 159 51
142 162 36
134 154 25
134 154 25
140 161 0
133 152 25
140 160 0
137 155 25
161 184 25
159 181 0
159 181 0
160 181 0
146 166 0
148 169 0
146 166 0
140 161 0
138 158 0
132 153 0
141 160 0
137 157 0
139 159 0
121 141 0
124 144 0
131 151 0
129 150 0
124 145 0
132 152 0
132 153 0
127 146 0
136 156 0
135 155 0
120 139 0
128 147 0
119 138 0
128 148 0
123 142 0
135 154 0
126 145 0
119 139 0
126 145 0
126 145 0
125 144 0
134 153 0
129 147 0
121 140 0
124 144 0
124 144 0
130 150 0
120 140 0
122 140 0
107 126 0
126 145 0
140 160 0
136 155 0
130 150 0
112 130 0
130 150 0
113 132 0
122 141 0
131 151 0
111 132 0
126 145 0
121 141 0
117 136 0
130 149 0
132 151 0
112 132 0
122 143 0
128 148 0
126 145 0
129 147 0
127 147 0
130 150 0
124 144 0
112 131 0
136 156 0
121 140 0
121 141 0
125 143 0
127 146 0
131 152 0
120 140 0
120 141 0
122 141 0
121 138 0
129 150 0
132 152 0
139 160 0
125 145 0
128 146 0
121 142 0
136 155 0
128 148 0
133 153 0
133 154 0
127 147 0
131 152 0
141 162 0
134 154 0
130 151 0
134 154 0
134 154 0
136 157 0
143 163 0
131 151 0
141 162 0
137 157 0
136 157 0
141 161 0
139 159 0
139 160 0
134 156 0
139 159 0
143 163 0
132 153 0
133 153 0
145 166 0
135 155 0
144 164 0
151 171 0
143 164 0
142 162 0
140 160 0
151 172 0
141 162 0
136 158 0
147 167 0
136 157 0
140 162 0
136 157 0
148 170 0
142 163 0
148 170 0
151 171 0
139 158 0
141 162 0
142 163 0
146 168 0
148 169 0
151 173 0
149 170 0
143 165 0
144 163 0
143 163 0
139 159 0
147 167 0
147 168 0
156 176 0
149 169 0
149 170 0
150 172 0
152 172 0
157 178 0
150 171 0
152 173 0
155 175 0
157 179 0
154 175 0
150 170 0
148 169 0
153 174 0
153 173 0
155 177 0
155 177 0
154 176 0
150 171 0
158 179 0
156 178 0
151 172 0
152 173 0
157 177 0
159 181 0
156 178 0
155 176 0
160 181 0
155 176 0
154 177 0
155 176 0
156 179 0
159 180 0
153 173 0
156 175 0
154 174 0
152 172 0
153 174 0
159 181 0
158 179 0
159 179 0
151 172 0
161 183 0
156 177 0
160 181 0
151 173 0
157 180 0
162 183 0
159 180 0
156 178 0
154 175 0
158 180 0
158 180 0
164 185 0
159 180 0
165 186 0
152 172 0
161 182 0
159 181 0
163 184 0
160 181 0
162 182 0
165 185 0
158 181 0
158 180 0
160 181 0
162 184 0
163 185 0
159 181 0
161 182 0
160 181 0
161 182 0
159 180 0
160 181 0
160 182 0
158 180 0
166 187 0
159 180 0
157 179 0
164 186 0
157 177 0
159 181 0
154 174 0
164 186 0
157 176 0
166 188 0
164 185 0
168 190 0
162 184 0
162 183 0
166 187 0
163 184 0
161 181 0
162 185 0
161 183 0
164 184 0
164 185 0
163 186 0
167 188 0
164 185 0
164 186 0
162 184 0
168 189 0
167 189 0
164 184 0
164 185 0
161 183 0
158 179 0
163 184 0
164 185 0
168 188 0
168 188 0
169 190 0
165 186 0
166 187 0
166 187 0
168 190 0
169 191 0
170 192 0
161 184 0
167 189 0
168 191 0
168 190 0
167 188 0
163 185 0
168 189 0
167 189 0
168 191 0
165 186 0
174 196 120
172 195 88
178 200 108
172 196 99
174 197 92
177 199 95
174 197 111
177 200 111
169 192 95
174 197 114
175 198 102
173 196 105
168 192 95
170 194 102
169 193 92
171 195 99
175 198 102
173 196 105
176 199 125
168 191 76
171 194 95
168 191 92
173 196 108
166 189 99
168 192 80
173 196 102
172 196 95
166 190 72
170 193 72
167 190 62
166 190 99
173 196 84
169 192 99
169 192 88
167 190 92
165 188 72
164 187 44
164 187 88
170 193 111
172 195 105
161 184 92
168 190 88
164 186 105
171 194 92
166 189 88
168 192 76
170 193 99
162 185 80
169 192 95
163 187 99
166 189 92
163 186 84
160 183 80
164 187 76
167 189 105
162 184 95
158 180 95
167 189 105
164 186 108
156 179 72
163 187 105
159 181 72
159 182 88
158 181 108
162 184 99
161 184 95
164 186 88
166 188 122
165 187 105
161 183 76
167 190 114
165 188 99
155 177 72
159 182 99
161 184 95
160 183 92
162 184 80
156 177 84
162 184 95
159 181 108
158 180 92
161 182 102
154 175 92
161 182 92
158 179 88
158 179 88
164 185 102
156 177 99
157 178 95
159 180 105
162 184 114
160 180 111
159 181 99
153 174 95
162 182 95
164 185 108
158 179 102
164 185 111
157 177 114
159 180 95
159 179 99
160 180 105
149 169 72
153 173 88
165 185 111
158 177 120
158 177 125
163 182 117
152 173 72
149 168 80
151 171 88
144 164 76
142 161 76
157 177 92
144 164 62
152 172 80
148 167 84
130 149 57
147 167 72
137 157 51
139 160 57
133 153 44
132 152 36
143 163 57
134 154 44
148 169 25
137 158 0
134 154 0
143 165 36
135 156 0
137 157 0
152 172 25
152 173 0
156 179 0
156 178 0
152 174 0
147 169 0
147 168 0
150 172 0
145 167 0
143 165 0
144 164 0
136 156 0
136 156 0
138 159 0
133 153 0
122 141 0
134 154 0
137 157 0
129 150 0
129 149 0
127 146 0
128 148 0
123 143 0
122 141 0
128 148 0
132 150 0
126 145 0
133 152 0
124 144 0
122 142 0
126 146 0
121 140 0
114 134 0
116 136 0
128 147 0
124 142 0
110 130 0
115 134 0
134 154 0
123 142 0
133 152 0
118 137 0
129 148 0
125 144 0
117 136 0
121 140 0
115 134 0
134 154 0
129 148 0
132 152 0
124 143 0
127 147 0
126 145 0
116 135 0
123 142 0
125 145 0
123 141 0
134 154 0
120 139 0
126 146 0
128 147 0
132 152 0
133 153 0
126 146 0
121 143 0
124 143 0
130 150 0
127 148 0
125 144 0
130 149 0
136 156 0
124 144 0
127 146 0
138 158 0
125 145 0
122 142 0
115 134 0
122 142 0
125 144 0
128 147 0
136 157 0
120 141 0
132 153 0
128 148 0
134 155 0
120 139 0
134 155 0
136 155 0
129 149 0
142 162 0
126 147 0
135 156 0
133 153 0
140 160 0
138 158 0
147 169 0
135 156 0
141 161 0
128 149 0
127 146 0
136 156 0
135 155 0
150 172 0
147 167 0
137 158 0
145 164 0
131 152 0
144 163 0
139 159 0
135 155 0
140 160 0
146 166 0
135 155 0
147 167 0
140 161 0
139 161 0
149 168 0
148 169 0
148 168 0
153 175 0
147 167 0
147 167 0
143 164 0
144 166 0
145 166 0
142 164 0
151 171 0
142 162 0
132 152 0
153 173 0
147 168 0
148 170 0
140 161 0
149 169 0
143 162 0
135 157 0
152 172 0
148 168 0
150 170 0
145 168 0
145 164 0
155 176 0
149 170 0
156 178 0
152 173 0
150 171 0
151 171 0
156 176 0
147 168 0
157 178 0
151 172 0
154 175 0
158 179 0
150 171 0
154 176 0
152 174 0
155 176 0
158 179 0
152 172 0
161 182 0
155 175 0
162 184 0
153 175 0
153 174 0
155 177 0
160 182 0
161 182 0
159 181 0
149 170 0
149 170 0
153 175 0
156 176 0
155 175 0
155 177 0
154 176 0
155 177 0
159 181 0
158 179 0
159 181 0
165 187 0
157 179 0
154 175 0
167 188 0
160 182 0
162 182 0
154 176 0
154 176 0
155 175 0
154 176 0
158 180 0
153 174 0
153 173 0
162 183 0
161 183 0
155 176 0
165 186 0
159 181 0
166 189 0
161 181 0
163 182 0
163 184 0
161 182 0
158 179 0
158 178 0
159 180 0
163 184 0
156 177 0
160 181 0
155 176 0
161 182 0
162 185 0
165 187 0
164 185 0
162 183 0
163 184 0
160 181 0
159 181 0
158 179 0
166 188 0
159 181 0
160 182 0
163 186 0
158 181 0
164 186 0
160 181 0
163 185 0
166 188 0
164 185 0
165 187 0
167 189 0
162 183 0
161 183 0
166 188 0
160 182 0
168 190 0
158 179 0
163 186 0
165 187 0
166 188 0
162 183 0
163 185 0
163 185 0
168 189 0
164 186 0
164 186 0
168 191 0
167 190 0
161 182 0
160 180 0
163 184 0
167 189 0
169 192 0
159 181 0
169 190 0
163 185 0
166 188 0
167 188 0
165 187 0
163 183 0
168 191 0
165 186 0
165 187 0
167 189 0
162 183 0
164 185 0
171 193 0
167 189 0
166 187 0
167 189 0
174 196 95
175 199 117
176 199 108
175 198 95
170 193 92
175 197 105
175 198 72
167 189 72
174 196 92
176 199 102
172 196 84
167 190 95
175 198 105
169 192 88
175 198 108
172 196 122
172 195 107
169 192 99
169 192 76
169 193 95
173 195 92
169 193 102
165 189 67
173 196 95
169 193 105
172 195 95
168 192 108
173 195 105
174 198 111
168 192 95
166 189 84
167 190 72
164 187 88
169 192 88
165 188 95
170 193 102
164 187 84
170 193 99
168 191 92
166 190 92
167 190 99
167 190 92
166 189 72
165 187 72
166 190 105
162 184 99
165 188 99
168 192 114
166 188 72
167 189 84
166 189 108
164 188 92
163 185 102
165 188 88
166 189 114
168 191 92
159 182 72
166 189 102
164 186 111
165 188 111
161 183 105
163 186 92
162 184 72
164 187 99
157 180 76
165 187 99
159 181 102
170 192 99
164 187 108
163 185 84
165 188 108
164 187 102
163 185 108
164 185 84
157 180 102
159 180 105
165 186 102
162 184 105
161 183 111
161 183 88
153 174 84
156 178 84
163 186 102
157 178 95
160 183 105
155 176 95
161 182 108
161 181 133
157 177 108
165 187 99
161 182 102
155 175 88
158 180 95
156 177 105
155 175 92
146 166 84
165 186 114
148 168 95
148 168 80
163 183 105
160 181 95
166 186 105
155 176 92
151 172 84
143 163 84
151 171 95
155 176 88
153 172 105
148 168 84
154 173 62
153 173 80
145 165 76
144 164 62
140 161 57
148 169 80
146 167 51
144 164 72
142 162 57
141 161 51
144 164 51
143 164 36
139 160 44
135 155 44
140 160 36
138 159 0
142 161 25
142 164 0
136 157 0
145 166 0
136 157 25
154 176 25
145 166 0
155 177 25
154 176 0
154 176 0
152 173 0
149 171 0
151 173 0
143 165 0
144 166 0
141 162 0
133 152 0
144 165 0
140 161 0
135 154 0
142 162 0
143 163 0
127 146 0
123 143 0
138 158 0
124 144 0
141 161 0
135 155 0
137 157 0
114 133 0
132 151 0
140 160 0
125 145 0
129 149 0
115 134 0
130 149 0
114 133 0
125 145 0
127 146 0
123 142 0
132 151 0
128 148 0
127 147 0
127 146 0
125 143 0
130 150 0
115 134 0
134 154 0
114 133 0
121 140 0
127 146 0
122 142 0
130 151 0
119 138 0
131 150 0
121 141 0
136 155 0
124 143 0
123 142 0
126 144 0
127 146 0
127 147 0
131 150 0
121 140 0
123 142 0
125 146 0
118 138 0
127 146 0
125 144 0
143 163 0
134 154 0
123 142 0
134 154 0
129 149 0
128 149 0
131 151 0
122 141 0
124 144 0
139 161 0
133 153 0
120 140 0
122 143 0
135 155 0
126 146 0
122 140 0
126 145 0
128 147 0
130 151 0
129 149 0
132 152 0
131 149 0
144 164 0
141 160 0
128 148 0
129 150 0
131 151 0
133 155 0
135 155 0
127 147 0
136 157 0
130 152 0
132 152 0
137 159 0
139 160 0
140 161 0
132 152 0
127 147 0
134 154 0
152 173 0
135 155 0
135 156 0
144 165 0
146 165 0
143 164 0
145 167 0
139 159 0
146 166 0
138 159 0
140 161 0
139 161 0
137 159 0
141 163 0
148 170 0
144 164 0
127 148 0
144 163 0
149 171 0
147 168 0
141 162 0
149 169 0
143 165 0
141 163 0
148 169 0
146 167 0
153 174 0
146 168 0
144 166 0
142 162 0
146 166 0
148 169 0
150 171 0
140 160 0
157 180 0
156 177 0
147 169 0
153 174 0
143 164 0
150 170 0
157 179 0
153 174 0
143 163 0
153 174 0
147 167 0
151 171 0
154 176 0
151 172 0
149 170 0
158 180 0
153 174 0
149 170 0
149 169 0
152 173 0
154 176 0
155 178 0
159 182 0
159 178 0
162 184 0
148 168 0
150 172 0
152 174 0
160 182 0
155 177 0
156 177 0
155 177 0
156 176 0
158 179 0
158 179 0
156 177 0
157 180 0
157 178 0
155 177 0
157 179 0
155 176 0
158 179 0
159 179 0
162 182 0
158 180 0
153 174 0
160 181 0
160 181 0
158 179 0
161 183 0
161 183 0
160 182 0
157 177 0
162 183 0
154 175 0
157 179 0
153 175 0
154 176 0
166 189 0
160 181 0
163 185 0
162 183 0
162 184 0
155 176 0
164 184 0
163 184 0
160 182 0
158 180 0
160 183 0
161 181 0
163 184 0
164 187 0
161 182 0
161 182 0
162 184 0
159 183 0
157 179 0
165 186 0
162 183 0
159 180 0
160 180 0
161 182 0
164 185 0
163 184 0
163 185 0
158 180 0
159 180 0
162 184 0
166 187 0
163 184 0
163 185 0
154 173 0
159 181 0
163 185 0
158 179 0
165 187 0
164 187 0
162 182 0
161 182 0
164 186 0
162 183 0
166 188 0
161 183 0
163 185 0
163 185 0
161 182 0
168 191 0
165 186 0
166 187 0
166 188 0
166 187 0
163 185 0
166 187 0
160 182 0
163 185 0
166 187 0
164 186 0
165 187 0
166 187 0
163 184 0
168 190 0
163 184 0
168 188 0
166 188 0
165 187 0
165 187 0
166 187 0
165 187 0
165 188 0
167 187 0
167 189 0
162 183 0
168 190 0
172 195 95
173 196 105
172 195 99
177 201 122
173 196 102
176 200 102
172 194 95
170 194 108
171 194 108
175 198 92
171 194 111
168 191 99
172 195 108
173 196 95
164 187 80
172 196 99
172 194 108
175 198 105
171 194 111
168 192 84
169 192 102
171 194 95
169 192 117
168 192 99
167 190 95
171 195 117
165 189 88
169 191 76
171 193 92
167 190 114
159 182 80
167 190 105
171 194 111
160 183 99
164 186 95
166 188 84
162 186 92
169 192 111
170 194 99
170 193 99
170 192 111
170 192 88
162 184 80
164 188 99
165 188 76
167 190 117
167 191 88
168 191 99
163 186 95
171 194 84
167 190 102
164 187 95
164 187 92
166 189 84
163 186 108
167 190 102
164 187 84
166 189 105
166 190 105
163 186 92
158 181 80
171 193 102
161 185 95
161 184 84
164 187 111
166 189 92
164 186 111
164 188 105
168 190 102
159 181 80
154 176 84
160 183 92
163 185 92
155 178 80
158 180 84
162 184 105
153 174 80
155 176 76
166 187 99
165 187 102
158 180 84
158 180 99
163 185 92
158 179 88
154 175 76
159 181 88
155 177 120
146 166 84
151 172 67
152 172 105
170 191 111
146 168 102
159 179 102
170 190 111
157 178 99
151 171 84
159 179 111
158 178 102
155 176 76
158 179 108
160 180 99
160 180 105
160 180 102
156 175 99
154 174 95
158 178 108
148 168 72
145 165 88
148 167 84
154 174 92
151 171 76
153 174 72
140 160 67
150 171 72
145 165 72
149 168 72
156 176 62
145 166 44
145 166 44
139 158 51
145 166 36
133 153 25
149 170 25
138 158 36
144 166 0
145 166 51
143 165 36
143 165 25
138 159 0
142 163 36
142 163 25
146 167 0
155 177 0
156 178 0
150 172 0
161 185 0
148 170 0
146 168 0
141 162 0
150 171 0
140 161 0
143 163 0
144 164 0
133 155 0
140 161 0
120 140 0
128 148 0
130 149 0
141 161 0
137 157 0
141 162 0
135 155 0
139 159 0
132 152 0
131 150 0
127 147 0
127 147 0
133 153 0
131 150 0
128 148 0
132 152 0
125 145 0
128 149 0
131 151 0
138 159 0
120 140 0
127 146 0
126 145 0
132 152 0
127 146 0
120 139 0
121 141 0
128 147 0
133 154 0
127 146 0
128 149 0
131 151 0
125 145 0
126 146 0
132 150 0
127 148 0
130 149 0
122 141 0
128 147 0
119 139 0
121 141 0
127 147 0
128 146 0
134 154 0
119 139 0
122 142 0
132 152 0
136 157 0
134 153 0
131 151 0
130 149 0
127 147 0
133 153 0
138 158 0
123 143 0
119 140 0
126 148 0
132 152 0
131 152 0
132 151 0
130 150 0
127 147 0
132 153 0
138 159 0
133 153 0
128 148 0
134 154 0
124 145 0
123 141 0
131 151 0
137 158 0
128 149 0
137 156 0
136 156 0
134 155 0
132 153 0
138 158 0
142 162 0
135 156 0
131 152 0
139 160 0
142 162 0
136 158 0
136 156 0
129 150 0
133 152 0
138 159 0
133 154 0
135 157 0
133 154 0
132 151 0
131 151 0
143 162 0
138 158 0
145 166 0
141 162 0
143 164 0
146 168 0
142 163 0
140 160 0
138 159 0
145 167 0
141 163 0
144 164 0
142 164 0
140 162 0
144 163 0
152 172 0
147 168 0
141 162 0
151 171 0
146 168 0
150 169 0
144 164 0
149 171 0
149 172 0
148 169 0
148 168 0
152 174 0
144 165 0
156 176 0
150 171 0
149 172 0
148 170 0
146 169 0
143 164 0
155 176 0
146 166 0
156 177 0
152 173 0
149 170 0
149 171 0
143 163 0
153 175 0
153 174 0
155 177 0
155 177 0
158 181 0
150 170 0
152 174 0
152 171 0
152 175 0
150 171 0
161 183 0
158 178 0
154 174 0
144 163 0
157 179 0
152 174 0
153 174 0
155 175 0
158 180 0
160 182 0
156 178 0
157 179 0
152 173 0
155 175 0
157 178 0
159 180 0
153 173 0
159 182 0
157 179 0
152 175 0
155 177 0
158 180 0
160 181 0
152 173 0
155 175 0
153 175 0
156 179 0
163 186 0
155 176 0
155 177 0
156 179 0
162 183 0
160 182 0
155 177 0
155 179 0
157 178 0
160 182 0
160 182 0
162 183 0
163 183 0
162 183 0
163 184 0
163 185 0
161 183 0
161 183 0
160 182 0
159 181 0
161 182 0
156 177 0
164 186 0
164 186 0
159 180 0
162 183 0
158 180 0
160 182 0
159 181 0
165 184 0
164 185 0
160 182 0
159 180 0
161 182 0
160 180 0
169 190 0
164 185 0
161 181 0
163 182 0
164 185 0
159 180 0
162 185 0
168 190 0
167 189 0
163 185 0
164 186 0
162 183 0
165 187 0
162 184 0
160 183 0
162 183 0
167 190 0
166 189 0
165 187 0
168 189 0
166 187 0
158 180 0
165 187 0
163 185 0
160 180 0
162 185 0
165 188 0
160 181 0
171 193 0
165 186 0
164 187 0
165 187 0
169 190 0
164 186 0
167 190 0
169 191 0
167 188 0
172 193 0
169 191 0
170 192 0
163 186 0
167 190 0
164 184 0
169 191 0
164 186 0
167 190 0
163 186 0
165 187 0
164 185 0
170 192 0
178 201 95
177 200 102
175 198 114
177 199 117
174 197 120
174 197 62
178 201 108
173 196 88
173 195 108
166 189 95
170 193 92
170 193 108
168 191 92
172 194 102
168 191 80
169 192 88
174 197 99
174 196 88
173 196 99
164 187 95
175 198 120
172 196 99
168 191 95
167 190 84
170 193 88
170 193 102
166 189 72
172 195 105
166 189 105
169 192 120
162 186 92
167 192 117
163 186 88
167 191 92
168 191 105
167 191 95
162 185 80
168 191 88
170 193 92
164 188 117
166 188 114
164 188 95
163 186 84
155 178 72
166 188 102
165 188 99
163 186 102
162 185 80
164 187 105
172 194 92
163 186 88
161 183 84
167 189 102
169 192 108
162 185 88
164 186 72
162 184 88
162 185 99
169 192 99
162 184 84
165 187 99
166 188 111
156 180 92
161 183 84
162 184 80
162 184 108
154 175 76
159 181 108
159 182 92
164 186 122
166 188 102
161 183 99
164 186 92
164 188 92
167 190 111
162 184 102
160 182 88
155 176 92
158 179 92
159 180 88
158 180 62
155 177 84
164 186 99
167 189 108
155 176 105
165 187 111
160 182 88
164 185 99
163 184 102
153 173 92
161 183 95
156 177 84
153 174 105
150 170 88
147 168 84
162 182 114
168 187 120
152 171 99
151 171 99
153 173 92
148 169 84
148 169 72
157 177 95
148 169 80
166 186 122
147 166 99
158 179 84
143 162 80
151 172 95
150 169 76
154 173 88
151 171 84
143 162 72
144 164 62
140 160 51
162 181 95
139 159 62
152 172 62
146 166 57
141 161 25
146 167 0
143 163 36
145 166 25
148 169 44
137 157 25
142 163 44
140 161 36
142 163 25
147 169 0
143 165 0
150 171 0
136 156 0
161 183 0
156 178 0
160 182 0
158 179 0
153 175 0
151 172 0
144 166 0
138 160 0
143 163 0
143 163 0
144 165 0
138 158 0
128 147 0
137 158 0
130 150 0
139 161 0
140 162 0
137 156 0
128 149 0
128 149 0
136 157 0
129 149 0
130 150 0
130 151 0
131 151 0
126 147 0
133 154 0
125 145 0
130 150 0
139 158 0
132 152 0
123 143 0
129 150 0
135 155 0
123 141 0
128 148 0
138 159 0
121 141 0
119 139 0
129 148 0
141 162 0
125 145 0
134 154 0
132 153 0
137 156 0
130 151 0
125 144 0
129 150 0
128 148 0
126 147 0
129 149 0
118 139 0
129 150 0
128 148 0
125 145 0
123 144 0
132 153 0
119 139 0
132 153 0
135 156 0
123 142 0
128 148 0
134 154 0
127 146 0
128 148 0
132 152 0
120 141 0
127 146 0
129 149 0
126 146 0
129 148 0
138 160 0
131 151 0
132 153 0
131 152 0
127 148 0
132 152 0
133 153 0
134 153 0
130 150 0
135 156 0
135 155 0
140 161 0
133 153 0
144 165 0
128 149 0
144 164 0
137 157 0
138 158 0
136 157 0
132 152 0
146 167 0
138 158 0
129 150 0
137 157 0
137 157 0
140 161 0
133 154 0
138 158 0
143 164 0
141 163 0
136 156 0
145 166 0
135 156 0
141 162 0
143 165 0
144 164 0
140 161 0
142 162 0
143 165 0
142 163 0
142 163 0
140 160 0
144 165 0
147 167 0
140 160 0
138 158 0
150 170 0
154 175 0
146 167 0
147 168 0
149 170 0
142 161 0
144 166 0
149 169 0
143 163 0
153 175 0
151 172 0
148 169 0
150 173 0
146 168 0
149 171 0
147 168 0
138 159 0
145 165 0
155 176 0
147 167 0
146 167 0
153 173 0
145 167 0
151 173 0
154 175 0
146 166 0
148 168 0
148 170 0
151 172 0
152 172 0
150 172 0
158 179 0
154 177 0
146 168 0
150 172 0
149 170 0
157 178 0
150 171 0
156 177 0
155 176 0
154 175 0
157 178 0
158 179 0
156 177 0
155 176 0
155 176 0
155 175 0
156 177 0
157 178 0
160 183 0
157 178 0
154 176 0
157 178 0
158 180 0
153 174 0
156 177 0
155 177 0
161 182 0
160 182 0
162 184 0
158 180 0
161 184 0
156 178 0
156 178 0
161 182 0
158 181 0
153 176 0
155 177 0
157 177 0
158 180 0
158 181 0
163 184 0
166 189 0
166 188 0
162 185 0
159 181 0
156 178 0
159 182 0
154 176 0
165 186 0
162 184 0
164 186 0
164 186 0
162 183 0
155 177 0
160 184 0
153 174 0
164 186 0
162 183 0
163 185 0
160 181 0
162 184 0
161 183 0
161 182 0
161 183 0
166 185 0
158 180 0
165 187 0
156 178 0
165 187 0
164 186 0
168 189 0
164 186 0
167 188 0
159 179 0
160 181 0
161 183 0
160 182 0
160 182 0
166 186 0
163 185 0
163 183 0
160 182 0
165 187 0
163 185 0
166 189 0
167 189 0
154 176 0
166 188 0
158 180 0
170 191 0
169 190 0
160 181 0
167 187 0
159 181 0
167 189 0
166 187 0
170 192 0
161 183 0
163 186 0
166 188 0
165 188 0
164 186 0
163 184 0
163 185 0
166 188 0
166 186 0
167 188 0
169 192 0
169 190 0
169 191 0
164 186 0
166 188 0
165 188 0
167 189 0
170 191 0
169 190 0
164 185 0
167 189 0
160 181 0
167 189 0
172 195 111
172 195 92
176 199 108
175 198 122
174 197 95
175 198 99
167 190 105
171 194 62
177 200 108
174 197 108
172 194 92
170 193 84
174 197 99
170 193 74
174 198 111
170 193 76
174 196 84
168 191 88
169 192 95
166 189 92
168 191 84
173 196 111
172 196 120
166 189 95
165 188 92
162 185 76
167 190 105
167 190 76
172 194 108
171 195 99
169 192 95
168 191 95
168 192 120
167 190 105
172 194 117
167 189 88
168 191 99
167 190 99
165 188 92
167 191 114
162 186 92
163 186 92
164 187 72
161 184 95
165 189 80
168 191 88
171 194 114
169 193 105
167 191 102
161 184 72
167 191 95
162 186 111
165 189 95
160 184 108
168 191 95
158 180 67
165 187 111
168 191 111
170 191 120
170 193 108
158 180 99
162 184 99
161 184 111
156 177 80
160 183 92
163 184 72
162 183 76
164 187 92
163 185 84
153 175 72
161 184 108
165 187 117
159 182 88
168 190 117
161 183 92
163 185 102
162 185 111
156 178 95
155 177 88
165 187 111
159 180 108
158 180 88
160 182 108
159 181 92
155 176 105
160 180 102
162 183 88
158 179 92
158 179 92
171 192 120
162 183 105
159 180 84
152 173 84
159 180 99
162 183 102
158 179 95
156 176 105
163 184 111
159 180 72
162 183 95
168 188 111
158 179 99
163 183 105
163 182 108
153 173 95
147 168 99
145 165 92
146 165 102
162 181 114
149 169 80
157 176 102
152 171 72
152 172 80
153 173 80
147 166 95
136 156 36
148 170 44
150 171 51
141 162 36
148 169 36
141 161 25
146 168 0
143 164 25
144 166 25
150 170 25
140 159 51
138 159 44
138 159 25
150 172 25
144 165 25
145 166 0
151 173 0
157 179 0
157 179 0
154 176 0
153 175 0
154 175 0
149 170 0
150 172 0
151 171 0
150 171 0
142 163 0
142 163 0
142 162 0
138 160 0
134 154 0
143 163 0
135 156 0
129 151 0
131 153 0
132 153 0
139 159 0
138 160 0
131 150 0
128 148 0
131 150 0
129 148 0
127 147 0
128 148 0
135 155 0
127 147 0
128 148 0
127 146 0
137 156 0
111 130 0
128 148 0
126 146 0
134 155 0
124 144 0
136 156 0
134 154 0
130 149 0
133 154 0
131 151 0
126 146 0
116 135 0
131 151 0
133 153 0
123 142 0
120 140 0
115 134 0
115 134 0
126 146 0
133 152 0
124 144 0
136 155 0
127 146 0
133 153 0
127 146 0
132 151 0
123 143 0
128 149 0
130 150 0
128 147 0
134 154 0
132 152 0
127 148 0
124 144 0
122 143 0
131 151 0
135 155 0
125 145 0
142 163 0
138 159 0
132 151 0
131 150 0
128 147 0
132 153 0
135 156 0
130 151 0
132 152 0
121 141 0
133 152 0
137 158 0
131 151 0
138 159 0
143 163 0
140 160 0
139 160 0
138 158 0
131 150 0
139 159 0
126 147 0
137 158 0
149 170 0
141 161 0
146 167 0
144 164 0
142 163 0
134 155 0
148 169 0
149 171 0
137 157 0
140 161 0
141 162 0
144 165 0
140 162 0
143 164 0
140 162 0
146 167 0
137 159 0
142 163 0
140 161 0
135 155 0
149 172 0
152 172 0
142 164 0
142 164 0
144 164 0
146 167 0
130 151 0
150 170 0
143 163 0
148 169 0
150 171 0
154 175 0
146 167 0
143 165 0
148 169 0
147 167 0
149 170 0
138 160 0
147 166 0
144 164 0
143 165 0
147 169 0
156 178 0
147 169 0
148 170 0
154 176 0
150 171 0
151 173 0
157 179 0
148 169 0
152 173 0
148 169 0
153 173 0
156 178 0
149 170 0
152 174 0
160 180 0
151 174 0
155 177 0
151 172 0
155 176 0
155 177 0
153 175 0
156 176 0
156 178 0
160 182 0
160 183 0
159 181 0
152 173 0
152 173 0
146 166 0
153 175 0
157 179 0
155 177 0
157 178 0
161 183 0
158 180 0
156 178 0
163 185 0
156 177 0
153 174 0
154 175 0
164 185 0
155 176 0
161 184 0
155 176 0
156 177 0
154 175 0
162 185 0
153 175 0
158 180 0
151 171 0
158 180 0
162 183 0
160 182 0
158 179 0
155 177 0
165 187 0
157 176 0
151 172 0
158 179 0
157 180 0
166 188 0
162 184 0
158 180 0
159 180 0
165 186 0
161 183 0
155 177 0
160 180 0
159 180 0
160 181 0
157 178 0
162 181 0
161 183 0
159 180 0
154 175 0
157 180 0
161 184 0
167 189 0
157 178 0
163 184 0
163 184 0
163 185 0
164 185 0
164 184 0
159 180 0
168 191 0
166 188 0
165 185 0
163 185 0
163 186 0
166 189 0
166 189 0
163 184 0
168 189 0
159 179 0
165 185 0
161 184 0
166 188 0
165 186 0
161 182 0
158 178 0
165 188 0
166 188 0
158 179 0
162 184 0
161 184 0
166 189 0
166 189 0
162 182 0
165 186 0
163 184 0
165 188 0
167 188 0
164 187 0
168 191 0
162 184 0
169 190 0
168 190 0
163 186 0
164 187 0
168 188 0
164 186 0
162 183 0
164 187 0
170 194 0
167 189 0
168 190 0
167 189 0
167 190 0
166 190 0
170 191 0
166 188 0
170 192 0
167 190 0
174 197 84
170 193 88
175 199 120
172 196 80
174 197 95
175 197 122
170 193 117
166 189 88
172 194 88
174 197 95
168 191 76
171 194 95
175 199 114
169 192 95
174 197 120
168 191 102
167 191 82
168 192 105
168 191 92
170 193 76
171 194 111
172 195 102
168 192 95
171 194 92
173 196 105
172 196 108
173 197 114
166 190 88
166 189 80
164 188 84
163 187 62
163 186 108
168 191 102
163 187 99
170 192 95
165 187 84
162 186 102
173 197 108
160 183 76
162 185 92
168 192 99
165 188 92
163 187 80
166 189 99
163 187 76
165 188 84
164 186 84
172 195 92
162 184 80
166 189 84
161 184 95
170 193 105
169 192 99
159 182 80
167 189 114
161 183 88
164 187 120
164 186 108
164 186 84
164 185 80
161 184 114
160 183 99
157 180 99
162 186 125
158 180 88
170 192 92
165 188 76
164 186 92
161 184 111
160 182 88
163 184 84
159 180 76
161 183 99
162 184 88
156 178 80
164 187 108
164 186 92
158 180 95
162 184 95
167 189 102
167 189 99
163 184 102
160 181 84
164 186 92
159 180 117
154 174 84
158 180 102
156 176 102
166 187 114
157 178 102
162 182 111
158 179 102
163 184 117
158 178 92
162 182 105
160 180 102
156 176 105
162 182 102
164 184 130
157 178 102
167 187 105
140 160 76
149 170 76
160 180 95
157 177 95
152 172 67
165 185 102
155 175 92
147 167 80
163 181 114
162 183 92
150 169 80
145 166 72
146 165 67
152 173 36
152 173 62
151 172 57
144 165 44
143 164 25
142 163 44
152 171 36
149 170 44
144 165 44
155 175 44
152 173 36
137 158 25
128 149 25
144 166 0
138 158 44
147 169 36
150 172 25
149 171 0
160 183 0
155 177 0
158 181 0
153 176 0
149 170 0
158 180 0
140 162 0
148 170 0
152 174 0
136 157 0
150 172 0
146 168 0
134 155 0
141 162 0
139 159 0
141 160 0
144 164 0
145 167 0
130 150 0
138 159 0
141 162 0
126 147 0
134 155 0
134 153 0
143 163 0
124 145 0
125 145 0
139 158 0
132 153 0
132 152 0
124 143 0
134 153 0
117 138 0
134 154 0
136 156 0
122 142 0
134 154 0
131 151 0
130 150 0
129 149 0
128 147 0
129 149 0
136 156 0
137 157 0
132 153 0
137 157 0
125 145 0
123 143 0
122 143 0
127 148 0
128 147 0
128 147 0
123 144 0
134 154 0
121 141 0
122 142 0
139 159 0
125 145 0
127 147 0
126 147 0
137 158 0
137 157 0
143 163 0
138 158 0
136 157 0
133 153 0
131 151 0
126 145 0
132 152 0
131 150 0
115 134 0
122 141 0
123 142 0
126 145 0
130 151 0
127 146 0
143 163 0
132 152 0
130 150 0
129 149 0
140 160 0
133 152 0
135 156 0
135 155 0
125 146 0
136 158 0
141 162 0
141 161 0
132 152 0
143 164 0
138 159 0
130 151 0
143 163 0
144 164 0
140 160 0
138 159 0
140 161 0
140 161 0
146 168 0
141 163 0
146 166 0
138 157 0
146 168 0
139 160 0
145 166 0
139 160 0
148 170 0
143 163 0
142 161 0
133 153 0
132 151 0
141 162 0
145 164 0
137 159 0
153 175 0
151 172 0
141 164 0
153 176 0
148 169 0
147 167 0
135 153 0
149 170 0
144 165 0
151 173 0
145 166 0
153 173 0
139 160 0
149 170 0
155 177 0
142 163 0
150 172 0
158 180 0
153 173 0
155 178 0
143 164 0
151 173 0
154 176 0
150 171 0
152 175 0
152 173 0
151 173 0
146 166 0
151 172 0
151 173 0
151 173 0
154 176 0
144 166 0
147 168 0
151 172 0
153 173 0
151 173 0
150 171 0
152 172 0
157 179 0
157 181 0
153 174 0
149 170 0
151 173 0
151 173 0
155 176 0
152 174 0
149 171 0
149 171 0
153 174 0
159 181 0
159 181 0
158 180 0
152 174 0
158 178 0
159 180 0
154 177 0
154 176 0
156 177 0
163 186 0
156 178 0
155 178 0
152 172 0
161 183 0
161 183 0
164 185 0
149 170 0
161 183 0
154 174 0
157 180 0
151 171 0
162 184 0
160 183 0
162 183 0
162 184 0
159 179 0
156 178 0
160 182 0
163 185 0
160 182 0
156 178 0
158 178 0
158 179 0
161 183 0
168 188 0
160 180 0
165 185 0
160 182 0
160 182 0
159 181 0
159 179 0
160 182 0
162 183 0
164 187 0
163 185 0
165 188 0
161 182 0
162 183 0
161 182 0
157 179 0
165 187 0
164 185 0
161 182 0
162 185 0
168 190 0
162 182 0
160 182 0
159 181 0
165 186 0
167 188 0
163 184 0
161 182 0
164 186 0
158 179 0
165 186 0
163 185 0
166 187 0
161 182 0
168 190 0
161 182 0
161 184 0
167 189 0
164 185 0
166 188 0
169 192 0
163 186 0
167 190 0
165 186 0
157 179 0
167 188 0
166 187 0
163 183 0
168 191 0
159 181 0
162 185 0
166 188 0
167 190 0
165 187 0
169 191 0
164 185 0
166 188 0
169 191 0
167 190 0
167 189 0
160 184 0
163 186 0
163 185 0
168 191 0
167 189 0
165 186 0
167 188 0
169 191 0
168 191 0
167 191 0
174 197 114
173 196 102
177 199 117
173 197 111
173 196 95
173 196 102
171 195 105
175 197 122
169 192 95
170 193 92
173 196 108
174 196 111
174 197 92
169 192 99
170 194 80
170 193 105
170 193 95
168 191 88
176 199 125
172 196 99
170 193 95
168 192 102
170 192 76
166 189 99
169 191 92
165 188 72
173 196 108
172 195 95
169 193 114
166 189 95
172 195 92
169 192 105
166 189 99
171 194 92
166 189 99
167 190 88
168 191 95
162 185 108
167 190 108
159 182 92
165 189 92
169 191 92
169 192 95
171 194 102
164 187 84
166 188 88
163 186 95
168 190 102
165 188 92
163 185 99
165 188 88
168 191 117
164 187 108
168 191 92
168 191 111
167 190 95
162 184 72
167 189 102
161 183 92
166 189 99
164 187 80
160 183 99
168 190 105
162 184 95
160 181 111
167 190 120
168 191 99
159 181 102
162 184 92
170 192 111
158 181 95
165 187 95
165 188 105
163 185 62
160 181 102
168 190 117
161 182 95
163 185 72
167 189 111
159 180 92
157 178 88
158 179 108
162 184 105
173 194 108
167 189 108
155 176 99
155 176 111
155 177 95
162 183 105
159 180 92
159 180 88
154 175 88
155 175 99
157 178 92
167 188 105
155 175 108
151 173 72
161 180 92
164 185 114
144 165 72
148 169 76
157 178 99
153 173 76
155 175 102
156 176 99
145 165 67
159 179 95
153 173 88
149 168 108
156 176 92
144 164 80
150 170 88
157 177 72
152 173 67
149 170 57
151 173 67
159 180 57
150 171 36
158 179 51
137 158 25
137 158 0
147 168 36
147 167 44
150 170 25
152 174 25
146 168 25
144 165 0
140 161 36
147 169 25
141 162 0
147 168 44
153 175 0
156 179 0
157 179 0
158 180 0
155 178 0
158 181 0
150 170 0
153 175 0
145 166 0
140 161 0
144 166 0
142 163 0
139 160 0
138 159 0
138 159 0
143 163 0
138 158 0
147 168 0
136 157 0
132 152 0
134 154 0
141 161 0
132 151 0
130 151 0
130 150 0
121 141 0
131 152 0
133 153 0
126 146 0
138 158 0
126 147 0
124 145 0
133 152 0
128 147 0
132 153 0
142 163 0
135 155 0
135 155 0
127 146 0
135 155 0
142 162 0
133 154 0
128 149 0
129 148 0
132 153 0
134 154 0
128 148 0
122 142 0
134 155 0
130 150 0
135 156 0
138 158 0
136 156 0
132 153 0
137 157 0
142 163 0
128 149 0
135 156 0
132 153 0
134 155 0
133 153 0
127 148 0
142 161 0
141 161 0
138 158 0
136 157 0
129 150 0
137 157 0
129 150 0
122 143 0
136 157 0
145 166 0
129 147 0
137 159 0
138 160 0
129 150 0
132 153 0
130 150 0
134 154 0
131 150 0
129 148 0
127 148 0
143 165 0
139 162 0
136 156 0
133 154 0
148 168 0
138 158 0
140 160 0
130 149 0
142 163 0
135 155 0
146 167 0
128 148 0
140 162 0
140 160 0
135 155 0
141 162 0
145 166 0
147 167 0
145 166 0
141 163 0
141 162 0
138 159 0
149 170 0
144 166 0
136 157 0
142 163 0
139 159 0
146 167 0
142 164 0
141 162 0
143 166 0
143 164 0
152 172 0
154 174 0
143 164 0
150 170 0
147 168 0
142 163 0
144 164 0
148 169 0
152 173 0
145 167 0
140 162 0
148 170 0
147 168 0
150 170 0
151 172 0
148 171 0
152 173 0
147 169 0
151 172 0
148 169 0
157 178 0
155 177 0
154 176 0
150 172 0
150 172 0
151 172 0
152 173 0
152 173 0
147 169 0
156 177 0
154 176 0
152 175 0
151 174 0
158 178 0
153 173 0
148 169 0
153 174 0
149 170 0
143 163 0
140 160 0
152 173 0
153 175 0
156 179 0
157 178 0
155 176 0
147 169 0
152 175 0
157 178 0
155 178 0
156 178 0
158 179 0
159 179 0
159 181 0
148 169 0
153 174 0
157 177 0
161 184 0
151 172 0
159 180 0
158 177 0
161 183 0
161 183 0
156 179 0
154 178 0
161 183 0
158 179 0
159 182 0
153 175 0
159 180 0
153 174 0
159 181 0
162 183 0
155 176 0
150 169 0
163 185 0
156 177 0
162 184 0
157 179 0
167 189 0
162 182 0
165 187 0
158 180 0
157 178 0
158 180 0
158 181 0
163 185 0
158 179 0
162 184 0
160 183 0
163 186 0
163 186 0
157 178 0
161 183 0
165 186 0
164 186 0
166 188 0
161 182 0
160 180 0
161 182 0
162 183 0
161 184 0
163 184 0
161 182 0
165 187 0
163 185 0
161 184 0
161 182 0
166 186 0
166 189 0
161 183 0
163 185 0
161 184 0
167 188 0
161 184 0
161 182 0
166 188 0
168 190 0
156 178 0
166 188 0
167 188 0
160 181 0
167 189 0
159 180 0
164 185 0
166 188 0
168 191 0
165 186 0
164 185 0
162 184 0
164 186 0
165 186 0
157 177 0
164 186 0
163 186 0
170 193 0
166 187 0
166 190 0
169 191 0
164 185 0
164 186 0
164 187 0
171 195 0
169 191 0
164 186 0
166 188 0
164 186 0
171 193 0
167 189 0
168 190 0
163 185 0
166 188 0
166 188 0
170 192 0
166 188 0
163 185 0
175 198 92
177 199 111
176 199 105
173 196 114
169 192 99
170 194 88
172 196 108
168 190 76
171 193 92
172 194 92
172 195 88
170 194 84
173 195 99
176 199 95
166 189 95
171 195 117
171 193 95
170 193 99
170 193 114
168 191 88
170 193 102
175 199 117
169 192 95
167 189 95
162 186 72
164 188 72
172 195 76
171 194 130
168 192 95
171 194 92
174 196 84
171 194 62
167 191 108
171 193 102
170 194 108
173 196 108
167 190 72
167 191 92
171 195 92
165 188 99
169 192 95
170 194 105
165 188 80
168 191 92
163 186 88
169 192 122
164 187 105
165 187 92
161 184 99
169 192 105
163 185 72
162 184 95
161 185 108
156 178 88
162 185 95
160 182 84
163 185 92
166 189 84
166 187 80
163 185 105
167 190 92
156 178 72
160 182 99
174 197 125
166 188 99
168 190 108
166 188 99
164 186 92
166 188 114
162 184 95
164 186 111
160 182 84
168 189 84
157 179 114
157 178 108
168 191 122
161 182 88
157 179 95
151 172 72
157 178 92
162 183 105
163 184 117
159 180 105
152 174 72
159 180 114
167 189 108
157 179 95
162 182 102
157 178 88
159 180 95
154 175 84
153 173 102
155 175 102
155 175 102
157 177 99
163 182 111
150 170 76
154 175 99
161 181 105
155 176 80
155 175 95
161 182 99
162 181 114
152 172 99
155 175 84
160 179 105
149 168 88
154 173 99
158 179 80
155 175 84
151 173 57
155 175 84
156 176 72
148 168 57
146 167 44
144 165 36
142 163 57
152 172 57
153 173 36
143 165 25
143 165 0
154 175 25
151 171 25
145 165 0
150 171 44
136 158 25
145 167 0
145 166 0
145 167 25
146 168 36
148 170 0
142 164 0
152 174 0
162 183 0
157 178 0
158 180 0
157 180 0
154 177 0
144 167 0
148 170 0
152 174 0
146 168 0
147 167 0
147 168 0
137 159 0
133 154 0
141 162 0
144 165 0
136 157 0
142 163 0
141 162 0
130 151 0
141 162 0
135 156 0
131 152 0
129 149 0
126 145 0
144 166 0
124 145 0
131 151 0
121 141 0
135 156 0
133 154 0
140 160 0
134 156 0
134 155 0
140 160 0
138 157 0
128 149 0
128 147 0
132 152 0
139 159 0
134 154 0
138 158 0
133 154 0
126 145 0
125 145 0
137 156 0
130 149 0
132 153 0
127 148 0
127 147 0
137 156 0
133 153 0
132 152 0
135 155 0
139 157 0
129 150 0
130 151 0
134 154 0
135 156 0
132 153 0
128 147 0
139 160 0
136 157 0
131 152 0
131 151 0
145 165 0
134 154 0
134 155 0
121 141 0
135 155 0
140 160 0
133 154 0
130 150 0
136 155 0
138 159 0
141 162 0
126 146 0
127 146 0
132 152 0
136 157 0
145 166 0
130 150 0
137 157 0
133 154 0
144 166 0
146 168 0
138 158 0
132 152 0
148 170 0
148 169 0
133 153 0
139 160 0
140 161 0
142 162 0
138 157 0
136 157 0
137 156 0
150 172 0
143 164 0
151 173 0
138 159 0
142 163 0
142 165 0
138 158 0
143 165 0
144 164 0
153 175 0
151 172 0
152 173 0
143 165 0
141 161 0
152 174 0
133 154 0
147 169 0
145 167 0
145 165 0
141 162 0
144 165 0
140 160 0
147 166 0
142 163 0
143 164 0
146 167 0
149 170 0
149 171 0
147 168 0
148 170 0
145 166 0
143 164 0
149 170 0
148 169 0
148 170 0
159 179 0
143 164 0
152 173 0
154 176 0
144 163 0
154 175 0
143 165 0
152 174 0
158 181 0
150 170 0
156 178 0
142 163 0
149 171 0
154 176 0
146 168 0
150 172 0
156 177 0
153 173 0
153 176 0
159 180 0
154 175 0
157 179 0
153 175 0
159 181 0
155 176 0
154 176 0
164 186 0
152 174 0
159 181 0
151 173 0
156 177 0
158 179 0
154 175 0
160 182 0
154 175 0
153 175 0
158 180 0
157 179 0
156 178 0
159 182 0
153 172 0
157 179 0
161 182 0
156 178 0
155 176 0
154 176 0
156 179 0
156 178 0
159 182 0
161 183 0
153 175 0
160 182 0
159 180 0
161 182 0
160 181 0
162 183 0
159 182 0
162 183 0
158 179 0
158 177 0
161 184 0
157 179 0
157 178 0
157 180 0
162 182 0
159 181 0
157 177 0
162 186 0
159 180 0
159 182 0
165 187 0
164 185 0
163 185 0
160 181 0
158 180 0
160 182 0
163 186 0
160 180 0
165 188 0
163 183 0
157 179 0
161 181 0
166 188 0
164 185 0
163 184 0
160 182 0
160 181 0
164 186 0
165 186 0
161 183 0
164 185 0
165 187 0
164 186 0
165 187 0
165 187 0
165 187 0
166 188 0
161 182 0
164 184 0
161 183 0
161 183 0
169 191 0
163 184 0
165 187 0
167 190 0
160 182 0
168 191 0
165 187 0
165 185 0
164 186 0
163 184 0
162 184 0
160 183 0
164 185 0
164 185 0
166 187 0
166 189 0
167 189 0
166 188 0
162 184 0
163 185 0
168 189 0
169 191 0
164 184 0
163 184 0
166 188 0
163 185 0
171 192 0
170 192 0
167 191 0
169 190 0
164 185 0
168 190 0
171 191 0
166 188 0
169 192 0
169 192 105
172 196 76
172 195 92
171 194 95
174 198 99
170 193 102
173 196 88
168 191 67
174 197 95
169 192 105
169 193 80
171 194 99
171 194 102
166 189 67
173 197 95
175 198 102
168 191 88
168 190 80
173 195 88
175 197 128
172 195 92
170 193 102
170 193 92
172 196 95
172 195 105
168 191 111
171 194 102
174 197 111
170 193 92
172 194 92
169 192 92
168 192 111
163 187 95
167 190 99
170 194 99
175 197 111
168 191 105
164 187 95
166 189 95
161 183 102
161 185 95
171 194 108
171 193 95
169 192 102
168 190 84
164 186 76
170 192 108
170 193 92
166 189 105
164 187 102
168 190 84
169 191 95
165 188 95
161 184 105
166 188 95
170 193 120
165 188 111
162 185 88
165 188 111
163 186 102
163 185 84
159 181 108
163 185 102
160 183 92
169 192 105
165 188 99
170 192 102
167 189 95
163 185 114
158 181 88
161 184 102
164 186 95
160 183 102
165 188 108
162 185 84
161 182 111
164 185 95
167 189 95
160 182 92
167 189 95
154 175 92
159 181 84
155 176 95
156 178 120
160 181 84
157 179 102
156 176 102
156 177 108
167 187 99
157 179 95
154 175 84
160 180 105
157 177 95
166 187 111
157 178 76
158 178 99
159 180 62
161 181 122
157 178 67
153 173 88
148 169 80
166 185 114
150 171 88
158 178 95
158 178 88
157 177 84
156 177 84
162 182 102
165 184 114
145 166 76
149 169 67
160 181 84
152 173 72
148 169 51
152 173 67
150 171 57
145 166 44
154 176 25
147 169 44
151 172 44
148 169 25
148 170 36
140 161 0
147 169 57
145 166 25
149 170 36
147 167 51
144 164 36
153 175 36
146 168 25
150 174 25
156 178 0
154 175 0
159 182 0
158 180 0
156 178 0
152 174 0
154 175 0
156 178 0
149 171 0
145 167 0
154 177 0
149 172 0
147 168 0
145 166 0
137 158 0
141 162 0
128 148 0
148 170 0
136 157 0
135 155 0
145 166 0
140 160 0
133 153 0
133 153 0
130 149 0
138 159 0
131 151 0
132 153 0
137 156 0
127 147 0
144 165 0
130 150 0
133 154 0
134 154 0
129 150 0
128 149 0
132 153 0
133 153 0
135 155 0
135 157 0
136 156 0
139 160 0
135 156 0
131 151 0
131 151 0
124 145 0
136 157 0
133 154 0
133 154 0
138 158 0
136 157 0
138 159 0
130 150 0
137 158 0
127 147 0
132 151 0
135 157 0
126 147 0
133 154 0
142 164 0
136 157 0
137 158 0
128 149 0
125 146 0
135 155 0
135 156 0
134 154 0
137 159 0
132 152 0
139 161 0
138 158 0
139 161 0
141 161 0
134 156 0
143 164 0
127 147 0
136 158 0
139 159 0
136 157 0
135 156 0
137 156 0
139 160 0
131 151 0
138 159 0
140 161 0
142 164 0
137 158 0
139 159 0
141 163 0
137 158 0
136 157 0
138 158 0
142 163 0
134 154 0
136 156 0
140 161 0
146 167 0
144 164 0
142 163 0
143 164 0
145 166 0
146 167 0
143 164 0
140 161 0
149 171 0
140 161 0
142 164 0
149 171 0
149 171 0
136 156 0
148 169 0
140 162 0
152 173 0
144 165 0
141 161 0
142 164 0
144 165 0
150 172 0
138 159 0
142 163 0
148 170 0
146 167 0
147 168 0
148 169 0
151 171 0
149 170 0
156 177 0
142 163 0
156 176 0
150 173 0
154 177 0
148 170 0
147 169 0
151 171 0
148 170 0
144 164 0
150 170 0
149 172 0
154 176 0
152 174 0
153 176 0
147 169 0
148 170 0
152 174 0
158 179 0
157 179 0
151 170 0
153 176 0
149 169 0
157 178 0
150 172 0
151 173 0
156 178 0
157 179 0
151 172 0
155 177 0
155 177 0
149 171 0
153 174 0
155 178 0
151 172 0
155 176 0
148 169 0
154 174 0
155 177 0
155 177 0
151 171 0
159 182 0
157 178 0
160 183 0
158 179 0
153 174 0
162 183 0
163 186 0
161 183 0
146 168 0
155 174 0
162 184 0
160 183 0
161 183 0
154 176 0
161 181 0
158 179 0
159 181 0
161 183 0
160 181 0
161 182 0
161 183 0
156 178 0
159 181 0
156 176 0
159 181 0
161 181 0
156 178 0
160 183 0
161 183 0
161 180 0
161 183 0
158 178 0
163 186 0
163 185 0
160 182 0
159 181 0
163 185 0
155 176 0
163 185 0
157 178 0
157 178 0
161 182 0
159 180 0
157 178 0
163 186 0
166 189 0
167 186 0
164 187 0
163 185 0
161 184 0
163 185 0
161 184 0
165 186 0
168 189 0
162 183 0
163 184 0
164 186 0
165 186 0
161 182 0
163 186 0
161 183 0
168 190 0
161 182 0
167 189 0
164 186 0
165 186 0
162 184 0
164 185 0
169 191 0
165 187 0
165 187 0
157 177 0
163 184 0
165 187 0
165 188 0
160 182 0
162 184 0
161 183 0
162 183 0
169 191 0
166 187 0
168 189 0
164 185 0
167 190 0
168 189 0
167 189 0
170 193 0
163 185 0
166 187 0
163 186 0
164 187 0
170 193 0
168 189 0
167 188 0
164 185 0
167 189 0
168 189 0
168 189 0
167 189 0
167 189 0
168 189 0
168 190 0
173 195 102
171 194 88
174 198 99
167 191 80
172 195 95
173 195 95
178 201 114
171 194 92
169 191 95
171 194 108
172 195 111
172 195 84
170 192 95
171 194 95
170 192 80
172 194 95
166 190 92
170 194 95
171 194 95
173 196 105
172 195 92
166 190 88
170 193 72
163 186 88
168 191 80
175 199 111
173 196 99
170 193 67
168 191 84
166 189 88
169 192 99
174 196 117
165 188 84
167 191 105
170 193 111
166 189 108
167 190 80
169 191 99
170 192 84
171 195 92
165 188 92
170 193 108
169 192 95
164 187 88
159 183 84
167 189 105
168 190 102
164 187 80
167 190 99
163 186 92
161 184 111
168 191 114
167 190 92
164 187 102
170 193 99
165 189 95
167 189 105
157 179 76
160 182 99
168 191 76
167 189 88
156 178 92
163 184 80
163 185 95
157 179 105
166 188 111
167 190 105
157 179 92
161 183 111
161 182 92
162 184 92
160 181 76
160 181 84
161 183 76
155 177 92
162 183 84
158 179 84
164 185 105
164 185 76
161 182 84
157 179 92
159 182 88
165 186 84
163 185 105
168 188 117
166 187 102
153 174 72
167 188 117
156 177 102
167 188 111
165 187 102
162 183 99
157 177 80
166 186 114
160 180 111
153 175 88
157 177 84
158 178 105
151 171 99
154 174 57
166 186 114
161 182 105
159 179 88
160 180 92
161 181 95
156 177 88
154 174 84
165 185 95
155 175 99
151 171 62
152 172 57
158 180 84
145 165 51
165 186 84
146 168 44
149 170 51
148 170 44
141 162 36
149 171 36
152 174 25
143 164 0
147 168 0
137 158 25
143 163 25
155 176 0
145 167 25
149 171 36
150 171 36
148 169 36
155 175 0
158 180 25
156 177 0
153 176 0
159 182 0
158 180 0
158 180 0
150 173 0
157 179 0
152 176 0
155 176 0
148 170 0
144 167 0
145 167 0
129 151 0
146 168 0
135 157 0
148 170 0
136 157 0
134 156 0
140 161 0
144 165 0
141 161 0
141 162 0
137 157 0
134 156 0
136 158 0
131 153 0
139 161 0
129 149 0
141 161 0
137 159 0
128 148 0
129 148 0
135 155 0
142 164 0
131 152 0
137 157 0
111 132 0
131 152 0
139 160 0
136 157 0
136 156 0
135 155 0
127 148 0
140 161 0
138 160 0
128 149 0
134 155 0
126 146 0
139 160 0
138 159 0
139 159 0
137 159 0
136 158 0
133 153 0
132 153 0
136 157 0
132 153 0
142 162 0
137 157 0
133 153 0
132 153 0
122 142 0
132 152 0
136 156 0
141 161 0
145 165 0
131 152 0
136 156 0
140 161 0
141 161 0
132 153 0
140 161 0
140 160 0
145 165 0
141 161 0
137 156 0
147 166 0
136 157 0
134 154 0
139 160 0
150 171 0
139 159 0
135 157 0
139 159 0
136 157 0
148 169 0
142 163 0
141 163 0
139 159 0
148 170 0
139 158 0
142 163 0
136 156 0
142 163 0
144 165 0
147 169 0
150 172 0
141 162 0
144 166 0
139 159 0
149 169 0
146 167 0
143 163 0
149 171 0
141 162 0
145 167 0
144 165 0
145 167 0
147 169 0
146 168 0
148 169 0
153 175 0
148 169 0
140 162 0
143 163 0
138 158 0
150 171 0
143 164 0
144 165 0
147 169 0
154 176 0
146 166 0
149 172 0
149 169 0
143 165 0
148 170 0
148 168 0
153 174 0
147 167 0
145 167 0
152 173 0
146 166 0
149 172 0
150 173 0
151 173 0
149 170 0
151 172 0
152 175 0
145 165 0
155 176 0
151 173 0
148 168 0
154 175 0
155 175 0
153 175 0
156 176 0
150 171 0
153 173 0
150 172 0
153 174 0
153 175 0
150 173 0
155 177 0
159 181 0
155 175 0
157 178 0
160 183 0
159 181 0
155 177 0
155 178 0
163 185 0
162 182 0
159 180 0
158 180 0
157 178 0
163 185 0
159 180 0
162 184 0
154 176 0
161 183 0
144 165 0
150 171 0
155 176 0
161 184 0
156 178 0
159 181 0
162 182 0
159 180 0
153 175 0
157 178 0
152 174 0
157 179 0
157 178 0
163 186 0
158 180 0
157 179 0
161 184 0
159 181 0
163 187 0
155 176 0
156 176 0
159 181 0
152 174 0
162 185 0
157 179 0
165 186 0
160 183 0
160 182 0
156 177 0
161 183 0
157 180 0
156 179 0
157 178 0
160 182 0
167 188 0
160 180 0
164 187 0
161 183 0
159 181 0
161 182 0
160 181 0
164 187 0
161 182 0
164 186 0
162 183 0
165 188 0
169 191 0
163 185 0
165 188 0
162 184 0
168 191 0
164 187 0
166 188 0
159 180 0
167 188 0
164 187 0
164 187 0
159 181 0
160 182 0
159 181 0
169 190 0
166 188 0
167 187 0
163 185 0
169 191 0
159 180 0
165 188 0
163 185 0
162 184 0
164 185 0
163 184 0
164 187 0
171 194 0
168 190 0
168 190 0
164 185 0
169 191 0
162 185 0
163 186 0
167 189 0
168 190 0
163 185 0
167 188 0
166 189 0
167 189 0
167 190 0
167 188 0
165 186 0
169 191 0
163 186 0
164 184 0
169 192 0
167 189 0
169 191 0
168 190 0
169 191 0
167 190 0
166 189 0
169 190 0
169 193 76
178 200 105
174 196 105
173 196 114
174 196 105
167 190 102
172 194 92
170 193 80
176 199 108
167 190 92
170 193 84
172 194 108
172 195 95
165 189 92
165 187 72
175 198 108
171 194 95
163 187 80
169 192 92
167 189 84
166 188 76
169 193 99
163 186 102
171 194 95
169 192 84
168 191 105
169 193 88
172 195 99
165 187 88
171 194 84
170 193 95
168 191 99
172 194 99
171 194 111
173 196 99
165 187 111
168 191 105
169 192 95
169 192 99
163 186 99
167 189 95
164 187 76
166 188 102
172 194 84
161 183 95
162 185 76
161 183 76
164 187 102
164 187 95
164 187 88
167 190 102
167 188 95
163 187 102
169 191 108
167 190 111
161 183 72
164 186 102
164 186 117
169 191 114
166 188 108
159 182 80
169 190 95
163 185 92
166 188 102
166 188 114
160 182 80
164 187 105
165 187 102
166 189 108
161 183 92
160 182 95
161 184 108
165 186 95
164 185 95
160 181 105
165 187 92
168 189 95
164 186 120
167 189 102
155 177 99
167 189 108
161 184 92
157 179 84
150 171 95
161 182 102
160 182 111
160 180 84
164 184 108
166 187 99
157 178 84
160 181 95
164 186 84
157 178 92
153 174 95
159 181 102
160 180 88
159 180 102
155 176 76
158 178 80
157 177 88
153 173 88
161 181 99
154 175 72
161 182 92
151 173 72
156 176 95
159 180 80
159 180 80
158 177 95
153 173 67
147 168 62
154 175 62
154 174 76
162 182 84
155 176 36
146 167 44
144 165 57
146 167 25
159 180 25
142 164 0
148 169 36
154 176 51
139 161 25
142 163 25
152 173 62
142 164 0
153 174 25
153 174 51
151 172 36
151 171 0
149 171 25
160 182 0
152 174 0
156 179 0
158 180 0
152 174 0
153 174 0
149 171 0
143 165 0
154 177 0
152 174 0
142 163 0
139 162 0
141 162 0
144 166 0
136 158 0
140 161 0
138 158 0
145 166 0
140 161 0
148 168 0
134 155 0
134 154 0
143 165 0
138 157 0
139 160 0
136 157 0
128 148 0
141 164 0
135 155 0
139 160 0
138 157 0
127 147 0
137 156 0
140 159 0
130 150 0
132 153 0
133 154 0
130 150 0
136 157 0
143 163 0
134 153 0
137 157 0
137 158 0
135 155 0
136 157 0
137 157 0
142 163 0
133 154 0
133 155 0
127 147 0
133 153 0
144 164 0
137 157 0
142 163 0
136 156 0
132 153 0
140 160 0
132 153 0
120 141 0
136 158 0
137 157 0
148 170 0
133 154 0
140 161 0
139 159 0
141 163 0
136 156 0
134 155 0
131 152 0
127 148 0
138 159 0
136 158 0
139 159 0
135 157 0
129 150 0
131 151 0
145 167 0
140 161 0
147 168 0
126 146 0
137 158 0
133 154 0
135 156 0
140 161 0
133 154 0
142 163 0
149 171 0
133 153 0
143 163 0
144 164 0
145 166 0
144 166 0
150 171 0
147 168 0
142 163 0
153 174 0
135 157 0
143 164 0
146 166 0
147 169 0
140 161 0
147 170 0
142 164 0
141 163 0
145 166 0
136 156 0
139 160 0
149 171 0
146 168 0
147 168 0
141 162 0
144 165 0
150 173 0
149 171 0
149 171 0
148 168 0
151 172 0
152 174 0
149 170 0
142 163 0
152 175 0
142 164 0
145 167 0
148 170 0
138 159 0
147 170 0
145 167 0
153 174 0
152 174 0
151 173 0
151 173 0
150 171 0
146 168 0
153 175 0
156 177 0
150 173 0
158 178 0
146 169 0
156 177 0
153 175 0
154 175 0
151 173 0
154 175 0
144 167 0
151 172 0
154 177 0
150 172 0
149 171 0
159 182 0
152 174 0
155 177 0
154 175 0
156 179 0
151 173 0
157 180 0
165 185 0
162 185 0
146 166 0
156 177 0
153 175 0
161 182 0
154 175 0
161 183 0
158 180 0
154 176 0
156 179 0
155 177 0
149 171 0
160 181 0
157 179 0
155 177 0
154 176 0
156 179 0
159 181 0
155 176 0
157 177 0
159 182 0
154 177 0
158 179 0
159 180 0
161 183 0
163 185 0
154 177 0
153 174 0
165 187 0
159 181 0
158 180 0
155 175 0
165 187 0
157 178 0
162 184 0
161 183 0
162 184 0
159 180 0
160 182 0
162 184 0
165 187 0
166 188 0
157 179 0
164 187 0
159 180 0
159 180 0
166 188 0
163 186 0
161 183 0
160 182 0
161 183 0
158 178 0
162 184 0
166 188 0
166 188 0
162 185 0
157 180 0
166 188 0
165 188 0
163 186 0
162 183 0
161 183 0
169 191 0
161 182 0
163 186 0
163 185 0
162 184 0
168 190 0
163 185 0
165 186 0
164 186 0
170 192 0
163 185 0
167 189 0
162 182 0
167 188 0
166 188 0
165 187 0
165 186 0
164 185 0
165 187 0
163 186 0
167 190 0
163 186 0
165 187 0
162 184 0
168 190 0
166 189 0
165 186 0
166 188 0
164 187 0
164 186 0
169 190 0
161 184 0
165 187 0
167 189 0
170 192 0
167 189 0
165 188 0
167 189 0
164 186 0
167 188 0
170 191 0
163 185 0
171 194 0
166 189 0
167 188 0
167 189 0
167 190 0
167 191 0
167 190 0
166 188 0
168 189 0
172 195 88
175 197 99
176 198 102
170 193 108
173 196 84
168 191 84
173 195 92
171 193 108
170 193 95
172 195 88
169 192 88
172 195 102
179 201 99
170 193 84
174 197 84
167 191 88
171 193 84
169 192 84
172 195 88
164 187 70
169 192 114
172 195 92
165 188 72
171 195 122
171 194 99
165 188 92
174 197 84
168 191 84
174 196 88
171 195 114
167 189 102
169 193 111
168 191 95
172 195 105
165 188 84
164 188 95
169 192 92
164 188 105
167 189 99
166 190 114
169 191 105
173 196 114
162 185 76
169 192 95
163 186 84
165 188 92
173 195 102
164 186 80
158 181 95
163 186 67
158 181 72
168 190 114
168 190 92
164 187 88
171 193 105
168 190 92
167 189 99
160 183 105
170 193 99
161 184 95
168 190 111
170 193 108
168 190 102
161 184 88
159 181 95
168 189 99
162 185 92
158 179 92
170 193 108
165 187 102
162 183 88
166 187 80
163 185 102
163 185 95
160 181 95
160 182 92
166 189 108
164 186 105
164 186 95
166 188 105
170 191 95
157 179 80
159 180 95
159 180 88
162 184 102
168 188 102
162 183 95
166 187 95
165 185 92
163 184 88
157 178 95
157 178 88
159 180 84
157 178 76
168 188 111
163 183 99
153 173 88
160 179 95
159 179 84
154 176 67
158 179 80
158 179 84
155 175 92
165 185 92
160 180 95
158 177 88
162 182 99
151 171 62
151 171 67
154 175 67
155 175 67
159 180 84
157 178 44
152 172 44
150 171 36
147 168 62
154 175 57
150 171 25
154 176 36
145 167 25
157 178 25
152 173 44
151 173 36
151 172 36
156 177 57
143 164 0
145 167 0
147 168 0
144 165 44
155 177 0
154 176 0
159 182 0
163 186 0
158 180 0
161 182 0
154 175 0
151 174 0
157 179 0
151 173 0
146 169 0
151 173 0
152 174 0
146 169 0
148 170 0
145 167 0
150 171 0
147 168 0
149 170 0
148 168 0
139 159 0
140 161 0
141 161 0
137 157 0
143 164 0
141 161 0
141 161 0
140 161 0
136 157 0
129 151 0
142 162 0
139 159 0
144 165 0
128 148 0
140 160 0
132 154 0
135 156 0
142 163 0
138 158 0
142 163 0
136 156 0
142 163 0
142 163 0
133 154 0
138 159 0
134 154 0
142 161 0
136 157 0
130 150 0
135 156 0
139 159 0
131 152 0
140 160 0
135 156 0
140 161 0
144 165 0
129 151 0
136 157 0
140 160 0
143 164 0
143 164 0
128 148 0
129 150 0
147 169 0
143 164 0
133 154 0
138 158 0
133 154 0
145 165 0
134 156 0
146 167 0
143 163 0
133 154 0
143 164 0
138 158 0
136 156 0
132 153 0
140 161 0
136 157 0
145 167 0
133 152 0
134 155 0
148 169 0
139 160 0
144 166 0
128 150 0
138 159 0
136 158 0
149 169 0
143 165 0
138 159 0
137 159 0
137 158 0
147 169 0
140 162 0
142 162 0
142 162 0
140 161 0
138 159 0
131 152 0
141 162 0
139 161 0
156 178 0
151 172 0
140 161 0
143 163 0
148 169 0
143 165 0
142 163 0
148 168 0
150 172 0
134 156 0
153 172 0
151 172 0
149 170 0
153 175 0
150 171 0
146 167 0
145 167 0
142 163 0
148 169 0
149 171 0
148 170 0
150 173 0
153 175 0
148 170 0
148 168 0
151 172 0
150 173 0
149 171 0
155 177 0
151 172 0
149 170 0
150 173 0
148 169 0
151 172 0
150 171 0
150 171 0
155 177 0
159 180 0
148 169 0
154 176 0
144 165 0
154 176 0
150 171 0
154 176 0
156 177 0
154 176 0
150 172 0
156 178 0
159 181 0
148 170 0
155 177 0
148 169 0
152 173 0
150 170 0
157 178 0
155 176 0
150 172 0
149 171 0
152 174 0
157 178 0
158 179 0
161 181 0
156 177 0
158 180 0
162 184 0
156 177 0
158 178 0
157 177 0
159 182 0
157 178 0
155 175 0
155 178 0
157 179 0
157 178 0
160 182 0
160 180 0
161 183 0
161 183 0
161 184 0
158 179 0
158 179 0
158 180 0
159 181 0
163 184 0
159 180 0
168 191 0
155 176 0
157 177 0
154 176 0
166 189 0
156 179 0
154 175 0
155 178 0
167 190 0
161 183 0
161 183 0
163 185 0
163 184 0
158 180 0
153 175 0
166 189 0
164 186 0
159 180 0
159 181 0
165 187 0
163 185 0
158 177 0
159 180 0
160 182 0
162 185 0
165 187 0
159 181 0
157 180 0
164 188 0
162 183 0
160 181 0
165 189 0
160 180 0
166 188 0
163 186 0
165 187 0
167 189 0
163 185 0
163 185 0
165 187 0
167 190 0
167 188 0
166 189 0
165 187 0
163 183 0
164 187 0
165 187 0
169 192 0
167 190 0
168 191 0
161 183 0
165 187 0
162 185 0
166 187 0
169 191 0
170 192 0
162 185 0
164 187 0
168 190 0
163 185 0
168 190 0
168 189 0
166 187 0
161 183 0
166 189 0
167 190 0
171 193 0
165 188 0
167 188 0
164 186 0
164 187 0
169 191 0
167 190 0
168 191 0
166 188 0
165 187 0
166 189 0
165 187 0
161 183 0
167 191 0
167 188 0
167 190 0
164 187 0
166 189 0
170 192 80
164 187 72
177 199 117
175 198 102
173 196 99
170 193 84
175 197 105
169 192 102
177 199 95
172 195 92
173 195 84
174 197 111
172 195 105
171 195 99
170 192 80
169 191 84
167 190 95
173 197 95
170 193 99
167 190 102
171 194 88
172 195 108
173 196 111
169 192 84
174 196 80
168 191 92
167 191 67
173 196 102
173 196 88
170 192 105
170 192 80
170 193 108
168 191 80
166 189 72
170 192 92
172 195 95
171 194 102
169 191 88
169 192 84
164 187 102
172 196 105
171 194 95
169 192 99
168 190 105
171 194 88
163 186 99
166 189 88
166 189 102
162 185 92
161 184 88
163 185 88
170 193 88
168 191 95
162 185 76
165 188 111
167 189 99
159 181 80
164 185 102
169 191 92
160 183 114
165 188 80
163 186 102
164 186 95
159 181 99
163 184 95
165 187 92
167 188 102
172 194 117
158 180 102
162 184 95
166 187 102
164 185 99
166 188 108
170 192 99
158 179 84
162 183 67
161 183 99
163 184 117
159 181 84
160 181 95
158 178 84
161 181 84
158 180 76
156 178 92
157 179 84
160 180 95
162 182 105
165 187 105
164 184 114
160 183 76
159 180 80
163 183 99
160 181 92
158 178 88
153 175 88
158 179 95
159 180 88
163 183 111
160 181 99
163 184 99
161 182 92
155 176 99
158 179 99
156 177 76
161 182 95
160 181 95
162 183 102
160 179 92
155 176 72
152 173 88
159 179 92
157 177 88
154 176 51
154 175 62
152 174 51
152 173 67
158 178 51
158 180 36
150 171 0
151 173 0
142 164 25
151 172 0
152 173 36
160 181 36
148 169 36
146 169 25
148 170 25
151 174 25
154 175 44
151 174 0
162 184 0
162 184 0
166 189 0
155 177 0
153 176 0
155 178 0
150 172 0
152 173 0
149 172 0
150 173 0
151 175 0
144 166 0
140 162 0
137 159 0
144 165 0
142 163 0
148 168 0
132 152 0
141 163 0
146 168 0
138 159 0
148 169 0
141 163 0
128 149 0
130 151 0
139 159 0
138 159 0
139 160 0
137 157 0
144 164 0
149 170 0
131 151 0
138 159 0
120 142 0
138 159 0
138 159 0
143 165 0
131 152 0
131 151 0
138 159 0
134 154 0
140 161 0
139 158 0
144 164 0
139 160 0
131 152 0
150 171 0
134 155 0
134 156 0
136 157 0
134 155 0
133 153 0
140 161 0
134 155 0
133 153 0
139 160 0
135 155 0
136 156 0
134 156 0
139 159 0
133 155 0
136 158 0
137 158 0
135 156 0
148 170 0
139 160 0
141 161 0
138 158 0
136 157 0
147 169 0
139 161 0
140 161 0
139 161 0
142 163 0
143 165 0
147 167 0
143 164 0
143 163 0
140 160 0
144 165 0
143 163 0
144 163 0
132 154 0
145 166 0
145 166 0
139 160 0
146 168 0
141 162 0
132 154 0
149 169 0
137 159 0
140 161 0
144 166 0
142 164 0
146 167 0
143 165 0
134 156 0
140 161 0
150 171 0
141 162 0
137 158 0
142 164 0
148 168 0
146 167 0
148 169 0
138 160 0
148 169 0
143 165 0
144 164 0
153 174 0
147 168 0
151 173 0
142 164 0
146 167 0
152 173 0
147 168 0
150 172 0
147 168 0
152 174 0
153 174 0
144 166 0
152 175 0
139 161 0
147 167 0
155 178 0
149 171 0
153 174 0
154 177 0
150 171 0
152 173 0
146 168 0
155 176 0
154 177 0
147 168 0
153 175 0
154 176 0
159 180 0
162 184 0
147 167 0
155 176 0
151 172 0
152 174 0
152 175 0
154 175 0
154 174 0
155 177 0
154 176 0
160 181 0
154 176 0
154 176 0
156 177 0
156 177 0
156 177 0
158 178 0
153 176 0
147 168 0
156 178 0
157 178 0
153 174 0
158 181 0
158 180 0
163 186 0
155 177 0
160 182 0
160 182 0
154 175 0
159 181 0
161 182 0
159 181 0
160 182 0
156 178 0
156 177 0
164 186 0
161 184 0
154 176 0
158 179 0
156 177 0
159 181 0
155 177 0
160 182 0
159 181 0
163 186 0
151 173 0
163 185 0
161 182 0
158 177 0
164 185 0
164 187 0
158 179 0
162 183 0
156 179 0
158 181 0
152 173 0
165 188 0
159 182 0
159 181 0
160 182 0
164 187 0
161 182 0
165 187 0
163 185 0
159 182 0
167 189 0
161 183 0
160 180 0
165 188 0
165 186 0
161 182 0
162 184 0
159 180 0
164 187 0
163 185 0
162 184 0
163 185 0
164 186 0
165 187 0
155 177 0
165 187 0
161 184 0
166 188 0
161 183 0
163 186 0
167 190 0
161 183 0
163 184 0
160 182 0
164 187 0
166 188 0
167 189 0
164 186 0
162 183 0
159 181 0
163 185 0
164 185 0
162 186 0
169 192 0
163 184 0
161 183 0
168 189 0
166 189 0
164 186 0
167 189 0
165 188 0
168 189 0
162 183 0
164 186 0
164 186 0
164 186 0
166 189 0
167 188 0
169 192 0
166 188 0
166 189 0
166 187 0
170 193 0
161 183 0
164 185 0
168 190 0
171 194 0
164 186 0
165 188 0
167 189 0
165 187 0
169 192 0
163 185 0
168 190 0
169 192 0
169 191 0
166 188 0
168 189 0
172 194 99
176 199 99
174 197 92
172 194 88
173 196 92
176 199 88
172 194 88
169 192 67
170 193 95
168 191 84
170 193 99
174 197 92
170 193 72
172 195 95
169 193 111
171 194 88
173 196 105
170 193 105
171 194 72
175 198 117
170 192 84
171 194 108
171 193 78
171 194 84
172 195 95
173 196 108
171 194 102
170 191 95
173 196 88
171 193 105
169 192 105
170 192 105
167 190 102
168 191 102
168 191 99
170 192 88
169 191 84
173 196 114
165 187 92
168 191 111
173 194 95
168 192 108
166 189 95
170 191 111
165 187 88
164 187 84
170 193 102
170 193 105
166 188 84
160 183 95
168 191 88
161 184 108
162 184 102
165 187 88
165 187 108
167 190 120
162 184 84
163 186 117
169 190 108
165 187 88
168 190 102
165 187 102
162 184 95
167 189 114
156 178 92
170 192 111
158 180 102
166 188 122
163 185 88
163 185 84
168 190 108
168 189 76
161 183 111
161 182 111
159 180 80
160 182 99
158 180 72
159 180 92
163 185 99
166 188 111
163 184 117
153 174 111
161 182 72
159 180 84
159 180 102
158 179 88
158 180 72
163 185 84
156 177 95
161 181 99
159 180 88
159 180 95
160 180 117
162 183 80
161 182 99
155 176 92
163 183 102
160 180 95
160 179 92
155 176 76
166 186 95
151 172 62
165 186 84
158 179 80
156 176 80
161 180 88
158 178 80
154 174 67
161 182 80
157 177 84
160 181 84
155 176 84
152 173 67
157 179 62
149 170 62
159 180 57
149 169 51
151 173 36
156 177 36
154 175 25
146 168 25
147 169 44
150 172 57
149 171 25
150 171 25
158 180 51
147 168 0
154 177 36
150 172 0
148 170 0
154 174 0
159 183 0
159 182 0
161 183 0
151 174 0
154 176 0
152 174 0
154 176 0
153 176 0
157 178 0
152 174 0
144 164 0
145 167 0
146 168 0
147 169 0
147 168 0
140 160 0
146 166 0
147 169 0
149 171 0
149 170 0
147 168 0
140 161 0
142 163 0
136 157 0
142 163 0
134 154 0
148 169 0
133 154 0
131 153 0
152 172 0
143 163 0
133 154 0
136 157 0
138 159 0
138 158 0
135 156 0
139 160 0
130 150 0
136 156 0
133 154 0
143 165 0
143 163 0
142 163 0
139 160 0
136 158 0
141 161 0
147 168 0
139 160 0
142 163 0
137 158 0
138 159 0
136 157 0
138 159 0
133 153 0
139 160 0
135 156 0
136 158 0
135 157 0
134 154 0
137 158 0
144 166 0
133 154 0
146 167 0
147 168 0
141 162 0
145 167 0
144 166 0
141 163 0
133 154 0
137 157 0
135 156 0
138 159 0
139 159 0
134 156 0
146 167 0
142 163 0
150 171 0
137 158 0
142 163 0
138 160 0
148 169 0
133 155 0
144 165 0
150 172 0
146 167 0
143 164 0
145 165 0
148 169 0
148 170 0
144 167 0
145 167 0
139 161 0
148 169 0
148 169 0
142 165 0
139 161 0
144 164 0
144 165 0
143 165 0
139 160 0
145 167 0
144 165 0
148 169 0
150 173 0
148 170 0
152 173 0
150 172 0
149 171 0
153 175 0
147 169 0
149 171 0
146 167 0
150 170 0
155 178 0
152 173 0
150 170 0
141 162 0
148 170 0
151 173 0
141 164 0
144 165 0
149 171 0
149 170 0
154 177 0
152 173 0
143 164 0
149 171 0
151 172 0
151 173 0
150 172 0
159 180 0
139 161 0
151 171 0
156 178 0
159 182 0
152 173 0
156 177 0
151 173 0
155 176 0
158 180 0
152 174 0
155 176 0
149 170 0
161 182 0
153 175 0
150 172 0
150 172 0
155 178 0
149 170 0
155 177 0
157 179 0
152 172 0
153 174 0
158 180 0
147 169 0
152 174 0
154 175 0
156 178 0
148 170 0
147 168 0
159 180 0
158 180 0
152 173 0
157 178 0
160 183 0
163 187 0
156 177 0
156 177 0
156 179 0
149 170 0
156 178 0
160 182 0
160 182 0
155 175 0
157 180 0
155 177 0
152 175 0
161 184 0
160 182 0
156 177 0
156 178 0
161 183 0
163 184 0
160 182 0
160 181 0
156 177 0
163 184 0
157 179 0
161 182 0
154 175 0
158 180 0
162 184 0
163 186 0
161 183 0
158 180 0
158 181 0
161 183 0
159 181 0
161 184 0
159 182 0
160 182 0
163 185 0
163 186 0
162 185 0
158 180 0
159 180 0
161 183 0
162 184 0
164 187 0
165 186 0
165 187 0
160 183 0
161 181 0
165 188 0
163 185 0
166 187 0
164 185 0
168 190 0
158 179 0
163 185 0
163 186 0
164 185 0
165 187 0
163 186 0
166 188 0
169 191 0
165 187 0
165 188 0
166 189 0
163 186 0
165 186 0
164 185 0
159 181 0
162 184 0
158 181 0
167 189 0
166 188 0
163 186 0
165 188 0
164 186 0
161 183 0
171 192 0
167 189 0
169 190 0
167 189 0
163 185 0
163 185 0
163 185 0
164 185 0
166 188 0
164 188 0
161 184 0
162 183 0
164 187 0
166 188 0
164 186 0
166 188 0
166 188 0
168 190 0
167 188 0
165 188 0
170 191 0
167 190 0
163 185 0
169 192 0
163 185 0
166 188 0
168 190 0
167 190 0
178 200 95
171 195 72
172 195 108
172 195 111
175 198 105
172 194 108
170 192 95
176 198 105
176 197 95
173 195 72
174 196 80
171 194 105
166 188 84
170 193 102
167 190 95
171 195 102
167 190 80
165 189 102
174 197 111
170 194 92
174 197 105
172 195 102
172 195 100
172 195 92
170 192 80
168 190 102
173 195 95
172 195 92
170 192 84
159 182 80
170 192 84
170 192 80
170 192 88
170 192 102
169 193 99
171 194 99
170 193 102
169 192 88
168 190 102
166 189 102
163 186 99
172 194 92
161 184 105
168 191 95
170 194 102
177 199 128
163 186 92
165 187 80
166 188 95
165 189 102
163 184 76
169 191 76
171 193 92
167 188 88
162 185 95
166 188 108
166 188 92
157 180 76
155 179 84
163 185 95
163 186 95
172 194 108
166 188 99
158 179 84
161 184 105
151 174 80
158 180 80
159 181 88
166 187 76
164 186 114
162 184 99
169 191 117
166 188 111
165 187 111
159 180 102
165 187 105
164 185 84
162 184 111
159 181 92
161 182 105
164 185 92
158 180 92
164 186 80
156 178 88
163 184 84
166 187 95
156 177 95
156 177 57
159 179 99
152 172 95
155 176 99
162 183 84
160 181 88
164 185 92
154 175 92
154 174 92
159 181 80
154 174 102
159 180 88
160 181 105
160 182 99
157 178 72
163 183 102
157 178 84
163 183 88
169 189 114
151 173 62
154 175 95
156 175 80
160 180 76
152 172 67
153 174 67
165 185 84
159 180 36
158 180 51
158 179 51
155 176 0
152 175 0
150 171 51
149 171 25
150 172 25
153 174 44
148 171 44
148 170 25
152 174 0
154 176 0
153 174 25
146 168 0
146 167 0
154 175 0
161 183 0
157 178 0
159 182 0
155 177 0
165 188 0
160 183 0
157 180 0
154 176 0
156 178 0
146 167 0
154 175 0
153 174 0
150 172 0
149 170 0
146 166 0
144 165 0
142 163 0
139 159 0
145 166 0
139 160 0
145 166 0
149 170 0
137 158 0
138 159 0
147 168 0
135 156 0
142 163 0
138 158 0
146 167 0
142 164 0
142 163 0
140 162 0
136 157 0
133 154 0
149 170 0
136 157 0
130 151 0
147 168 0
136 158 0
141 162 0
143 163 0
148 169 0
145 166 0
127 148 0
141 163 0
150 172 0
141 162 0
142 163 0
140 160 0
129 149 0
133 154 0
141 162 0
136 156 0
134 155 0
141 161 0
138 161 0
133 154 0
145 166 0
129 150 0
145 166 0
135 156 0
139 161 0
138 159 0
138 159 0
141 163 0
141 162 0
143 164 0
143 163 0
149 170 0
142 164 0
138 160 0
146 168 0
125 145 0
137 158 0
151 173 0
151 172 0
140 161 0
141 162 0
141 163 0
142 162 0
141 163 0
142 165 0
143 165 0
146 166 0
142 164 0
142 162 0
145 166 0
139 161 0
146 168 0
140 161 0
139 160 0
139 160 0
141 161 0
138 160 0
152 174 0
153 175 0
141 162 0
144 166 0
150 171 0
156 177 0
148 168 0
142 163 0
147 170 0
143 165 0
150 171 0
139 161 0
142 164 0
143 166 0
152 173 0
148 171 0
156 178 0
138 159 0
146 167 0
140 160 0
148 170 0
151 173 0
146 168 0
154 177 0
147 169 0
151 173 0
150 171 0
153 174 0
150 172 0
154 175 0
145 167 0
153 176 0
160 182 0
152 174 0
153 175 0
155 177 0
155 176 0
156 178 0
151 172 0
149 170 0
152 174 0
165 186 0
149 171 0
150 171 0
156 177 0
158 180 0
155 177 0
158 180 0
154 176 0
154 176 0
152 173 0
158 180 0
158 180 0
159 182 0
150 173 0
150 171 0
156 179 0
158 181 0
159 179 0
147 169 0
162 184 0
156 178 0
157 179 0
156 178 0
158 179 0
154 176 0
150 172 0
156 178 0
157 179 0
158 180 0
159 181 0
159 181 0
162 184 0
157 180 0
157 179 0
160 183 0
154 176 0
166 188 0
158 180 0
165 187 0
159 180 0
157 179 0
162 183 0
161 183 0
155 177 0
154 175 0
147 167 0
154 176 0
158 180 0
163 186 0
160 181 0
157 179 0
156 178 0
159 180 0
156 180 0
162 184 0
165 188 0
161 182 0
154 175 0
164 186 0
156 177 0
159 182 0
164 186 0
163 185 0
160 182 0
165 187 0
162 184 0
161 182 0
159 180 0
159 180 0
161 181 0
159 180 0
162 183 0
159 182 0
164 187 0
164 186 0
159 179 0
158 180 0
164 186 0
159 182 0
159 179 0
161 182 0
167 189 0
160 182 0
162 184 0
168 190 0
165 188 0
164 187 0
166 190 0
162 183 0
163 185 0
165 187 0
162 184 0
161 182 0
166 188 0
160 181 0
163 184 0
163 184 0
167 189 0
167 189 0
166 189 0
166 188 0
163 185 0
167 189 0
158 180 0
170 192 0
164 186 0
165 189 0
164 185 0
166 190 0
163 185 0
161 183 0
163 186 0
165 188 0
164 188 0
166 189 0
166 187 0
163 185 0
168 189 0
168 191 0
168 191 0
167 189 0
171 195 0
168 190 0
166 188 0
166 189 0
165 187 0
168 191 0
164 186 0
170 193 0
167 188 0
167 189 0
167 189 0
171 193 0
167 189 0
166 188 0
173 196 92
177 199 120
175 198 105
174 196 105
177 200 102
175 197 84
176 198 105
176 199 117
171 193 92
175 198 111
172 194 88
174 196 92
171 194 108
176 198 95
172 194 84
171 194 92
176 199 99
173 196 84
170 192 84
171 194 92
171 194 102
168 192 80
168 192 92
169 191 111
171 194 92
169 192 92
169 193 108
168 190 95
172 195 114
174 197 95
170 192 95
171 194 114
168 191 105
171 194 76
168 191 80
164 187 102
165 188 95
163 185 88
165 189 105
165 188 105
173 194 111
167 190 99
164 186 84
163 185 72
172 196 111
169 191 99
163 186 62
163 185 88
168 191 84
164 187 102
170 192 102
169 192 92
161 183 80
166 189 95
169 191 108
161 182 92
168 190 99
169 191 108
161 183 92
159 182 102
167 188 95
162 183 102
164 186 72
166 188 105
171 193 114
167 189 108
160 182 72
171 193 102
165 187 99
158 179 95
155 177 72
161 183 99
169 191 102
161 182 95
163 185 80
168 189 102
170 191 117
165 187 88
162 184 99
166 188 95
160 182 57
163 184 99
162 183 92
162 183 105
168 188 99
160 181 105
168 188 92
158 179 76
160 180 105
163 184 88
165 185 114
163 184 92
162 183 88
163 183 92
164 185 99
162 182 105
159 180 72
163 182 92
161 182 88
155 176 84
155 176 76
165 185 92
157 177 92
159 180 67
159 180 72
165 185 88
159 179 67
162 182 88
150 171 72
161 182 84
157 177 84
156 177 36
153 175 57
147 168 44
148 169 51
154 175 67
155 177 25
148 170 25
145 166 51
156 177 25
152 175 25
151 173 0
157 178 25
156 179 51
152 173 25
146 168 25
159 181 0
153 176 25
160 182 0
157 180 0
156 178 0
161 183 0
154 177 0
152 175 0
156 177 0
156 179 0
155 177 0
147 168 0
156 178 0
149 172 0
146 167 0
149 172 0
156 177 0
149 171 0
147 170 0
152 172 0
148 169 0
144 166 0
148 169 0
146 167 0
144 165 0
142 163 0
145 165 0
146 168 0
145 166 0
139 160 0
139 159 0
145 167 0
129 149 0
149 170 0
150 172 0
139 161 0
139 159 0
141 162 0
143 164 0
147 168 0
145 165 0
147 168 0
142 164 0
138 160 0
152 173 0
137 158 0
138 160 0
137 159 0
132 154 0
139 160 0
143 164 0
136 158 0
143 163 0
140 161 0
139 161 0
138 158 0
140 160 0
137 158 0
140 161 0
130 152 0
146 167 0
141 163 0
135 156 0
130 151 0
137 159 0
145 166 0
136 156 0
142 163 0
133 154 0
138 158 0
144 166 0
139 161 0
136 157 0
136 157 0
148 171 0
147 167 0
148 170 0
140 161 0
149 170 0
140 161 0
150 171 0
137 159 0
147 169 0
139 160 0
147 168 0
145 167 0
142 163 0
151 172 0
140 162 0
141 163 0
140 162 0
146 168 0
136 158 0
145 167 0
142 164 0
137 158 0
153 173 0
134 155 0
147 169 0
136 158 0
138 158 0
146 168 0
142 163 0
148 171 0
142 163 0
149 172 0
150 171 0
142 164 0
154 175 0
153 175 0
147 169 0
148 169 0
149 171 0
140 160 0
155 176 0
143 165 0
153 173 0
149 170 0
148 169 0
146 169 0
149 171 0
154 177 0
152 174 0
148 170 0
146 166 0
144 166 0
149 171 0
149 170 0
144 165 0
156 177 0
158 180 0
151 173 0
148 170 0
150 172 0
147 170 0
151 173 0
157 179 0
154 176 0
158 179 0
153 176 0
156 179 0
159 181 0
154 177 0
158 179 0
153 175 0
160 184 0
151 172 0
151 172 0
151 173 0
158 180 0
154 175 0
154 176 0
152 175 0
158 178 0
154 175 0
153 173 0
148 170 0
153 175 0
159 179 0
153 174 0
161 183 0
154 176 0
155 176 0
161 183 0
162 183 0
163 183 0
154 176 0
160 182 0
158 180 0
151 173 0
158 180 0
159 180 0
153 174 0
162 182 0
161 181 0
158 181 0
160 181 0
149 171 0
163 186 0
163 186 0
159 181 0
164 186 0
161 181 0
157 179 0
160 183 0
156 177 0
156 178 0
161 181 0
162 184 0
158 179 0
162 183 0
164 186 0
158 177 0
156 178 0
162 185 0
158 180 0
160 181 0
161 183 0
164 187 0
157 180 0
160 182 0
160 183 0
160 183 0
162 184 0
162 184 0
163 186 0
160 183 0
163 185 0
161 183 0
163 183 0
165 187 0
166 189 0
166 189 0
165 186 0
169 190 0
166 187 0
165 187 0
168 191 0
161 182 0
159 181 0
166 188 0
164 184 0
155 177 0
159 182 0
167 190 0
167 190 0
166 190 0
166 187 0
165 187 0
165 187 0
164 187 0
167 190 0
161 183 0
161 183 0
163 185 0
168 192 0
171 192 0
162 185 0
156 178 0
168 189 0
162 184 0
169 191 0
159 180 0
167 189 0
165 186 0
164 187 0
164 185 0
165 186 0
169 191 0
167 190 0
169 191 0
163 185 0
164 186 0
167 191 0
171 193 0
166 186 0
165 187 0
165 186 0
166 189 0
165 186 0
165 187 0
163 185 0
164 187 0
166 189 0
168 191 0
166 188 0
164 187 0
168 190 0
167 190 0
169 191 0
165 186 0
160 182 0
171 192 0
167 188 0
173 196 99
174 197 102
171 194 102
171 195 107
174 196 84
177 199 95
173 195 108
172 195 92
173 196 99
174 197 114
173 196 108
173 195 117
173 196 102
170 193 84
176 198 92
169 192 95
170 193 105
170 193 84
170 193 99
162 185 76
173 196 111
170 193 108
168 191 67
170 193 105
174 197 99
168 191 95
171 193 84
175 197 111
171 193 102
172 195 95
169 191 92
167 189 80
170 193 105
167 190 88
163 186 72
166 188 80
165 186 76
161 184 72
167 189 99
171 193 99
169 191 88
172 195 114
166 187 72
170 193 84
170 193 108
171 194 114
168 190 92
167 189 130
170 192 99
167 190 117
168 191 108
162 183 84
164 186 88
170 192 114
162 185 108
166 188 80
160 182 102
170 192 114
167 189 84
161 184 108
174 195 108
163 185 95
162 184 84
162 184 92
164 186 99
155 177 88
153 175 84
162 184 99
158 181 108
170 192 108
161 183 99
165 187 105
161 182 88
162 182 88
169 189 125
162 183 99
159 181 95
161 183 88
168 189 88
169 190 117
166 187 108
168 190 105
160 181 92
160 182 95
162 184 92
160 180 88
166 188 84
157 177 88
154 175 72
164 184 102
155 177 95
158 178 84
151 171 88
159 179 80
170 191 95
158 179 84
162 184 99
155 175 80
159 180 80
155 176 80
154 175 80
162 183 84
164 185 80
172 192 108
151 171 36
158 179 84
160 182 67
164 185 76
163 183 99
159 180 67
156 176 76
158 179 62
158 178 67
150 171 51
155 177 67
147 169 51
151 173 44
147 169 36
149 171 36
152 173 0
149 171 0
139 161 36
152 174 25
149 171 44
154 176 0
148 171 25
150 172 44
151 172 36
152 174 0
158 181 0
155 178 0
153 176 0
157 180 0
163 186 0
164 186 0
157 179 0
157 180 0
163 185 0
153 176 0
147 169 0
153 176 0
145 167 0
156 177 0
140 163 0
140 161 0
142 163 0
148 169 0
151 172 0
138 160 0
143 163 0
145 166 0
150 171 0
141 162 0
147 169 0
137 159 0
143 164 0
142 163 0
148 168 0
145 166 0
139 159 0
138 159 0
138 159 0
147 168 0
132 152 0
147 168 0
142 163 0
138 159 0
144 165 0
131 152 0
142 163 0
135 156 0
131 152 0
146 167 0
139 161 0
131 152 0
136 157 0
140 160 0
131 151 0
152 172 0
139 159 0
143 164 0
137 159 0
134 156 0
143 164 0
145 167 0
134 156 0
129 149 0
142 164 0
147 168 0
142 162 0
146 168 0
149 171 0
142 164 0
146 168 0
144 166 0
145 167 0
140 161 0
138 159 0
140 162 0
134 156 0
135 157 0
146 167 0
147 168 0
140 162 0
144 165 0
141 162 0
147 169 0
148 170 0
147 168 0
144 166 0
145 166 0
145 168 0
144 165 0
146 168 0
142 163 0
139 161 0
139 160 0
143 164 0
137 159 0
145 166 0
144 165 0
145 167 0
146 166 0
148 168 0
152 173 0
150 172 0
146 167 0
145 167 0
148 169 0
142 164 0
145 168 0
146 167 0
139 160 0
140 161 0
149 172 0
152 174 0
147 169 0
147 169 0
152 174 0
151 173 0
154 176 0
154 177 0
148 170 0
147 168 0
147 168 0
151 172 0
143 164 0
148 169 0
148 170 0
144 165 0
154 176 0
150 173 0
151 172 0
153 175 0
148 170 0
154 176 0
148 171 0
156 179 0
146 169 0
144 165 0
154 175 0
148 169 0
150 171 0
149 169 0
155 178 0
159 182 0
151 174 0
152 175 0
152 174 0
158 179 0
152 173 0
154 175 0
150 171 0
152 174 0
157 179 0
153 175 0
150 173 0
156 177 0
157 180 0
151 173 0
154 176 0
155 177 0
154 176 0
160 182 0
159 182 0
157 181 0
156 178 0
159 181 0
154 175 0
160 182 0
161 184 0
158 180 0
157 179 0
155 175 0
154 175 0
155 177 0
157 180 0
155 177 0
156 177 0
159 182 0
163 184 0
156 179 0
159 183 0
163 186 0
156 179 0
156 177 0
151 174 0
157 178 0
161 183 0
161 183 0
158 181 0
164 187 0
163 186 0
151 174 0
157 180 0
158 180 0
159 182 0
161 184 0
160 183 0
166 188 0
161 183 0
160 181 0
158 180 0
158 179 0
163 184 0
163 185 0
155 177 0
164 185 0
159 180 0
160 182 0
159 182 0
166 188 0
165 186 0
162 183 0
163 185 0
166 188 0
159 181 0
161 184 0
164 186 0
162 186 0
164 185 0
165 186 0
167 188 0
169 190 0
160 181 0
166 189 0
161 183 0
165 187 0
167 189 0
165 187 0
168 191 0
164 186 0
163 183 0
162 184 0
164 186 0
164 186 0
161 183 0
163 185 0
163 186 0
164 188 0
167 189 0
168 190 0
164 185 0
165 188 0
163 185 0
163 185 0
164 187 0
167 189 0
167 190 0
166 189 0
163 184 0
164 186 0
164 186 0
167 190 0
165 188 0
165 188 0
164 187 0
168 190 0
163 185 0
167 189 0
166 189 0
166 187 0
168 189 0
170 191 0
169 191 0
167 190 0
167 190 0
168 190 0
162 183 0
167 189 0
165 188 0
168 190 0
167 189 0
168 190 0
169 191 0
162 184 0
167 189 0
166 189 0
166 188 0
168 190 0
